;FLAVOR:Marlin
;TIME:860
;Filament used: 0.535751m
;Layer height: 0.4
;MINX:192.75
;MINY:192.75
;MINZ:0.3
;MAXX:207.25
;MAXY:207.25
;MAXZ:15.1
;TARGET_MACHINE.NAME:Unknown
;Generated with Cura_SteamEngine 5.7.1
M104 S200
M105
M109 S200
M82 ;absolute extrusion mode
G28 ;Home
G1 Z15.0 F6000 ;Move the platform down 15mm
;Prime the extruder
G92 E0
G1 F200 E3
G92 E0
G92 E0
G92 E0
;LAYER_COUNT:38
;LAYER:0
M107
;MESH:cube1-5.STL
G0 F3600 X206.75 Y206.75 Z0.3
;TYPE:WALL-INNER
G1 F1200 X206.75 Y193.25 E0.31743
G1 X193.25 Y193.25 E0.63486
G1 X193.25 Y206.75 E0.95228
G1 X206.75 Y206.75 E1.26971
G0 F3600 X207.25 Y207.25
;TYPE:WALL-OUTER
G1 F1200 X207.25 Y192.75 E1.61065
G1 X192.75 Y192.75 E1.9516
G1 X192.75 Y207.25 E2.29254
G1 X207.25 Y207.25 E2.63348
G0 F3600 X207.25 Y207
G0 X206.43 Y206.43
G0 X206.274 Y206.274
;TYPE:SKIN
G1 F1200 X193.722 Y206.274 E2.92862
G1 X193.722 Y193.722 E3.22375
G1 X206.274 Y193.722 E3.51889
G1 X206.274 Y206.274 E3.81403
G0 F3600 X206.024 Y194.71
G1 F1200 X205.286 Y193.972 E3.83857
G0 F3600 X204.579 Y193.972
G1 F1200 X206.024 Y195.417 E3.88662
G0 F3600 X206.024 Y196.125
G1 F1200 X203.872 Y193.972 E3.9582
G0 F3600 X203.165 Y193.972
G1 F1200 X206.024 Y196.832 E4.05328
G0 F3600 X206.024 Y197.539
G1 F1200 X202.457 Y193.972 E4.17189
G0 F3600 X201.75 Y193.972
G1 F1200 X206.024 Y198.246 E4.31402
G0 F3600 X206.024 Y198.953
G1 F1200 X201.043 Y193.972 E4.47965
G0 F3600 X200.336 Y193.972
G1 F1200 X206.024 Y199.66 E4.66879
G0 F3600 X206.024 Y200.367
G1 F1200 X199.629 Y193.972 E4.88144
G0 F3600 X198.922 Y193.972
G1 F1200 X206.024 Y201.074 E5.1176
G0 F3600 X206.024 Y201.781
G1 F1200 X198.215 Y193.972 E5.37727
G0 F3600 X197.508 Y193.972
G1 F1200 X206.024 Y202.489 E5.66047
G0 F3600 X206.024 Y203.196
G1 F1200 X196.801 Y193.972 E5.96717
G0 F3600 X196.093 Y193.972
G1 F1200 X206.024 Y203.903 E6.29741
G0 F3600 X206.024 Y204.61
G1 F1200 X195.386 Y193.972 E6.65115
G0 F3600 X194.679 Y193.972
G1 F1200 X206.024 Y205.317 E7.0284
G0 F3600 X206.024 Y206.024
G1 F1200 X193.972 Y193.972 E7.42916
G0 F3600 X193.972 Y194.679
G1 F1200 X205.317 Y206.024 E7.80641
G0 F3600 X204.61 Y206.024
G1 F1200 X193.972 Y195.386 E8.16015
G0 F3600 X193.972 Y196.093
G1 F1200 X203.903 Y206.024 E8.49039
G0 F3600 X203.196 Y206.024
G1 F1200 X193.972 Y196.801 E8.79709
G0 F3600 X193.972 Y197.508
G1 F1200 X202.489 Y206.024 E9.08029
G0 F3600 X201.781 Y206.024
G1 F1200 X193.972 Y198.215 E9.33996
G0 F3600 X193.972 Y198.922
G1 F1200 X201.074 Y206.024 E9.57612
G0 F3600 X200.367 Y206.024
G1 F1200 X193.972 Y199.629 E9.78877
G0 F3600 X193.972 Y200.336
G1 F1200 X199.66 Y206.024 E9.97791
G0 F3600 X198.953 Y206.024
G1 F1200 X193.972 Y201.043 E10.14354
G0 F3600 X193.972 Y201.75
G1 F1200 X198.246 Y206.024 E10.28567
G0 F3600 X197.539 Y206.024
G1 F1200 X193.972 Y202.457 E10.40428
G0 F3600 X193.972 Y203.165
G1 F1200 X196.832 Y206.024 E10.49936
G0 F3600 X196.125 Y206.024
G1 F1200 X193.972 Y203.872 E10.57094
G0 F3600 X193.972 Y204.579
G1 F1200 X195.417 Y206.024 E10.61899
G0 F3600 X194.71 Y206.024
G1 F1200 X193.972 Y205.286 E10.64353
G1 X193.884 Y205.198
G0 F3600 X194 Y205.198
;MESH:NONMESH
G0 F600 X194 Y205.198 Z0.7
G0 F3600 X206.43 Y206.43
G0 X206.75 Y206.75
;TIME_ELAPSED:28.855755
;LAYER:1
;TYPE:WALL-INNER
;MESH:cube1-5.STL
G1 F1800 X206.75 Y193.25 E11.06677
G1 X193.25 Y193.25 E11.49001
G1 X193.25 Y206.75 E11.91324
G1 X206.75 Y206.75 E12.33648
G0 F5400 X207.25 Y207.25
;TYPE:WALL-OUTER
G1 F1200 X207.25 Y192.75 E12.79107
G1 X192.75 Y192.75 E13.24566
G1 X192.75 Y207.25 E13.70025
G1 X207.25 Y207.25 E14.15483
G0 F5400 X207.25 Y207
G0 X206.43 Y206.43
G0 X206.274 Y206.274
;TYPE:SKIN
G1 F1200 X193.722 Y206.274 E14.54835
G1 X193.722 Y193.722 E14.94187
G1 X206.274 Y193.722 E15.33538
G1 X206.274 Y206.274 E15.7289
G0 F5400 X205.512 Y206.024
G1 F1200 X206.024 Y205.512 E15.7516
G0 F5400 X206.024 Y204.805
G1 F1200 X204.805 Y206.024 E15.80565
G0 F5400 X204.098 Y206.024
G1 F1200 X206.024 Y204.098 E15.89104
G0 F5400 X206.024 Y203.391
G1 F1200 X203.391 Y206.024 E16.00778
G0 F5400 X202.684 Y206.024
G1 F1200 X206.024 Y202.684 E16.15587
G0 F5400 X206.024 Y201.977
G1 F1200 X201.977 Y206.024 E16.3353
G0 F5400 X201.269 Y206.024
G1 F1200 X206.024 Y201.269 E16.54612
G0 F5400 X206.024 Y200.562
G1 F1200 X200.562 Y206.024 E16.78829
G0 F5400 X199.855 Y206.024
G1 F1200 X206.024 Y199.855 E17.0618
G0 F5400 X206.024 Y199.148
G1 F1200 X199.148 Y206.024 E17.36666
G0 F5400 X198.441 Y206.024
G1 F1200 X206.024 Y198.441 E17.70287
G0 F5400 X206.024 Y197.734
G1 F1200 X197.734 Y206.024 E18.07042
G0 F5400 X197.027 Y206.024
G1 F1200 X206.024 Y197.027 E18.46932
G0 F5400 X206.024 Y196.32
G1 F1200 X196.32 Y206.024 E18.89957
G0 F5400 X195.613 Y206.024
G1 F1200 X206.024 Y195.613 E19.36116
G0 F5400 X206.024 Y194.905
G1 F1200 X194.905 Y206.024 E19.85414
G0 F5400 X194.198 Y206.024
G1 F1200 X206.024 Y194.198 E20.37847
G0 F5400 X205.543 Y193.972
G1 F1200 X193.972 Y205.543 E20.89149
G0 F5400 X193.972 Y204.836
G1 F1200 X204.836 Y193.972 E21.37317
G0 F5400 X204.129 Y193.972
G1 F1200 X193.972 Y204.129 E21.8235
G0 F5400 X193.972 Y203.422
G1 F1200 X203.422 Y193.972 E22.24248
G0 F5400 X202.715 Y193.972
G1 F1200 X193.972 Y202.715 E22.63012
G0 F5400 X193.972 Y202.008
G1 F1200 X202.008 Y193.972 E22.98641
G0 F5400 X201.301 Y193.972
G1 F1200 X193.972 Y201.301 E23.31136
G0 F5400 X193.972 Y200.593
G1 F1200 X200.593 Y193.972 E23.60491
G0 F5400 X199.886 Y193.972
G1 F1200 X193.972 Y199.886 E23.86712
G0 F5400 X193.972 Y199.179
G1 F1200 X199.179 Y193.972 E24.09798
G0 F5400 X198.472 Y193.972
G1 F1200 X193.972 Y198.472 E24.2975
G0 F5400 X193.972 Y197.765
G1 F1200 X197.765 Y193.972 E24.46567
G0 F5400 X197.058 Y193.972
G1 F1200 X193.972 Y197.058 E24.60249
G0 F5400 X193.972 Y196.351
G1 F1200 X196.351 Y193.972 E24.70797
G0 F5400 X195.644 Y193.972
G1 F1200 X193.972 Y195.644 E24.7821
G0 F5400 X193.972 Y194.937
G1 F1200 X194.937 Y193.972 E24.82488
G0 F5400 X194.23 Y193.972
G1 F1200 X193.972 Y194.23 E24.83632
G0 F5400 X194 Y194.23
;MESH:NONMESH
G0 F600 X194 Y194.23 Z1.1
G0 F5400 X206.43 Y206.43
G0 X206.75 Y206.75
;TIME_ELAPSED:51.771238
;LAYER:2
;TYPE:WALL-INNER
;MESH:cube1-5.STL
G1 F2400 X206.75 Y193.25 E25.25956
G1 X193.25 Y193.25 E25.6828
G1 X193.25 Y206.75 E26.10604
G1 X206.75 Y206.75 E26.52927
G0 F7200 X207.25 Y207.25
;TYPE:WALL-OUTER
G1 F1200 X207.25 Y192.75 E26.98386
G1 X192.75 Y192.75 E27.43845
G1 X192.75 Y207.25 E27.89304
G1 X207.25 Y207.25 E28.34763
G0 F7200 X207.25 Y207
G0 X206.43 Y206.43
G0 X206.274 Y206.274
;TYPE:SKIN
G1 F1200 X193.722 Y206.274 E28.74114
G1 X193.722 Y193.722 E29.13466
G1 X206.274 Y193.722 E29.52818
G1 X206.274 Y206.274 E29.92169
G0 F7200 X206.024 Y194.71
G1 F1200 X205.286 Y193.972 E29.95441
G0 F7200 X204.579 Y193.972
G1 F1200 X206.024 Y195.417 E30.01848
G0 F7200 X206.024 Y196.125
G1 F1200 X203.872 Y193.972 E30.11392
G0 F7200 X203.165 Y193.972
G1 F1200 X206.024 Y196.832 E30.2407
G0 F7200 X206.024 Y197.539
G1 F1200 X202.457 Y193.972 E30.39885
G0 F7200 X201.75 Y193.972
G1 F1200 X206.024 Y198.246 E30.58834
G0 F7200 X206.024 Y198.953
G1 F1200 X201.043 Y193.972 E30.80919
G0 F7200 X200.336 Y193.972
G1 F1200 X206.024 Y199.66 E31.06137
G0 F7200 X206.024 Y200.367
G1 F1200 X199.629 Y193.972 E31.34491
G0 F7200 X198.922 Y193.972
G1 F1200 X206.024 Y201.074 E31.65979
G0 F7200 X206.024 Y201.781
G1 F1200 X198.215 Y193.972 E32.00602
G0 F7200 X197.508 Y193.972
G1 F1200 X206.024 Y202.489 E32.38361
G0 F7200 X206.024 Y203.196
G1 F1200 X196.801 Y193.972 E32.79255
G0 F7200 X196.093 Y193.972
G1 F1200 X206.024 Y203.903 E33.23286
G0 F7200 X206.024 Y204.61
G1 F1200 X195.386 Y193.972 E33.70452
G0 F7200 X194.679 Y193.972
G1 F1200 X206.024 Y205.317 E34.20752
G0 F7200 X206.024 Y206.024
G1 F1200 X193.972 Y193.972 E34.74187
G0 F7200 X193.972 Y194.679
G1 F1200 X205.317 Y206.024 E35.24487
G0 F7200 X204.61 Y206.024
G1 F1200 X193.972 Y195.386 E35.71653
G0 F7200 X193.972 Y196.093
G1 F1200 X203.903 Y206.024 E36.15684
G0 F7200 X203.196 Y206.024
G1 F1200 X193.972 Y196.801 E36.56578
G0 F7200 X193.972 Y197.508
G1 F1200 X202.489 Y206.024 E36.94337
G0 F7200 X201.781 Y206.024
G1 F1200 X193.972 Y198.215 E37.2896
G0 F7200 X193.972 Y198.922
G1 F1200 X201.074 Y206.024 E37.60448
G0 F7200 X200.367 Y206.024
G1 F1200 X193.972 Y199.629 E37.88802
G0 F7200 X193.972 Y200.336
G1 F1200 X199.66 Y206.024 E38.14021
G0 F7200 X198.953 Y206.024
G1 F1200 X193.972 Y201.043 E38.36105
G0 F7200 X193.972 Y201.75
G1 F1200 X198.246 Y206.024 E38.55054
G0 F7200 X197.539 Y206.024
G1 F1200 X193.972 Y202.457 E38.70869
G0 F7200 X193.972 Y203.165
G1 F1200 X196.832 Y206.024 E38.83547
G0 F7200 X196.125 Y206.024
G1 F1200 X193.972 Y203.872 E38.93091
G0 F7200 X193.972 Y204.579
G1 F1200 X195.417 Y206.024 E38.99498
G0 F7200 X194.71 Y206.024
G1 F1200 X193.972 Y205.286 E39.0277
G1 X193.884 Y205.198
G0 F7200 X194 Y205.198
;MESH:NONMESH
G0 F600 X194 Y205.198 Z1.5
G0 F7200 X206.43 Y206.43
G0 X206.75 Y206.75
;TIME_ELAPSED:74.263409
;LAYER:3
;TYPE:WALL-INNER
;MESH:cube1-5.STL
G1 F2400 X206.75 Y193.25 E39.45093
G1 X193.25 Y193.25 E39.87417
G1 X193.25 Y206.75 E40.29741
G1 X206.75 Y206.75 E40.72065
G0 F7200 X207.25 Y207.25
;TYPE:WALL-OUTER
G1 F1200 X207.25 Y192.75 E41.17524
G1 X192.75 Y192.75 E41.62982
G1 X192.75 Y207.25 E42.08441
G1 X207.25 Y207.25 E42.539
G0 F7200 X207.25 Y207
G0 X206.43 Y206.43
G0 X206.274 Y206.274
;TYPE:SKIN
G1 F1200 X193.722 Y206.274 E42.93252
G1 X193.722 Y193.722 E43.32603
G1 X206.274 Y193.722 E43.71955
G1 X206.274 Y206.274 E44.11307
G0 F7200 X205.512 Y206.024
G1 F1200 X206.024 Y205.512 E44.13577
G0 F7200 X206.024 Y204.805
G1 F1200 X204.805 Y206.024 E44.18982
G0 F7200 X204.098 Y206.024
G1 F1200 X206.024 Y204.098 E44.27521
G0 F7200 X206.024 Y203.391
G1 F1200 X203.391 Y206.024 E44.39195
G0 F7200 X202.684 Y206.024
G1 F1200 X206.024 Y202.684 E44.54003
G0 F7200 X206.024 Y201.977
G1 F1200 X201.977 Y206.024 E44.71946
G0 F7200 X201.269 Y206.024
G1 F1200 X206.024 Y201.269 E44.93029
G0 F7200 X206.024 Y200.562
G1 F1200 X200.562 Y206.024 E45.17245
G0 F7200 X199.855 Y206.024
G1 F1200 X206.024 Y199.855 E45.44597
G0 F7200 X206.024 Y199.148
G1 F1200 X199.148 Y206.024 E45.75083
G0 F7200 X198.441 Y206.024
G1 F1200 X206.024 Y198.441 E46.08704
G0 F7200 X206.024 Y197.734
G1 F1200 X197.734 Y206.024 E46.45459
G0 F7200 X197.027 Y206.024
G1 F1200 X206.024 Y197.027 E46.85349
G0 F7200 X206.024 Y196.32
G1 F1200 X196.32 Y206.024 E47.28373
G0 F7200 X195.613 Y206.024
G1 F1200 X206.024 Y195.613 E47.74532
G0 F7200 X206.024 Y194.905
G1 F1200 X194.905 Y206.024 E48.23831
G0 F7200 X194.198 Y206.024
G1 F1200 X206.024 Y194.198 E48.76264
G0 F7200 X205.543 Y193.972
G1 F1200 X193.972 Y205.543 E49.27566
G0 F7200 X193.972 Y204.836
G1 F1200 X204.836 Y193.972 E49.75733
G0 F7200 X204.129 Y193.972
G1 F1200 X193.972 Y204.129 E50.20766
G0 F7200 X193.972 Y203.422
G1 F1200 X203.422 Y193.972 E50.62665
G0 F7200 X202.715 Y193.972
G1 F1200 X193.972 Y202.715 E51.01429
G0 F7200 X193.972 Y202.008
G1 F1200 X202.008 Y193.972 E51.37058
G0 F7200 X201.301 Y193.972
G1 F1200 X193.972 Y201.301 E51.69552
G0 F7200 X193.972 Y200.593
G1 F1200 X200.593 Y193.972 E51.98908
G0 F7200 X199.886 Y193.972
G1 F1200 X193.972 Y199.886 E52.25128
G0 F7200 X193.972 Y199.179
G1 F1200 X199.179 Y193.972 E52.48215
G0 F7200 X198.472 Y193.972
G1 F1200 X193.972 Y198.472 E52.68166
G0 F7200 X193.972 Y197.765
G1 F1200 X197.765 Y193.972 E52.84983
G0 F7200 X197.058 Y193.972
G1 F1200 X193.972 Y197.058 E52.98666
G0 F7200 X193.972 Y196.351
G1 F1200 X196.351 Y193.972 E53.09213
G0 F7200 X195.644 Y193.972
G1 F1200 X193.972 Y195.644 E53.16627
G0 F7200 X193.972 Y194.937
G1 F1200 X194.937 Y193.972 E53.20905
G0 F7200 X194.23 Y193.972
G1 F1200 X193.972 Y194.23 E53.22049
G0 F7200 X194 Y194.23
;MESH:NONMESH
G0 F600 X194 Y194.23 Z1.9
G0 F7200 X206.43 Y206.43
G0 X206.75 Y206.75
;TIME_ELAPSED:96.704911
;LAYER:4
;TYPE:WALL-INNER
;MESH:cube1-5.STL
G1 F2400 X206.75 Y193.25 E53.64373
G1 X193.25 Y193.25 E54.06696
G1 X193.25 Y206.75 E54.4902
G1 X206.75 Y206.75 E54.91344
G0 F7200 X207.25 Y207.25
;TYPE:WALL-OUTER
G1 F1200 X207.25 Y192.75 E55.36803
G1 X192.75 Y192.75 E55.82262
G1 X192.75 Y207.25 E56.27721
G1 X207.25 Y207.25 E56.73179
G0 F7200 X207.25 Y207
G0 X206.43 Y206.43
G0 X206.274 Y206.274
;TYPE:SKIN
G1 F1200 X193.722 Y206.274 E57.12531
G1 X193.722 Y193.722 E57.51883
G1 X206.274 Y193.722 E57.91234
G1 X206.274 Y206.274 E58.30586
G0 F7200 X206.024 Y194.71
G1 F1200 X205.286 Y193.972 E58.33858
G0 F7200 X204.579 Y193.972
G1 F1200 X206.024 Y195.417 E58.40265
G0 F7200 X206.024 Y196.125
G1 F1200 X203.872 Y193.972 E58.49808
G0 F7200 X203.165 Y193.972
G1 F1200 X206.024 Y196.832 E58.62486
G0 F7200 X206.024 Y197.539
G1 F1200 X202.457 Y193.972 E58.78301
G0 F7200 X201.75 Y193.972
G1 F1200 X206.024 Y198.246 E58.97251
G0 F7200 X206.024 Y198.953
G1 F1200 X201.043 Y193.972 E59.19335
G0 F7200 X200.336 Y193.972
G1 F1200 X206.024 Y199.66 E59.44554
G0 F7200 X206.024 Y200.367
G1 F1200 X199.629 Y193.972 E59.72908
G0 F7200 X198.922 Y193.972
G1 F1200 X206.024 Y201.074 E60.04396
G0 F7200 X206.024 Y201.781
G1 F1200 X198.215 Y193.972 E60.39018
G0 F7200 X197.508 Y193.972
G1 F1200 X206.024 Y202.489 E60.76778
G0 F7200 X206.024 Y203.196
G1 F1200 X196.801 Y193.972 E61.17672
G0 F7200 X196.093 Y193.972
G1 F1200 X206.024 Y203.903 E61.61703
G0 F7200 X206.024 Y204.61
G1 F1200 X195.386 Y193.972 E62.08869
G0 F7200 X194.679 Y193.972
G1 F1200 X206.024 Y205.317 E62.59169
G0 F7200 X206.024 Y206.024
G1 F1200 X193.972 Y193.972 E63.12604
G0 F7200 X193.972 Y194.679
G1 F1200 X205.317 Y206.024 E63.62904
G0 F7200 X204.61 Y206.024
G1 F1200 X193.972 Y195.386 E64.10069
G0 F7200 X193.972 Y196.093
G1 F1200 X203.903 Y206.024 E64.541
G0 F7200 X203.196 Y206.024
G1 F1200 X193.972 Y196.801 E64.94995
G0 F7200 X193.972 Y197.508
G1 F1200 X202.489 Y206.024 E65.32754
G0 F7200 X201.781 Y206.024
G1 F1200 X193.972 Y198.215 E65.67377
G0 F7200 X193.972 Y198.922
G1 F1200 X201.074 Y206.024 E65.98865
G0 F7200 X200.367 Y206.024
G1 F1200 X193.972 Y199.629 E66.27218
G0 F7200 X193.972 Y200.336
G1 F1200 X199.66 Y206.024 E66.52437
G0 F7200 X198.953 Y206.024
G1 F1200 X193.972 Y201.043 E66.74521
G0 F7200 X193.972 Y201.75
G1 F1200 X198.246 Y206.024 E66.93471
G0 F7200 X197.539 Y206.024
G1 F1200 X193.972 Y202.457 E67.09286
G0 F7200 X193.972 Y203.165
G1 F1200 X196.832 Y206.024 E67.21964
G0 F7200 X196.125 Y206.024
G1 F1200 X193.972 Y203.872 E67.31508
G0 F7200 X193.972 Y204.579
G1 F1200 X195.417 Y206.024 E67.37914
G0 F7200 X194.71 Y206.024
G1 F1200 X193.972 Y205.286 E67.41186
G1 X193.884 Y205.198
G0 F7200 X194 Y205.198
;MESH:NONMESH
G0 F600 X194 Y205.198 Z2.3
G0 F7200 X206.43 Y206.43
G0 X206.75 Y206.75
;TIME_ELAPSED:119.197082
;LAYER:5
;TYPE:WALL-INNER
;MESH:cube1-5.STL
G1 F2400 X206.75 Y193.25 E67.8351
G1 X193.25 Y193.25 E68.25834
G1 X193.25 Y206.75 E68.68158
G1 X206.75 Y206.75 E69.10481
G0 F7200 X207.25 Y207.25
;TYPE:WALL-OUTER
G1 F1200 X207.25 Y192.75 E69.5594
G1 X192.75 Y192.75 E70.01399
G1 X192.75 Y207.25 E70.46858
G1 X207.25 Y207.25 E70.92317
G0 F7200 X207.25 Y207
G0 X206.43 Y206.43
G0 X206.274 Y206.274
;TYPE:SKIN
G1 F1200 X193.722 Y206.274 E71.31668
G1 X193.722 Y193.722 E71.7102
G1 X206.274 Y193.722 E72.10372
G1 X206.274 Y206.274 E72.49723
G0 F7200 X205.512 Y206.024
G1 F1200 X206.024 Y205.512 E72.51994
G0 F7200 X206.024 Y204.805
G1 F1200 X204.805 Y206.024 E72.57398
G0 F7200 X204.098 Y206.024
G1 F1200 X206.024 Y204.098 E72.65937
G0 F7200 X206.024 Y203.391
G1 F1200 X203.391 Y206.024 E72.77611
G0 F7200 X202.684 Y206.024
G1 F1200 X206.024 Y202.684 E72.9242
G0 F7200 X206.024 Y201.977
G1 F1200 X201.977 Y206.024 E73.10363
G0 F7200 X201.269 Y206.024
G1 F1200 X206.024 Y201.269 E73.31445
G0 F7200 X206.024 Y200.562
G1 F1200 X200.562 Y206.024 E73.55662
G0 F7200 X199.855 Y206.024
G1 F1200 X206.024 Y199.855 E73.83014
G0 F7200 X206.024 Y199.148
G1 F1200 X199.148 Y206.024 E74.135
G0 F7200 X198.441 Y206.024
G1 F1200 X206.024 Y198.441 E74.4712
G0 F7200 X206.024 Y197.734
G1 F1200 X197.734 Y206.024 E74.83876
G0 F7200 X197.027 Y206.024
G1 F1200 X206.024 Y197.027 E75.23765
G0 F7200 X206.024 Y196.32
G1 F1200 X196.32 Y206.024 E75.6679
G0 F7200 X195.613 Y206.024
G1 F1200 X206.024 Y195.613 E76.12949
G0 F7200 X206.024 Y194.905
G1 F1200 X194.905 Y206.024 E76.62247
G0 F7200 X194.198 Y206.024
