;FLAVOR:Marlin
;TIME:549
;Filament used: 0.532594m
;Layer height: 0.4
;MINX:192.75
;MINY:192.75
;MINZ:0.3
;MAXX:207.25
;MAXY:207.25
;MAXZ:15.1
;TARGET_MACHINE.NAME:Unknown
;Generated with Cura_SteamEngine 5.7.1
M104 S200
M105
M109 S200
M82 ;absolute extrusion mode
G28 ;Home
G1 Z15.0 F6000 ;Move the platform down 15mm
;Prime the extruder
G92 E0
G1 F200 E3
G92 E0
G92 E0
G92 E0
;LAYER_COUNT:38
;LAYER:0
M107
;MESH:cube1-5.STL
G0 F3600 X206.75 Y206.75 Z0.3
;TYPE:WALL-INNER
G1 F1200 X206.75 Y193.25 E0.31743
G1 X193.25 Y193.25 E0.63486
G1 X193.25 Y206.75 E0.95228
G1 X206.75 Y206.75 E1.26971
G0 F3600 X207.25 Y207.25
;TYPE:WALL-OUTER
G1 F1200 X207.25 Y192.75 E1.61065
G1 X192.75 Y192.75 E1.9516
G1 X192.75 Y207.25 E2.29254
G1 X207.25 Y207.25 E2.63348
G0 F3600 X207.25 Y207
G0 X206.43 Y206.43
G0 X206.274 Y206.274
;TYPE:SKIN
G1 F1200 X193.722 Y206.274 E2.92862
G1 X193.722 Y193.722 E3.22375
G1 X206.274 Y193.722 E3.51889
G1 X206.274 Y206.274 E3.81403
G0 F3600 X206.024 Y194.71
G1 F1200 X205.286 Y193.972 E3.83857
G0 F3600 X204.579 Y193.972
G1 F1200 X206.024 Y195.417 E3.88662
G0 F3600 X206.024 Y196.125
G1 F1200 X203.872 Y193.972 E3.9582
G0 F3600 X203.165 Y193.972
G1 F1200 X206.024 Y196.832 E4.05328
G0 F3600 X206.024 Y197.539
G1 F1200 X202.457 Y193.972 E4.17189
G0 F3600 X201.75 Y193.972
G1 F1200 X206.024 Y198.246 E4.31402
G0 F3600 X206.024 Y198.953
G1 F1200 X201.043 Y193.972 E4.47965
G0 F3600 X200.336 Y193.972
G1 F1200 X206.024 Y199.66 E4.66879
G0 F3600 X206.024 Y200.367
G1 F1200 X199.629 Y193.972 E4.88144
G0 F3600 X198.922 Y193.972
G1 F1200 X206.024 Y201.074 E5.1176
G0 F3600 X206.024 Y201.781
G1 F1200 X198.215 Y193.972 E5.37727
G0 F3600 X197.508 Y193.972
G1 F1200 X206.024 Y202.489 E5.66047
G0 F3600 X206.024 Y203.196
G1 F1200 X196.801 Y193.972 E5.96717
G0 F3600 X196.093 Y193.972
G1 F1200 X206.024 Y203.903 E6.29741
G0 F3600 X206.024 Y204.61
G1 F1200 X195.386 Y193.972 E6.65115
G0 F3600 X194.679 Y193.972
G1 F1200 X206.024 Y205.317 E7.0284
G0 F3600 X206.024 Y206.024
G1 F1200 X193.972 Y193.972 E7.42916
G0 F3600 X193.972 Y194.679
G1 F1200 X205.317 Y206.024 E7.80641
G0 F3600 X204.61 Y206.024
G1 F1200 X193.972 Y195.386 E8.16015
G0 F3600 X193.972 Y196.093
G1 F1200 X203.903 Y206.024 E8.49039
G0 F3600 X203.196 Y206.024
G1 F1200 X193.972 Y196.801 E8.79709
G0 F3600 X193.972 Y197.508
G1 F1200 X202.489 Y206.024 E9.08029
G0 F3600 X201.781 Y206.024
G1 F1200 X193.972 Y198.215 E9.33996
G0 F3600 X193.972 Y198.922
G1 F1200 X201.074 Y206.024 E9.57612
G0 F3600 X200.367 Y206.024
G1 F1200 X193.972 Y199.629 E9.78877
G0 F3600 X193.972 Y200.336
G1 F1200 X199.66 Y206.024 E9.97791
G0 F3600 X198.953 Y206.024
G1 F1200 X193.972 Y201.043 E10.14354
G0 F3600 X193.972 Y201.75
G1 F1200 X198.246 Y206.024 E10.28567
G0 F3600 X197.539 Y206.024
G1 F1200 X193.972 Y202.457 E10.40428
G0 F3600 X193.972 Y203.165
G1 F1200 X196.832 Y206.024 E10.49936
G0 F3600 X196.125 Y206.024
G1 F1200 X193.972 Y203.872 E10.57094
G0 F3600 X193.972 Y204.579
G1 F1200 X195.417 Y206.024 E10.61899
G0 F3600 X194.71 Y206.024
G1 F1200 X193.972 Y205.286 E10.64353
G1 X193.884 Y205.198
G0 F3600 X194 Y205.198
;MESH:NONMESH
G0 F600 X194 Y205.198 Z0.7
G0 F3600 X206.43 Y206.43
G0 X206.75 Y206.75
;TIME_ELAPSED:28.855755
;LAYER:1
;TYPE:WALL-INNER
;MESH:cube1-5.STL
G1 F1800 X206.75 Y193.25 E11.06677
G1 X193.25 Y193.25 E11.49001
G1 X193.25 Y206.75 E11.91324
G1 X206.75 Y206.75 E12.33648
G0 F5400 X207.25 Y207.25
;TYPE:WALL-OUTER
G1 F1200 X207.25 Y192.75 E12.79107
G1 X192.75 Y192.75 E13.24566
G1 X192.75 Y207.25 E13.70025
G1 X207.25 Y207.25 E14.15483
G0 F5400 X207.25 Y207
G0 X206.43 Y206.43
G0 X206.274 Y206.274
;TYPE:SKIN
G1 F1200 X193.722 Y206.274 E14.54835
G1 X193.722 Y193.722 E14.94187
G1 X206.274 Y193.722 E15.33538
G1 X206.274 Y206.274 E15.7289
G0 F5400 X205.512 Y206.024
G1 F1200 X206.024 Y205.512 E15.7516
G0 F5400 X206.024 Y204.805
G1 F1200 X204.805 Y206.024 E15.80565
G0 F5400 X204.098 Y206.024
G1 F1200 X206.024 Y204.098 E15.89104
G0 F5400 X206.024 Y203.391
G1 F1200 X203.391 Y206.024 E16.00778
G0 F5400 X202.684 Y206.024
G1 F1200 X206.024 Y202.684 E16.15587
G0 F5400 X206.024 Y201.977
G1 F1200 X201.977 Y206.024 E16.3353
G0 F5400 X201.269 Y206.024
G1 F1200 X206.024 Y201.269 E16.54612
G0 F5400 X206.024 Y200.562
G1 F1200 X200.562 Y206.024 E16.78829
G0 F5400 X199.855 Y206.024
G1 F1200 X206.024 Y199.855 E17.0618
G0 F5400 X206.024 Y199.148
G1 F1200 X199.148 Y206.024 E17.36666
G0 F5400 X198.441 Y206.024
G1 F1200 X206.024 Y198.441 E17.70287
G0 F5400 X206.024 Y197.734
G1 F1200 X197.734 Y206.024 E18.07042
G0 F5400 X197.027 Y206.024
G1 F1200 X206.024 Y197.027 E18.46932
G0 F5400 X206.024 Y196.32
G1 F1200 X196.32 Y206.024 E18.89957
G0 F5400 X195.613 Y206.024
G1 F1200 X206.024 Y195.613 E19.36116
G0 F5400 X206.024 Y194.905
G1 F1200 X194.905 Y206.024 E19.85414
G0 F5400 X194.198 Y206.024
G1 F1200 X206.024 Y194.198 E20.37847
G0 F5400 X205.543 Y193.972
G1 F1200 X193.972 Y205.543 E20.89149
G0 F5400 X193.972 Y204.836
G1 F1200 X204.836 Y193.972 E21.37317
G0 F5400 X204.129 Y193.972
G1 F1200 X193.972 Y204.129 E21.8235
G0 F5400 X193.972 Y203.422
G1 F1200 X203.422 Y193.972 E22.24248
G0 F5400 X202.715 Y193.972
G1 F1200 X193.972 Y202.715 E22.63012
G0 F5400 X193.972 Y202.008
G1 F1200 X202.008 Y193.972 E22.98641
G0 F5400 X201.301 Y193.972
G1 F1200 X193.972 Y201.301 E23.31136
G0 F5400 X193.972 Y200.593
G1 F1200 X200.593 Y193.972 E23.60491
G0 F5400 X199.886 Y193.972
G1 F1200 X193.972 Y199.886 E23.86712
G0 F5400 X193.972 Y199.179
G1 F1200 X199.179 Y193.972 E24.09798
G0 F5400 X198.472 Y193.972
G1 F1200 X193.972 Y198.472 E24.2975
G0 F5400 X193.972 Y197.765
G1 F1200 X197.765 Y193.972 E24.46567
G0 F5400 X197.058 Y193.972
G1 F1200 X193.972 Y197.058 E24.60249
G0 F5400 X193.972 Y196.351
G1 F1200 X196.351 Y193.972 E24.70797
G0 F5400 X195.644 Y193.972
G1 F1200 X193.972 Y195.644 E24.7821
G0 F5400 X193.972 Y194.937
G1 F1200 X194.937 Y193.972 E24.82488
G0 F5400 X194.23 Y193.972
G1 F1200 X193.972 Y194.23 E24.83632
G0 F5400 X194 Y194.23
;MESH:NONMESH
G0 F600 X194 Y194.23 Z1.1
G0 F5400 X194.23 Y206.25
;TIME_ELAPSED:51.706270
;LAYER:2
;TYPE:FILL
;MESH:cube1-5.STL
G1 F2400 X193.75 Y205.771 E24.85758
G1 X193.75 Y206.25 E24.8726
G1 X194.937 Y206.25 E24.90981
G1 X193.75 Y205.064 E24.96242
G1 X193.75 Y204.357 E24.98458
G1 X195.644 Y206.25 E25.06854
G1 X196.351 Y206.25 E25.0907
G1 X193.75 Y203.65 E25.206
G1 X193.75 Y202.942 E25.2282
G1 X197.058 Y206.25 E25.37486
G1 X197.765 Y206.25 E25.39703
G1 X193.75 Y202.235 E25.57504
G1 X193.75 Y201.528 E25.59721
G1 X198.472 Y206.25 E25.80656
G1 X199.179 Y206.25 E25.82873
G1 X193.75 Y200.821 E26.06943
G1 X193.75 Y200.114 E26.0916
G1 X199.886 Y206.25 E26.36365
G1 X200.593 Y206.25 E26.38582
G1 X193.75 Y199.407 E26.68921
G1 X193.75 Y198.7 E26.71138
G1 X201.301 Y206.25 E27.04614
G1 X202.008 Y206.25 E27.06831
G1 X193.75 Y197.993 E27.43442
G1 X193.75 Y197.286 E27.45659
G1 X202.715 Y206.25 E27.85404
G1 X203.422 Y206.25 E27.87621
G1 X193.75 Y196.579 E28.30501
G1 X193.75 Y195.871 E28.32721
G1 X204.129 Y206.25 E28.78738
G1 X204.836 Y206.25 E28.80955
G1 X193.75 Y195.164 E29.30107
G1 X193.75 Y194.457 E29.32323
G1 X205.543 Y206.25 E29.8461
G1 X206.25 Y206.25 E29.86826
G1 X193.75 Y193.75 E30.42247
G1 X194.457 Y193.75 E30.44464
G1 X206.25 Y205.543 E30.9675
G1 X206.25 Y204.836 E30.98967
G1 X195.164 Y193.75 E31.48119
G1 X195.871 Y193.75 E31.50335
G1 X206.25 Y204.129 E31.96353
G1 X206.25 Y203.422 E31.98569
G1 X196.579 Y193.75 E32.4145
G1 X197.286 Y193.75 E32.43666
G1 X206.25 Y202.715 E32.83412
G1 X206.25 Y202.008 E32.85628
G1 X197.993 Y193.75 E33.2224
G1 X198.7 Y193.75 E33.24456
G1 X206.25 Y201.301 E33.57933
G1 X206.25 Y200.593 E33.60152
G1 X199.407 Y193.75 E33.90492
G1 X200.114 Y193.75 E33.92709
G1 X206.25 Y199.886 E34.19914
G1 X206.25 Y199.179 E34.2213
G1 X200.821 Y193.75 E34.46201
G1 X201.528 Y193.75 E34.48417
G1 X206.25 Y198.472 E34.69353
G1 X206.25 Y197.765 E34.7157
G1 X202.235 Y193.75 E34.89371
G1 X202.942 Y193.75 E34.91587
G1 X206.25 Y197.058 E35.06254
G1 X206.25 Y196.351 E35.08471
G1 X203.65 Y193.75 E35.2
G1 X204.357 Y193.75 E35.22217
G1 X206.25 Y195.644 E35.30612
G1 X206.25 Y194.937 E35.32829
G1 X205.064 Y193.75 E35.38089
G1 X205.771 Y193.75 E35.40306
G1 X206.25 Y194.23 E35.42432
G0 F7200 X206.43 Y206.43
G0 X206.75 Y206.75
;TYPE:WALL-INNER
G1 F2400 X206.75 Y193.25 E35.84755
G1 X193.25 Y193.25 E36.27079
G1 X193.25 Y206.75 E36.69403
G1 X206.75 Y206.75 E37.11727
G0 F7200 X207.25 Y207.25
;TYPE:WALL-OUTER
G1 F1200 X207.25 Y192.75 E37.57186
G1 X192.75 Y192.75 E38.02644
G1 X192.75 Y207.25 E38.48103
G1 X207.25 Y207.25 E38.93562
G0 F7200 X207.25 Y207
G0 X206 Y206.147
;MESH:NONMESH
G0 F600 X206 Y206.147 Z1.5
G0 F7200 X193.75 Y194.228
;TIME_ELAPSED:65.115277
;LAYER:3
;TYPE:FILL
;MESH:cube1-5.STL
G1 F2400 X194.228 Y193.75 E38.95681
G1 X193.75 Y193.75 E38.9718
G1 X193.75 Y194.935 E39.00895
G1 X194.935 Y193.75 E39.06149
G1 X195.642 Y193.75 E39.08365
G1 X193.75 Y195.642 E39.16754
G1 X193.75 Y196.349 E39.1897
G1 X196.349 Y193.75 E39.30494
G1 X197.057 Y193.75 E39.32713
G1 X193.75 Y197.057 E39.47376
G1 X193.75 Y197.764 E39.49592
G1 X197.764 Y193.75 E39.67389
G1 X198.471 Y193.75 E39.69605
G1 X193.75 Y198.471 E39.90537
G1 X193.75 Y199.178 E39.92753
G1 X199.178 Y193.75 E40.16819
G1 X199.885 Y193.75 E40.19036
G1 X193.75 Y199.885 E40.46237
G1 X193.75 Y200.592 E40.48453
G1 X200.592 Y193.75 E40.78788
G1 X201.299 Y193.75 E40.81005
G1 X193.75 Y201.299 E41.14475
G1 X193.75 Y202.006 E41.16691
G1 X202.006 Y193.75 E41.53296
G1 X202.713 Y193.75 E41.55512
G1 X193.75 Y202.713 E41.95252
G1 X193.75 Y203.42 E41.97468
G1 X203.42 Y193.75 E42.40342
G1 X204.128 Y193.75 E42.42562
G1 X193.75 Y204.128 E42.88574
G1 X193.75 Y204.835 E42.90791
G1 X204.835 Y193.75 E43.39938
G1 X205.542 Y193.75 E43.42155
G1 X193.75 Y205.542 E43.94437
G1 X193.75 Y206.249 E43.96653
G1 X206.25 Y193.75 E44.52072
G1 X206.25 Y194.456 E44.54286
G1 X194.456 Y206.25 E45.06577
G1 X195.163 Y206.25 E45.08793
G1 X206.25 Y195.163 E45.5795
G1 X206.25 Y195.87 E45.60166
G1 X195.87 Y206.25 E46.06188
G1 X196.577 Y206.25 E46.08404
G1 X206.25 Y196.577 E46.51291
G1 X206.25 Y197.284 E46.53508
G1 X197.284 Y206.25 E46.9326
G1 X197.991 Y206.25 E46.95477
G1 X206.25 Y197.991 E47.32095
G1 X206.25 Y198.698 E47.34311
G1 X198.698 Y206.25 E47.67794
G1 X199.406 Y206.25 E47.70014
G1 X206.25 Y199.406 E48.00358
G1 X206.25 Y200.113 E48.02575
G1 X200.113 Y206.25 E48.29784
G1 X200.82 Y206.25 E48.32001
G1 X206.25 Y200.82 E48.56076
G1 X206.25 Y201.527 E48.58292
G1 X201.527 Y206.25 E48.79233
G1 X202.234 Y206.25 E48.81449
G1 X206.25 Y202.234 E48.99255
G1 X206.25 Y202.941 E49.01471
G1 X202.941 Y206.25 E49.16142
G1 X203.648 Y206.25 E49.18359
G1 X206.25 Y203.648 E49.29895
G1 X206.25 Y204.355 E49.32112
G1 X204.355 Y206.25 E49.40514
G1 X205.062 Y206.25 E49.4273
G1 X206.25 Y205.062 E49.47998
G1 X206.25 Y205.769 E49.50214
G1 X205.769 Y206.25 E49.52347
G0 F7200 X206.75 Y206.75
;TYPE:WALL-INNER
G1 F2400 X206.75 Y193.25 E49.9467
G1 X193.25 Y193.25 E50.36994
G1 X193.25 Y206.75 E50.79318
G1 X206.75 Y206.75 E51.21642
G0 F7200 X207.25 Y207.25
;TYPE:WALL-OUTER
G1 F1200 X207.25 Y192.75 E51.671
G1 X192.75 Y192.75 E52.12559
G1 X192.75 Y207.25 E52.58018
G1 X207.25 Y207.25 E53.03477
G0 F7200 X207.25 Y207
G0 X206 Y206.147
;MESH:NONMESH
G0 F600 X206 Y206.147 Z1.9
G0 F7200 X194.23 Y206.25
;TIME_ELAPSED:78.373211
;LAYER:4
;TYPE:FILL
;MESH:cube1-5.STL
G1 F2400 X193.75 Y205.771 E53.05603
G1 X193.75 Y206.25 E53.07105
G1 X194.937 Y206.25 E53.10826
G1 X193.75 Y205.064 E53.16087
G1 X193.75 Y204.357 E53.18303
G1 X195.644 Y206.25 E53.26698
G1 X196.351 Y206.25 E53.28915
G1 X193.75 Y203.65 E53.40445
G1 X193.75 Y202.942 E53.42664
G1 X197.058 Y206.25 E53.57331
G1 X197.765 Y206.25 E53.59547
G1 X193.75 Y202.235 E53.77349
G1 X193.75 Y201.528 E53.79565
G1 X198.472 Y206.25 E54.00501
G1 X199.179 Y206.25 E54.02718
G1 X193.75 Y200.821 E54.26788
G1 X193.75 Y200.114 E54.29005
G1 X199.886 Y206.25 E54.5621
G1 X200.593 Y206.25 E54.58426
G1 X193.75 Y199.407 E54.88766
G1 X193.75 Y198.7 E54.90983
G1 X201.301 Y206.25 E55.24459
G1 X202.008 Y206.25 E55.26676
G1 X193.75 Y197.993 E55.63287
G1 X193.75 Y197.286 E55.65503
G1 X202.715 Y206.25 E56.05249
G1 X203.422 Y206.25 E56.07466
G1 X193.75 Y196.579 E56.50346
G1 X193.75 Y195.871 E56.52566
G1 X204.129 Y206.25 E56.98583
G1 X204.836 Y206.25 E57.008
G1 X193.75 Y195.164 E57.49951
G1 X193.75 Y194.457 E57.52168
G1 X205.543 Y206.25 E58.04454
G1 X206.25 Y206.25 E58.06671
G1 X193.75 Y193.75 E58.62092
G1 X194.457 Y193.75 E58.64309
G1 X206.25 Y205.543 E59.16595
G1 X206.25 Y204.836 E59.18812
G1 X195.164 Y193.75 E59.67964
G1 X195.871 Y193.75 E59.7018
G1 X206.25 Y204.129 E60.16197
G1 X206.25 Y203.422 E60.18414
G1 X196.579 Y193.75 E60.61294
G1 X197.286 Y193.75 E60.63511
G1 X206.25 Y202.715 E61.03257
G1 X206.25 Y202.008 E61.05473
G1 X197.993 Y193.75 E61.42084
G1 X198.7 Y193.75 E61.44301
G1 X206.25 Y201.301 E61.77777
G1 X206.25 Y200.593 E61.79997
G1 X199.407 Y193.75 E62.10337
G1 X200.114 Y193.75 E62.12553
G1 X206.25 Y199.886 E62.39758
G1 X206.25 Y199.179 E62.41975
G1 X200.821 Y193.75 E62.66045
G1 X201.528 Y193.75 E62.68262
G1 X206.25 Y198.472 E62.89198
G1 X206.25 Y197.765 E62.91414
G1 X202.235 Y193.75 E63.09216
G1 X202.942 Y193.75 E63.11432
G1 X206.25 Y197.058 E63.26099
G1 X206.25 Y196.351 E63.28315
G1 X203.65 Y193.75 E63.39845
G1 X204.357 Y193.75 E63.42062
G1 X206.25 Y195.644 E63.50457
G1 X206.25 Y194.937 E63.52673
G1 X205.064 Y193.75 E63.57934
G1 X205.771 Y193.75 E63.6015
G1 X206.25 Y194.23 E63.62276
G0 F7200 X206.43 Y206.43
G0 X206.75 Y206.75
;TYPE:WALL-INNER
G1 F2400 X206.75 Y193.25 E64.046
G1 X193.25 Y193.25 E64.46924
G1 X193.25 Y206.75 E64.89248
G1 X206.75 Y206.75 E65.31571
G0 F7200 X207.25 Y207.25
;TYPE:WALL-OUTER
G1 F1200 X207.25 Y192.75 E65.7703
G1 X192.75 Y192.75 E66.22489
G1 X192.75 Y207.25 E66.67948
G1 X207.25 Y207.25 E67.13407
G0 F7200 X207.25 Y207
G0 X206 Y206.147
;MESH:NONMESH
G0 F600 X206 Y206.147 Z2.3
G0 F7200 X193.75 Y194.228
;TIME_ELAPSED:91.782218
;LAYER:5
;TYPE:FILL
;MESH:cube1-5.STL
G1 F2400 X194.228 Y193.75 E67.15526
G1 X193.75 Y193.75 E67.17025
G1 X193.75 Y194.935 E67.2074
G1 X194.935 Y193.75 E67.25994
G1 X195.642 Y193.75 E67.2821
G1 X193.75 Y195.642 E67.36599
G1 X193.75 Y196.349 E67.38815
G1 X196.349 Y193.75 E67.50338
G1 X197.057 Y193.75 E67.52558
G1 X193.75 Y197.057 E67.6722
G1 X193.75 Y197.764 E67.69437
G1 X197.764 Y193.75 E67.87234
G1 X198.471 Y193.75 E67.8945
G1 X193.75 Y198.471 E68.10382
G1 X193.75 Y199.178 E68.12598
G1 X199.178 Y193.75 E68.36664
G1 X199.885 Y193.75 E68.38881
G1 X193.75 Y199.885 E68.66081
G1 X193.75 Y200.592 E68.68298
G1 X200.592 Y193.75 E68.98633
G1 X201.299 Y193.75 E69.0085
G1 X193.75 Y201.299 E69.3432
G1 X193.75 Y202.006 E69.36536
G1 X202.006 Y193.75 E69.73141
G1 X202.713 Y193.75 E69.75357
G1 X193.75 Y202.713 E70.15096
G1 X193.75 Y203.42 E70.17313
G1 X203.42 Y193.75 E70.60187
G1 X204.128 Y193.75 E70.62406
G1 X193.75 Y204.128 E71.08419
G1 X193.75 Y204.835 E71.10636
G1 X204.835 Y193.75 E71.59783
G1 X205.542 Y193.75 E71.62
G1 X193.75 Y205.542 E72.14282
G1 X193.75 Y206.249 E72.16498
G1 X206.25 Y193.75 E72.71917
G1 X206.25 Y194.456 E72.7413
G1 X194.456 Y206.25 E73.26421
G1 X195.163 Y206.25 E73.28638
G1 X206.25 Y195.163 E73.77794
G1 X206.25 Y195.87 E73.80011
G1 X195.87 Y206.25 E74.26032
G1 X196.577 Y206.25 E74.28249
G1 X206.25 Y196.577 E74.71136
G1 X206.25 Y197.284 E74.73353
G1 X197.284 Y206.25 E75.13105
G1 X197.991 Y206.25 E75.15322
G1 X206.25 Y197.991 E75.51939
G1 X206.25 Y198.698 E75.54156
G1 X198.698 Y206.25 E75.87639
G1 X199.406 Y206.25 E75.89859
G1 X206.25 Y199.406 E76.20203
G1 X206.25 Y200.113 E76.2242
G1 X200.113 Y206.25 E76.49629
G1 X200.82 Y206.25 E76.51846
G1 X206.25 Y200.82 E76.75921
G1 X206.25 Y201.527 E76.78137
G1 X201.527 Y206.25 E76.99077
G1 X202.234 Y206.25 E77.01294
G1 X206.25 Y202.234 E77.191
G1 X206.25 Y202.941 E77.21316
G1 X202.941 Y206.25 E77.35987
G1 X203.648 Y206.25 E77.38204
G1 X206.25 Y203.648 E77.4974
G1 X206.25 Y204.355 E77.51957
G1 X204.355 Y206.25 E77.60358
G1 X205.062 Y206.25 E77.62575
G1 X206.25 Y205.062 E77.67842
G1 X206.25 Y205.769 E77.70059
G1 X205.769 Y206.25 E77.72191
G0 F7200 X206.75 Y206.75
;TYPE:WALL-INNER
G1 F2400 X206.75 Y193.25 E78.14515
G1 X193.25 Y193.25 E78.56839
