;FLAVOR:Marlin
;TIME:497
;Filament used: 0.481508m
;Layer height: 0.4
;MINX:124.662
;MINY:115.054
;MINZ:0.3
;MAXX:139.162
;MAXY:129.554
;MAXZ:15.1
;TARGET_MACHINE.NAME:Unknown
;Generated with Cura_SteamEngine 5.7.1
M104 S200
M105
M109 S200
M82 ;absolute extrusion mode
G28 ;Home
G1 Z15.0 F6000 ;Move the platform down 15mm
;Prime the extruder
G92 E0
G1 F200 E3
G92 E0
G92 E0
G92 E0
;LAYER_COUNT:38
;LAYER:0
M107
;MESH:platform-15-13.STL
G0 F3600 X137.674 Y128.066 Z0.3
;TYPE:WALL-INNER
G1 F1200 X137.674 Y116.538 E0.27106
G1 X126.146 Y116.538 E0.54212
G1 X126.146 Y128.066 E0.81318
G1 X137.674 Y128.066 E1.08424
G0 F3600 X138.174 Y128.566
;TYPE:WALL-OUTER
G1 F1200 X138.174 Y116.038 E1.37881
G1 X125.646 Y116.038 E1.67339
G1 X125.646 Y128.566 E1.96796
G1 X138.174 Y128.566 E2.26253
G0 F3600 X138.174 Y128.316
G0 X137.357 Y127.749
G0 X137.198 Y127.59
;TYPE:SKIN
G1 F1200 X126.618 Y127.59 E2.5113
G1 X126.618 Y117.01 E2.76007
G1 X137.198 Y117.01 E3.00884
G1 X137.198 Y127.59 E3.25761
G0 F3600 X136.948 Y117.856
G1 F1200 X136.352 Y117.26 E3.27743
G0 F3600 X135.645 Y117.26
G1 F1200 X136.948 Y118.563 E3.32076
G0 F3600 X136.948 Y119.271
G1 F1200 X134.938 Y117.26 E3.38761
G0 F3600 X134.231 Y117.26
G1 F1200 X136.948 Y119.978 E3.47798
G0 F3600 X136.948 Y120.685
G1 F1200 X133.524 Y117.26 E3.59185
G0 F3600 X132.817 Y117.26
G1 F1200 X136.948 Y121.392 E3.72923
G0 F3600 X136.948 Y122.099
G1 F1200 X132.109 Y117.26 E3.89014
G0 F3600 X131.402 Y117.26
G1 F1200 X136.948 Y122.806 E4.07456
G0 F3600 X136.948 Y123.513
G1 F1200 X130.695 Y117.26 E4.28249
G0 F3600 X129.988 Y117.26
G1 F1200 X136.948 Y124.22 E4.51393
G0 F3600 X136.948 Y124.927
G1 F1200 X129.281 Y117.26 E4.76888
G0 F3600 X128.574 Y117.26
G1 F1200 X136.948 Y125.634 E5.04734
G0 F3600 X136.948 Y126.342
G1 F1200 X127.867 Y117.26 E5.34932
G0 F3600 X127.16 Y117.26
G1 F1200 X136.948 Y127.049 E5.67482
G0 F3600 X136.532 Y127.34
G1 F1200 X126.868 Y117.675 E5.99619
G0 F3600 X126.868 Y118.382
G1 F1200 X135.825 Y127.34 E6.29405
G0 F3600 X135.118 Y127.34
G1 F1200 X126.868 Y119.09 E6.56838
G0 F3600 X126.868 Y119.797
G1 F1200 X134.411 Y127.34 E6.81921
G0 F3600 X133.704 Y127.34
G1 F1200 X126.868 Y120.504 E7.04652
G0 F3600 X126.868 Y121.211
G1 F1200 X132.997 Y127.34 E7.25033
G0 F3600 X132.29 Y127.34
G1 F1200 X126.868 Y121.918 E7.43062
G0 F3600 X126.868 Y122.625
G1 F1200 X131.583 Y127.34 E7.58741
G0 F3600 X130.876 Y127.34
G1 F1200 X126.868 Y123.332 E7.72069
G0 F3600 X126.868 Y124.039
G1 F1200 X130.168 Y127.34 E7.83044
G0 F3600 X129.461 Y127.34
G1 F1200 X126.868 Y124.746 E7.91668
G0 F3600 X126.868 Y125.453
G1 F1200 X128.754 Y127.34 E7.97941
G0 F3600 X128.047 Y127.34
G1 F1200 X126.868 Y126.161 E8.01861
G0 F3600 X126.868 Y126.868
G1 F1200 X127.34 Y127.34 E8.03431
G0 F3600 X127.34 Y127.319
;MESH:NONMESH
G0 F600 X127.34 Y127.319 Z0.7
G0 F3600 X137.357 Y127.749
G0 X137.71 Y128.102
;TIME_ELAPSED:21.370889
;LAYER:1
;TYPE:WALL-INNER
;MESH:platform-15-13.STL
G1 F1800 X137.71 Y116.506 E8.39786
G1 X126.114 Y116.506 E8.7614
G1 X126.114 Y128.102 E9.12495
G1 X137.71 Y128.102 E9.48849
G0 F5400 X138.21 Y128.602
;TYPE:WALL-OUTER
G1 F1200 X138.21 Y116.006 E9.88339
G1 X125.614 Y116.006 E10.27828
G1 X125.614 Y128.602 E10.67318
G1 X138.21 Y128.602 E11.06808
G0 F5400 X138.21 Y128.352
G0 X137.392 Y127.784
G0 X137.234 Y127.626
;TYPE:SKIN
G1 F1200 X126.586 Y127.626 E11.4019
G1 X126.586 Y116.978 E11.73573
G1 X137.234 Y116.978 E12.06955
G1 X137.234 Y127.626 E12.40338
G0 F5400 X136.375 Y127.376
G1 F1200 X136.984 Y126.767 E12.43038
G0 F5400 X136.984 Y126.059
G1 F1200 X135.668 Y127.376 E12.48875
G0 F5400 X134.961 Y127.376
G1 F1200 X136.984 Y125.352 E12.57846
G0 F5400 X136.984 Y124.645
G1 F1200 X134.253 Y127.376 E12.69955
G0 F5400 X133.546 Y127.376
G1 F1200 X136.984 Y123.938 E12.85198
G0 F5400 X136.984 Y123.231
G1 F1200 X132.839 Y127.376 E13.03575
G0 F5400 X132.132 Y127.376
G1 F1200 X136.984 Y122.524 E13.25088
G0 F5400 X136.984 Y121.817
G1 F1200 X131.425 Y127.376 E13.49734
G0 F5400 X130.718 Y127.376
G1 F1200 X136.984 Y121.11 E13.77516
G0 F5400 X136.984 Y120.403
G1 F1200 X130.011 Y127.376 E14.08432
G0 F5400 X129.304 Y127.376
G1 F1200 X136.984 Y119.696 E14.42483
G0 F5400 X136.984 Y118.988
G1 F1200 X128.597 Y127.376 E14.7967
G0 F5400 X127.889 Y127.376
G1 F1200 X136.984 Y118.281 E15.19995
G0 F5400 X136.984 Y117.574
G1 F1200 X127.182 Y127.376 E15.63454
G0 F5400 X126.836 Y127.015
G1 F1200 X136.624 Y117.228 E16.06849
G0 F5400 X135.917 Y117.228
G1 F1200 X126.836 Y126.308 E16.47109
G0 F5400 X126.836 Y125.601
G1 F1200 X135.209 Y117.228 E16.84232
G0 F5400 X134.502 Y117.228
G1 F1200 X126.836 Y124.894 E17.18221
G0 F5400 X126.836 Y124.187
G1 F1200 X133.795 Y117.228 E17.49075
G0 F5400 X133.088 Y117.228
G1 F1200 X126.836 Y123.48 E17.76794
G0 F5400 X126.836 Y122.773
G1 F1200 X132.381 Y117.228 E18.01379
G0 F5400 X131.674 Y117.228
G1 F1200 X126.836 Y122.066 E18.22829
G0 F5400 X126.836 Y121.359
G1 F1200 X130.967 Y117.228 E18.41145
G0 F5400 X130.26 Y117.228
G1 F1200 X126.836 Y120.652 E18.56326
G0 F5400 X126.836 Y119.944
G1 F1200 X129.553 Y117.228 E18.6837
G0 F5400 X128.845 Y117.228
G1 F1200 X126.836 Y119.237 E18.77277
G0 F5400 X126.836 Y118.53
G1 F1200 X128.138 Y117.228 E18.8305
G0 F5400 X127.431 Y117.228
G1 F1200 X126.836 Y117.823 E18.85688
G0 F5400 X126.864 Y117.823
;MESH:NONMESH
G0 F600 X126.864 Y117.823 Z1.1
G0 F5400 X126.574 Y127.574
;TIME_ELAPSED:38.809776
;LAYER:2
;TYPE:FILL
;MESH:platform-15-13.STL
G1 F2400 X126.574 Y126.867 E18.87904
G1 X127.349 Y127.642 E18.9134
G1 X128.056 Y127.642 E18.93557
G1 X126.574 Y126.16 E19.00128
G1 X126.574 Y125.453 E19.02344
G1 X128.763 Y127.642 E19.1205
G1 X129.471 Y127.642 E19.14269
G1 X126.574 Y124.746 E19.27111
G1 X126.574 Y124.039 E19.29328
G1 X130.178 Y127.642 E19.45305
G1 X130.885 Y127.642 E19.47521
G1 X126.574 Y123.331 E19.66635
G1 X126.574 Y122.624 E19.68851
G1 X131.592 Y127.642 E19.911
G1 X132.299 Y127.642 E19.93316
G1 X126.574 Y121.917 E20.18699
G1 X126.574 Y121.21 E20.20915
G1 X133.006 Y127.642 E20.49433
G1 X133.713 Y127.642 E20.51649
G1 X126.574 Y120.503 E20.83302
G1 X126.574 Y119.796 E20.85518
G1 X134.42 Y127.642 E21.20305
G1 X135.127 Y127.642 E21.22521
G1 X126.574 Y119.089 E21.60443
G1 X126.574 Y118.382 E21.62659
G1 X135.835 Y127.642 E22.03717
G1 X136.542 Y127.642 E22.05934
G1 X126.574 Y117.675 E22.50127
G1 X126.574 Y116.967 E22.52346
G1 X137.25 Y127.642 E22.99678
G1 X137.25 Y126.936 E23.01892
G1 X127.28 Y116.966 E23.46096
G1 X127.987 Y116.966 E23.48312
G1 X137.25 Y126.229 E23.89381
G1 X137.25 Y125.522 E23.91598
G1 X128.694 Y116.966 E24.29532
G1 X129.401 Y116.966 E24.31749
G1 X137.25 Y124.815 E24.66549
G1 X137.25 Y124.108 E24.68766
G1 X130.108 Y116.966 E25.00431
G1 X130.815 Y116.966 E25.02647
G1 X137.25 Y123.401 E25.31178
G1 X137.25 Y122.694 E25.33395
G1 X131.523 Y116.966 E25.58789
G1 X132.23 Y116.966 E25.61005
G1 X137.25 Y121.987 E25.83265
G1 X137.25 Y121.279 E25.85484
G1 X132.937 Y116.966 E26.04607
G1 X133.644 Y116.966 E26.06823
G1 X137.25 Y120.572 E26.22811
G1 X137.25 Y119.865 E26.25028
G1 X134.351 Y116.966 E26.37881
G1 X135.058 Y116.966 E26.40097
G1 X137.25 Y119.158 E26.49816
G1 X137.25 Y118.451 E26.52033
G1 X135.765 Y116.966 E26.58617
G1 X136.472 Y116.966 E26.60833
G1 X137.25 Y117.744 E26.64283
G1 X137.25 Y117.037 E26.66499
G1 X137.179 Y116.966 E26.66814
G1 X137.25 Y116.966 E26.67036
G0 F7200 X137.431 Y127.823
G0 X137.75 Y128.142
;TYPE:WALL-INNER
G1 F2400 X137.75 Y116.466 E27.03642
G1 X126.074 Y116.466 E27.40247
G1 X126.074 Y128.142 E27.76852
G1 X137.75 Y128.142 E28.13458
G0 F7200 X138.25 Y128.642
;TYPE:WALL-OUTER
G1 F1200 X138.25 Y115.966 E28.53198
G1 X125.574 Y115.966 E28.92939
G1 X125.574 Y128.642 E29.32679
G1 X138.25 Y128.642 E29.7242
G0 F7200 X138.25 Y128.392
G0 X137.001 Y127.54
;MESH:NONMESH
G0 F600 X137.001 Y127.54 Z1.5
G0 F7200 X126.685 Y116.926
;TIME_ELAPSED:49.397746
;LAYER:3
;TYPE:FILL
;MESH:platform-15-13.STL
G1 F2400 X126.534 Y117.077 E29.73089
G1 X126.534 Y117.784 E29.75306
G1 X127.392 Y116.926 E29.7911
G1 X128.099 Y116.926 E29.81326
G1 X126.534 Y118.491 E29.88265
G1 X126.534 Y119.198 E29.90481
G1 X128.807 Y116.926 E30.00557
G1 X129.514 Y116.926 E30.02773
G1 X126.534 Y119.906 E30.15986
G1 X126.534 Y120.613 E30.18202
G1 X130.221 Y116.926 E30.34549
G1 X130.928 Y116.926 E30.36766
G1 X126.534 Y121.32 E30.56248
G1 X126.534 Y122.027 E30.58464
G1 X131.635 Y116.926 E30.8108
G1 X132.342 Y116.926 E30.83297
G1 X126.534 Y122.734 E31.09048
G1 X126.534 Y123.441 E31.11264
G1 X133.049 Y116.926 E31.4015
G1 X133.756 Y116.926 E31.42366
G1 X126.534 Y124.148 E31.74386
G1 X126.534 Y124.855 E31.76603
G1 X134.463 Y116.926 E32.11758
G1 X135.171 Y116.926 E32.13977
G1 X126.534 Y125.562 E32.52269
G1 X126.534 Y126.269 E32.54485
G1 X135.878 Y116.926 E32.95912
G1 X136.585 Y116.926 E32.98128
G1 X126.534 Y126.977 E33.42691
G1 X126.534 Y127.682 E33.44901
G1 X137.29 Y116.928 E33.92586
G1 X137.29 Y117.635 E33.94802
G1 X127.242 Y127.682 E34.3935
G1 X127.95 Y127.682 E34.41569
G1 X137.29 Y118.342 E34.8298
G1 X137.29 Y119.049 E34.85196
G1 X128.657 Y127.682 E35.23473
G1 X129.364 Y127.682 E35.25689
G1 X137.29 Y119.756 E35.6083
G1 X137.29 Y120.463 E35.63047
G1 X130.071 Y127.682 E35.95054
G1 X130.778 Y127.682 E35.9727
G1 X137.29 Y121.171 E36.2614
G1 X137.29 Y121.878 E36.28357
G1 X131.485 Y127.682 E36.54092
G1 X132.192 Y127.682 E36.56309
G1 X137.29 Y122.585 E36.78909
G1 X137.29 Y123.292 E36.81126
G1 X132.899 Y127.682 E37.00592
G1 X133.606 Y127.682 E37.02809
G1 X137.29 Y123.999 E37.1914
G1 X137.29 Y124.706 E37.21357
G1 X134.314 Y127.682 E37.34551
G1 X135.021 Y127.682 E37.36768
G1 X137.29 Y125.413 E37.46828
G1 X137.29 Y126.12 E37.49044
G1 X135.728 Y127.682 E37.5597
G1 X136.435 Y127.682 E37.58186
G1 X137.29 Y126.827 E37.61977
G1 X137.29 Y127.534 E37.64194
G1 X137.142 Y127.682 E37.6485
G0 F7200 X137.79 Y128.182
;TYPE:WALL-INNER
G1 F2400 X137.79 Y116.426 E38.01706
G1 X126.034 Y116.426 E38.38562
G1 X126.034 Y128.182 E38.75418
G1 X137.79 Y128.182 E39.12274
G0 F7200 X138.29 Y128.682
;TYPE:WALL-OUTER
G1 F1200 X138.29 Y115.926 E39.52266
G1 X125.534 Y115.926 E39.92257
G1 X125.534 Y128.682 E40.32248
G1 X138.29 Y128.682 E40.72239
G0 F7200 X138.29 Y128.432
G0 X137.04 Y127.579
;MESH:NONMESH
G0 F600 X137.04 Y127.579 Z1.9
G0 F7200 X126.494 Y127.718
;TIME_ELAPSED:59.959055
;LAYER:4
;TYPE:FILL
;MESH:platform-15-13.STL
G1 F2400 X126.718 Y127.718 E40.72942
G1 X126.494 Y127.494 E40.73935
G1 X126.494 Y126.787 E40.76151
G1 X127.425 Y127.718 E40.80279
G1 X128.132 Y127.718 E40.82495
G1 X126.494 Y126.08 E40.89758
G1 X126.494 Y125.373 E40.91974
G1 X128.839 Y127.718 E41.02371
G1 X129.546 Y127.718 E41.04588
G1 X126.494 Y124.666 E41.1812
G1 X126.494 Y123.959 E41.20336
G1 X130.253 Y127.718 E41.37002
G1 X130.96 Y127.718 E41.39219
G1 X126.494 Y123.252 E41.5902
G1 X126.494 Y122.544 E41.61239
G1 X131.668 Y127.718 E41.84179
G1 X132.375 Y127.718 E41.86396
G1 X126.494 Y121.837 E42.1247
G1 X126.494 Y121.13 E42.14687
G1 X133.082 Y127.718 E42.43896
G1 X133.789 Y127.718 E42.46112
G1 X126.494 Y120.423 E42.78456
G1 X126.494 Y119.716 E42.80673
G1 X134.496 Y127.718 E43.16151
G1 X135.203 Y127.718 E43.18368
G1 X126.494 Y119.009 E43.56981
G1 X126.494 Y118.302 E43.59197
G1 X135.91 Y127.718 E44.00945
G1 X136.617 Y127.718 E44.03161
G1 X126.494 Y117.595 E44.48044
G1 X126.494 Y116.888 E44.5026
G1 X137.326 Y127.718 E44.98281
G1 X137.326 Y127.012 E45.00495
G1 X127.2 Y116.886 E45.4539
G1 X127.907 Y116.886 E45.47607
G1 X137.326 Y126.305 E45.89368
G1 X137.326 Y125.598 E45.91584
G1 X128.614 Y116.886 E46.30211
G1 X129.321 Y116.886 E46.32427
G1 X137.326 Y124.891 E46.67919
G1 X137.326 Y124.184 E46.70135
G1 X130.028 Y116.886 E47.02492
G1 X130.736 Y116.886 E47.04712
G1 X137.326 Y123.476 E47.3393
G1 X137.326 Y122.769 E47.36147
G1 X131.443 Y116.886 E47.6223
G1 X132.15 Y116.886 E47.64446
G1 X137.326 Y122.062 E47.87395
G1 X137.326 Y121.355 E47.89612
G1 X132.857 Y116.886 E48.09426
G1 X133.564 Y116.886 E48.11642
G1 X137.326 Y120.648 E48.28322
G1 X137.326 Y119.941 E48.30538
G1 X134.271 Y116.886 E48.44083
G1 X134.978 Y116.886 E48.463
G1 X137.326 Y119.234 E48.5671
G1 X137.326 Y118.527 E48.58927
G1 X135.685 Y116.886 E48.66202
G1 X136.392 Y116.886 E48.68419
G1 X137.326 Y117.82 E48.7256
G1 X137.326 Y117.112 E48.7478
G1 X137.1 Y116.886 E48.75782
G1 X137.326 Y116.886 E48.7649
G0 F7200 X137.509 Y127.901
G0 X137.826 Y128.218
;TYPE:WALL-INNER
G1 F2400 X137.826 Y116.386 E49.13585
G1 X125.994 Y116.386 E49.50679
G1 X125.994 Y128.218 E49.87773
G1 X137.826 Y128.218 E50.24868
G0 F7200 X138.326 Y128.718
;TYPE:WALL-OUTER
G1 F1200 X138.326 Y115.886 E50.65097
G1 X125.494 Y115.886 E51.05327
G1 X125.494 Y128.718 E51.45556
G1 X138.326 Y128.718 E51.85786
G0 F7200 X138.326 Y128.468
G0 X137.079 Y127.618
;MESH:NONMESH
G0 F600 X137.079 Y127.618 Z2.3
G0 F7200 X126.454 Y117.157
;TIME_ELAPSED:70.787121
;LAYER:5
;TYPE:FILL
;MESH:platform-15-13.STL
G1 F2400 X126.765 Y116.846 E51.87165
G1 X126.454 Y116.846 E51.8814
G1 X126.454 Y117.864 E51.91331
G1 X127.472 Y116.846 E51.95845
G1 X128.179 Y116.846 E51.98061
G1 X126.454 Y118.571 E52.05709
G1 X126.454 Y119.278 E52.07926
G1 X128.886 Y116.846 E52.18709
G1 X129.594 Y116.846 E52.20928
G1 X126.454 Y119.985 E52.34848
G1 X126.454 Y120.693 E52.37068
G1 X130.301 Y116.846 E52.54124
G1 X131.008 Y116.846 E52.5634
G1 X126.454 Y121.4 E52.76531
G1 X126.454 Y122.107 E52.78748
G1 X131.715 Y116.846 E53.02074
G1 X132.422 Y116.846 E53.0429
G1 X126.454 Y122.814 E53.3075
G1 X126.454 Y123.521 E53.32967
G1 X133.129 Y116.846 E53.62562
G1 X133.836 Y116.846 E53.64778
G1 X126.454 Y124.228 E53.97508
G1 X126.454 Y124.935 E53.99724
G1 X134.543 Y116.846 E54.35588
G1 X135.25 Y116.846 E54.37805
G1 X126.454 Y125.642 E54.76804
G1 X126.454 Y126.349 E54.7902
G1 X135.958 Y116.846 E55.21156
G1 X136.665 Y116.846 E55.23372
G1 X126.454 Y127.056 E55.68642
G1 X126.454 Y127.758 E55.70843
G1 X137.366 Y116.852 E56.1921
G1 X137.366 Y117.559 E56.21427
G1 X127.167 Y127.758 E56.66646
G1 X127.874 Y127.758 E56.68863
G1 X137.366 Y118.266 E57.10947
G1 X137.366 Y118.973 E57.13164
G1 X128.581 Y127.758 E57.52114
G1 X129.288 Y127.758 E57.5433
G1 X137.366 Y119.68 E57.90146
G1 X137.366 Y120.387 E57.92362
G1 X129.995 Y127.758 E58.25043
G1 X130.702 Y127.758 E58.27259
G1 X137.366 Y121.094 E58.56806
G1 X137.366 Y121.801 E58.59022
G1 X131.409 Y127.758 E58.85434
G1 X132.117 Y127.758 E58.87653
G1 X137.366 Y122.508 E59.10928
G1 X137.366 Y123.215 E59.13144
G1 X132.824 Y127.758 E59.33284
G1 X133.531 Y127.758 E59.35501
G1 X137.366 Y123.923 E59.52504
G1 X137.366 Y124.63 E59.54721
G1 X134.238 Y127.758 E59.68589
G1 X134.945 Y127.758 E59.70806
G1 X137.366 Y125.337 E59.8154
G1 X137.366 Y126.044 E59.83756
G1 X135.652 Y127.758 E59.91356
G1 X136.359 Y127.758 E59.93572
G1 X137.366 Y126.751 E59.98037
G1 X137.366 Y127.458 E60.00253
G1 X137.066 Y127.758 E60.01583
G0 F7200 X137.866 Y128.258
;TYPE:WALL-INNER
G1 F2400 X137.866 Y116.346 E60.38929
G1 X125.954 Y116.346 E60.76274
G1 X125.954 Y128.258 E61.13619
G1 X137.866 Y128.258 E61.50964
G0 F7200 X138.366 Y128.758
;TYPE:WALL-OUTER
G1 F1200 X138.366 Y115.846 E61.91445
G1 X125.454 Y115.846 E62.31925
G1 X125.454 Y128.758 E62.72405
G1 X138.366 Y128.758 E63.12886
G0 F7200 X138.366 Y128.508
G0 X137.119 Y127.658
;MESH:NONMESH
G0 F600 X137.119 Y127.658 Z2.7
G0 F7200 X126.418 Y127.798
;TIME_ELAPSED:81.593435
;LAYER:6
;TYPE:FILL
;MESH:platform-15-13.STL
G1 F2400 X126.798 Y127.798 E63.14077
G1 X126.418 Y127.418 E63.15762
G1 X126.418 Y126.711 E63.17978
G1 X127.505 Y127.798 E63.22798
G1 X128.213 Y127.798 E63.25017
G1 X126.418 Y126.004 E63.32974
G1 X126.418 Y125.296 E63.35193
G1 X128.92 Y127.798 E63.46286
G1 X129.627 Y127.798 E63.48503
G1 X126.418 Y124.589 E63.6273
G1 X126.418 Y123.882 E63.64947
G1 X130.334 Y127.798 E63.82309
G1 X131.041 Y127.798 E63.84526
G1 X126.418 Y123.175 E64.05023
G1 X126.418 Y122.468 E64.07239
G1 X131.748 Y127.798 E64.30871
G1 X132.455 Y127.798 E64.33087
G1 X126.418 Y121.761 E64.59854
G1 X126.418 Y121.054 E64.6207
G1 X133.162 Y127.798 E64.91971
G1 X133.869 Y127.798 E64.94187
G1 X126.418 Y120.347 E65.27223
G1 X126.418 Y119.64 E65.29439
G1 X134.577 Y127.798 E65.65612
G1 X135.284 Y127.798 E65.67828
G1 X126.418 Y118.933 E66.07135
G1 X126.418 Y118.225 E66.09355
G1 X135.991 Y127.798 E66.51798
