;FLAVOR:Marlin
;TIME:775
;Filament used: 0.484556m
;Layer height: 0.4
;MINX:124.662
;MINY:115.054
;MINZ:0.3
;MAXX:139.162
;MAXY:129.554
;MAXZ:15.1
;TARGET_MACHINE.NAME:Unknown
;Generated with Cura_SteamEngine 5.7.1
M104 S200
M105
M109 S200
M82 ;absolute extrusion mode
G28 ;Home
G1 Z15.0 F6000 ;Move the platform down 15mm
;Prime the extruder
G92 E0
G1 F200 E3
G92 E0
G92 E0
G92 E0
;LAYER_COUNT:38
;LAYER:0
M107
;MESH:platform-15-13.STL
G0 F3600 X137.674 Y128.066 Z0.3
;TYPE:WALL-INNER
G1 F1200 X137.674 Y116.538 E0.27106
G1 X126.146 Y116.538 E0.54212
G1 X126.146 Y128.066 E0.81318
G1 X137.674 Y128.066 E1.08424
G0 F3600 X138.174 Y128.566
;TYPE:WALL-OUTER
G1 F1200 X138.174 Y116.038 E1.37881
G1 X125.646 Y116.038 E1.67339
G1 X125.646 Y128.566 E1.96796
G1 X138.174 Y128.566 E2.26253
G0 F3600 X138.174 Y128.316
G0 X137.357 Y127.749
G0 X137.198 Y127.59
;TYPE:SKIN
G1 F1200 X126.618 Y127.59 E2.5113
G1 X126.618 Y117.01 E2.76007
G1 X137.198 Y117.01 E3.00884
G1 X137.198 Y127.59 E3.25761
G0 F3600 X136.948 Y117.856
G1 F1200 X136.352 Y117.26 E3.27743
G0 F3600 X135.645 Y117.26
G1 F1200 X136.948 Y118.563 E3.32076
G0 F3600 X136.948 Y119.271
G1 F1200 X134.938 Y117.26 E3.38761
G0 F3600 X134.231 Y117.26
G1 F1200 X136.948 Y119.978 E3.47798
G0 F3600 X136.948 Y120.685
G1 F1200 X133.524 Y117.26 E3.59185
G0 F3600 X132.817 Y117.26
G1 F1200 X136.948 Y121.392 E3.72923
G0 F3600 X136.948 Y122.099
G1 F1200 X132.109 Y117.26 E3.89014
G0 F3600 X131.402 Y117.26
G1 F1200 X136.948 Y122.806 E4.07456
G0 F3600 X136.948 Y123.513
G1 F1200 X130.695 Y117.26 E4.28249
G0 F3600 X129.988 Y117.26
G1 F1200 X136.948 Y124.22 E4.51393
G0 F3600 X136.948 Y124.927
G1 F1200 X129.281 Y117.26 E4.76888
G0 F3600 X128.574 Y117.26
G1 F1200 X136.948 Y125.634 E5.04734
G0 F3600 X136.948 Y126.342
G1 F1200 X127.867 Y117.26 E5.34932
G0 F3600 X127.16 Y117.26
G1 F1200 X136.948 Y127.049 E5.67482
G0 F3600 X136.532 Y127.34
G1 F1200 X126.868 Y117.675 E5.99619
G0 F3600 X126.868 Y118.382
G1 F1200 X135.825 Y127.34 E6.29405
G0 F3600 X135.118 Y127.34
G1 F1200 X126.868 Y119.09 E6.56838
G0 F3600 X126.868 Y119.797
G1 F1200 X134.411 Y127.34 E6.81921
G0 F3600 X133.704 Y127.34
G1 F1200 X126.868 Y120.504 E7.04652
G0 F3600 X126.868 Y121.211
G1 F1200 X132.997 Y127.34 E7.25033
G0 F3600 X132.29 Y127.34
G1 F1200 X126.868 Y121.918 E7.43062
G0 F3600 X126.868 Y122.625
G1 F1200 X131.583 Y127.34 E7.58741
G0 F3600 X130.876 Y127.34
G1 F1200 X126.868 Y123.332 E7.72069
G0 F3600 X126.868 Y124.039
G1 F1200 X130.168 Y127.34 E7.83044
G0 F3600 X129.461 Y127.34
G1 F1200 X126.868 Y124.746 E7.91668
G0 F3600 X126.868 Y125.453
G1 F1200 X128.754 Y127.34 E7.97941
G0 F3600 X128.047 Y127.34
G1 F1200 X126.868 Y126.161 E8.01861
G0 F3600 X126.868 Y126.868
G1 F1200 X127.34 Y127.34 E8.03431
G0 F3600 X127.34 Y127.319
;MESH:NONMESH
G0 F600 X127.34 Y127.319 Z0.7
G0 F3600 X137.357 Y127.749
G0 X137.71 Y128.102
;TIME_ELAPSED:21.370889
;LAYER:1
;TYPE:WALL-INNER
;MESH:platform-15-13.STL
G1 F1800 X137.71 Y116.506 E8.39786
G1 X126.114 Y116.506 E8.7614
G1 X126.114 Y128.102 E9.12495
G1 X137.71 Y128.102 E9.48849
G0 F5400 X138.21 Y128.602
;TYPE:WALL-OUTER
G1 F1200 X138.21 Y116.006 E9.88339
G1 X125.614 Y116.006 E10.27828
G1 X125.614 Y128.602 E10.67318
G1 X138.21 Y128.602 E11.06808
G0 F5400 X138.21 Y128.352
G0 X137.392 Y127.784
G0 X137.234 Y127.626
;TYPE:SKIN
G1 F1200 X126.586 Y127.626 E11.4019
G1 X126.586 Y116.978 E11.73573
G1 X137.234 Y116.978 E12.06955
G1 X137.234 Y127.626 E12.40338
G0 F5400 X136.375 Y127.376
G1 F1200 X136.984 Y126.767 E12.43038
G0 F5400 X136.984 Y126.059
G1 F1200 X135.668 Y127.376 E12.48875
G0 F5400 X134.961 Y127.376
G1 F1200 X136.984 Y125.352 E12.57846
G0 F5400 X136.984 Y124.645
G1 F1200 X134.253 Y127.376 E12.69955
G0 F5400 X133.546 Y127.376
G1 F1200 X136.984 Y123.938 E12.85198
G0 F5400 X136.984 Y123.231
G1 F1200 X132.839 Y127.376 E13.03575
G0 F5400 X132.132 Y127.376
G1 F1200 X136.984 Y122.524 E13.25088
G0 F5400 X136.984 Y121.817
G1 F1200 X131.425 Y127.376 E13.49734
G0 F5400 X130.718 Y127.376
G1 F1200 X136.984 Y121.11 E13.77516
G0 F5400 X136.984 Y120.403
G1 F1200 X130.011 Y127.376 E14.08432
G0 F5400 X129.304 Y127.376
G1 F1200 X136.984 Y119.696 E14.42483
G0 F5400 X136.984 Y118.988
G1 F1200 X128.597 Y127.376 E14.7967
G0 F5400 X127.889 Y127.376
G1 F1200 X136.984 Y118.281 E15.19995
G0 F5400 X136.984 Y117.574
G1 F1200 X127.182 Y127.376 E15.63454
G0 F5400 X126.836 Y127.015
G1 F1200 X136.624 Y117.228 E16.06849
G0 F5400 X135.917 Y117.228
G1 F1200 X126.836 Y126.308 E16.47109
G0 F5400 X126.836 Y125.601
G1 F1200 X135.209 Y117.228 E16.84232
G0 F5400 X134.502 Y117.228
G1 F1200 X126.836 Y124.894 E17.18221
G0 F5400 X126.836 Y124.187
G1 F1200 X133.795 Y117.228 E17.49075
G0 F5400 X133.088 Y117.228
G1 F1200 X126.836 Y123.48 E17.76794
G0 F5400 X126.836 Y122.773
G1 F1200 X132.381 Y117.228 E18.01379
G0 F5400 X131.674 Y117.228
G1 F1200 X126.836 Y122.066 E18.22829
G0 F5400 X126.836 Y121.359
G1 F1200 X130.967 Y117.228 E18.41145
G0 F5400 X130.26 Y117.228
G1 F1200 X126.836 Y120.652 E18.56326
G0 F5400 X126.836 Y119.944
G1 F1200 X129.553 Y117.228 E18.6837
G0 F5400 X128.845 Y117.228
G1 F1200 X126.836 Y119.237 E18.77277
G0 F5400 X126.836 Y118.53
G1 F1200 X128.138 Y117.228 E18.8305
G0 F5400 X127.431 Y117.228
G1 F1200 X126.836 Y117.823 E18.85688
G0 F5400 X126.864 Y117.823
;MESH:NONMESH
G0 F600 X126.864 Y117.823 Z1.1
G0 F5400 X137.392 Y127.784
G0 X137.75 Y128.142
;TIME_ELAPSED:38.868047
;LAYER:2
;TYPE:WALL-INNER
;MESH:platform-15-13.STL
G1 F2400 X137.75 Y116.466 E19.22293
G1 X126.074 Y116.466 E19.58898
G1 X126.074 Y128.142 E19.95504
G1 X137.75 Y128.142 E20.32109
G0 F7200 X138.25 Y128.642
;TYPE:WALL-OUTER
G1 F1200 X138.25 Y115.966 E20.7185
G1 X125.574 Y115.966 E21.1159
G1 X125.574 Y128.642 E21.5133
G1 X138.25 Y128.642 E21.91071
G0 F7200 X138.25 Y128.392
G0 X137.431 Y127.823
G0 X137.274 Y127.666
;TYPE:SKIN
G1 F1200 X126.546 Y127.666 E22.24704
G1 X126.546 Y116.938 E22.58337
G1 X137.274 Y116.938 E22.91971
G1 X137.274 Y127.666 E23.25604
G0 F7200 X137.024 Y117.932
G1 F1200 X136.28 Y117.188 E23.28903
G0 F7200 X135.573 Y117.188
G1 F1200 X137.024 Y118.639 E23.35336
G0 F7200 X137.024 Y119.346
G1 F1200 X134.866 Y117.188 E23.44904
G0 F7200 X134.159 Y117.188
G1 F1200 X137.024 Y120.053 E23.57606
G0 F7200 X137.024 Y120.76
G1 F1200 X133.452 Y117.188 E23.73444
G0 F7200 X132.744 Y117.188
G1 F1200 X137.024 Y121.468 E23.9242
G0 F7200 X137.024 Y122.175
G1 F1200 X132.037 Y117.188 E24.14531
G0 F7200 X131.33 Y117.188
G1 F1200 X137.024 Y122.882 E24.39776
G0 F7200 X137.024 Y123.589
G1 F1200 X130.623 Y117.188 E24.68156
G0 F7200 X129.916 Y117.188
G1 F1200 X137.024 Y124.296 E24.99671
G0 F7200 X137.024 Y125.003
G1 F1200 X129.209 Y117.188 E25.3432
G0 F7200 X128.502 Y117.188
G1 F1200 X137.024 Y125.71 E25.72104
G0 F7200 X137.024 Y126.417
G1 F1200 X127.795 Y117.188 E26.13022
G0 F7200 X127.088 Y117.188
G1 F1200 X137.024 Y127.124 E26.57076
G0 F7200 X136.608 Y127.416
G1 F1200 X126.796 Y117.604 E27.00579
G0 F7200 X126.796 Y118.311
G1 F1200 X135.901 Y127.416 E27.40948
G0 F7200 X135.194 Y127.416
G1 F1200 X126.796 Y119.018 E27.78182
G0 F7200 X126.796 Y119.725
G1 F1200 X134.487 Y127.416 E28.12281
G0 F7200 X133.78 Y127.416
G1 F1200 X126.796 Y120.432 E28.43246
G0 F7200 X126.796 Y121.139
G1 F1200 X133.073 Y127.416 E28.71077
G0 F7200 X132.365 Y127.416
G1 F1200 X126.796 Y121.847 E28.95768
G0 F7200 X126.796 Y122.554
G1 F1200 X131.658 Y127.416 E29.17324
G0 F7200 X130.951 Y127.416
G1 F1200 X126.796 Y123.261 E29.35746
G0 F7200 X126.796 Y123.968
G1 F1200 X130.244 Y127.416 E29.51034
G0 F7200 X129.537 Y127.416
G1 F1200 X126.796 Y124.675 E29.63186
G0 F7200 X126.796 Y125.382
G1 F1200 X128.83 Y127.416 E29.72205
G0 F7200 X128.123 Y127.416
G1 F1200 X126.796 Y126.089 E29.78088
G0 F7200 X126.796 Y126.796
G1 F1200 X127.416 Y127.416 E29.80837
G0 F7200 X127.416 Y127.393
;MESH:NONMESH
G0 F600 X127.416 Y127.393 Z1.5
G0 F7200 X137.431 Y127.823
G0 X137.79 Y128.182
;TIME_ELAPSED:56.208681
;LAYER:3
;TYPE:WALL-INNER
;MESH:platform-15-13.STL
G1 F2400 X137.79 Y116.426 E30.17693
G1 X126.034 Y116.426 E30.54549
G1 X126.034 Y128.182 E30.91405
G1 X137.79 Y128.182 E31.28262
G0 F7200 X138.29 Y128.682
;TYPE:WALL-OUTER
G1 F1200 X138.29 Y115.926 E31.68253
G1 X125.534 Y115.926 E32.08244
G1 X125.534 Y128.682 E32.48235
G1 X138.29 Y128.682 E32.88227
G0 F7200 X138.29 Y128.432
G0 X137.47 Y127.862
G0 X137.314 Y127.706
;TYPE:SKIN
G1 F1200 X126.506 Y127.706 E33.22111
G1 X126.506 Y116.898 E33.55995
G1 X137.314 Y116.898 E33.89879
G1 X137.314 Y127.706 E34.23763
G0 F7200 X136.295 Y127.456
G1 F1200 X137.064 Y126.687 E34.27172
G0 F7200 X137.064 Y125.98
G1 F1200 X135.588 Y127.456 E34.33717
G0 F7200 X134.881 Y127.456
G1 F1200 X137.064 Y125.272 E34.43397
G0 F7200 X137.064 Y124.565
G1 F1200 X134.174 Y127.456 E34.56213
G0 F7200 X133.466 Y127.456
G1 F1200 X137.064 Y123.858 E34.72165
G0 F7200 X137.064 Y123.151
G1 F1200 X132.759 Y127.456 E34.91253
G0 F7200 X132.052 Y127.456
G1 F1200 X137.064 Y122.444 E35.13474
G0 F7200 X137.064 Y121.737
G1 F1200 X131.345 Y127.456 E35.3883
G0 F7200 X130.638 Y127.456
G1 F1200 X137.064 Y121.03 E35.67321
G0 F7200 X137.064 Y120.323
G1 F1200 X129.931 Y127.456 E35.98947
G0 F7200 X129.224 Y127.456
G1 F1200 X137.064 Y119.616 E36.33707
G0 F7200 X137.064 Y118.908
G1 F1200 X128.517 Y127.456 E36.71604
G0 F7200 X127.81 Y127.456
G1 F1200 X137.064 Y118.201 E37.12636
G0 F7200 X137.064 Y117.494
G1 F1200 X127.102 Y127.456 E37.56804
G0 F7200 X126.756 Y127.095
G1 F1200 X136.704 Y117.148 E38.00908
G0 F7200 X135.996 Y117.148
G1 F1200 X126.756 Y126.388 E38.41875
G0 F7200 X126.756 Y125.681
G1 F1200 X135.289 Y117.148 E38.79708
G0 F7200 X134.582 Y117.148
G1 F1200 X126.756 Y124.974 E39.14406
G0 F7200 X126.756 Y124.267
G1 F1200 X133.875 Y117.148 E39.4597
G0 F7200 X133.168 Y117.148
G1 F1200 X126.756 Y123.56 E39.74398
G0 F7200 X126.756 Y122.853
G1 F1200 X132.461 Y117.148 E39.99693
G0 F7200 X131.754 Y117.148
G1 F1200 X126.756 Y122.146 E40.21852
G0 F7200 X126.756 Y121.439
G1 F1200 X131.047 Y117.148 E40.40877
G0 F7200 X130.34 Y117.148
G1 F1200 X126.756 Y120.731 E40.56765
G0 F7200 X126.756 Y120.024
G1 F1200 X129.632 Y117.148 E40.69517
G0 F7200 X128.925 Y117.148
G1 F1200 X126.756 Y119.317 E40.79133
G0 F7200 X126.756 Y118.61
G1 F1200 X128.218 Y117.148 E40.85615
G0 F7200 X127.511 Y117.148
G1 F1200 X126.756 Y117.903 E40.88963
G1 X126.668 Y117.991
G0 F7200 X126.786 Y117.991
;MESH:NONMESH
G0 F600 X126.786 Y117.991 Z1.9
G0 F7200 X137.47 Y127.862
G0 X137.826 Y128.218
;TIME_ELAPSED:73.710558
;LAYER:4
;TYPE:WALL-INNER
;MESH:platform-15-13.STL
G1 F2400 X137.826 Y116.386 E41.26057
G1 X125.994 Y116.386 E41.63152
G1 X125.994 Y128.218 E42.00246
G1 X137.826 Y128.218 E42.3734
G0 F7200 X138.326 Y128.718
;TYPE:WALL-OUTER
G1 F1200 X138.326 Y115.886 E42.7757
G1 X125.494 Y115.886 E43.17799
G1 X125.494 Y128.718 E43.58029
G1 X138.326 Y128.718 E43.98259
G0 F7200 X138.326 Y128.468
G0 X137.509 Y127.901
G0 X137.35 Y127.742
;TYPE:SKIN
G1 F1200 X126.466 Y127.742 E44.32381
G1 X126.466 Y116.858 E44.66503
G1 X137.35 Y116.858 E45.00626
G1 X137.35 Y127.742 E45.34748
G0 F7200 X137.1 Y117.301
G1 F1200 X136.907 Y117.108 E45.35604
G0 F7200 X136.2 Y117.108
G1 F1200 X137.1 Y118.008 E45.39594
G0 F7200 X137.1 Y118.715
G1 F1200 X135.493 Y117.108 E45.46719
G0 F7200 X134.786 Y117.108
G1 F1200 X137.1 Y119.423 E45.56981
G0 F7200 X137.1 Y120.13
G1 F1200 X134.079 Y117.108 E45.70377
G0 F7200 X133.372 Y117.108
G1 F1200 X137.1 Y120.837 E45.86908
G0 F7200 X137.1 Y121.544
G1 F1200 X132.665 Y117.108 E46.06574
G0 F7200 X131.957 Y117.108
G1 F1200 X137.1 Y122.251 E46.29376
G0 F7200 X137.1 Y122.958
G1 F1200 X131.25 Y117.108 E46.55313
G0 F7200 X130.543 Y117.108
G1 F1200 X137.1 Y123.665 E46.84385
G0 F7200 X137.1 Y124.372
G1 F1200 X129.836 Y117.108 E47.16591
G0 F7200 X129.129 Y117.108
G1 F1200 X137.1 Y125.079 E47.51932
G0 F7200 X137.1 Y125.787
G1 F1200 X128.422 Y117.108 E47.9041
G0 F7200 X127.715 Y117.108
G1 F1200 X137.1 Y126.494 E48.32022
G0 F7200 X137.1 Y127.201
G1 F1200 X127.008 Y117.108 E48.76769
G0 F7200 X126.716 Y117.523
G1 F1200 X136.684 Y127.492 E49.20967
G0 F7200 X135.977 Y127.492
G1 F1200 X126.716 Y118.23 E49.62029
G0 F7200 X126.716 Y118.937
G1 F1200 X135.27 Y127.492 E49.99957
G0 F7200 X134.563 Y127.492
G1 F1200 X126.716 Y119.645 E50.34749
G0 F7200 X126.716 Y120.352
G1 F1200 X133.856 Y127.492 E50.66405
G0 F7200 X133.149 Y127.492
G1 F1200 X126.716 Y121.059 E50.94927
G0 F7200 X126.716 Y121.766
G1 F1200 X132.442 Y127.492 E51.20314
G0 F7200 X131.735 Y127.492
G1 F1200 X126.716 Y122.473 E51.42567
G0 F7200 X126.716 Y123.18
G1 F1200 X131.028 Y127.492 E51.61685
G0 F7200 X130.32 Y127.492
G1 F1200 X126.716 Y123.887 E51.77666
G0 F7200 X126.716 Y124.594
G1 F1200 X129.613 Y127.492 E51.90513
G0 F7200 X128.906 Y127.492
G1 F1200 X126.716 Y125.301 E52.00225
G0 F7200 X126.716 Y126.009
G1 F1200 X128.199 Y127.492 E52.068
G0 F7200 X127.492 Y127.492
G1 F1200 X126.716 Y126.716 E52.10241
G1 X126.628 Y126.628
G0 F7200 X126.747 Y126.628
;MESH:NONMESH
G0 F600 X126.747 Y126.628 Z2.3
G0 F7200 X137.509 Y127.901
G0 X137.866 Y128.258
;TIME_ELAPSED:91.498421
;LAYER:5
;TYPE:WALL-INNER
;MESH:platform-15-13.STL
G1 F2400 X137.866 Y116.346 E52.47586
G1 X125.954 Y116.346 E52.84931
G1 X125.954 Y128.258 E53.22276
G1 X137.866 Y128.258 E53.59622
G0 F7200 X138.366 Y128.758
;TYPE:WALL-OUTER
G1 F1200 X138.366 Y115.846 E54.00102
G1 X125.454 Y115.846 E54.40582
G1 X125.454 Y128.758 E54.81062
G1 X138.366 Y128.758 E55.21543
G0 F7200 X138.366 Y128.508
G0 X137.549 Y127.941
G0 X137.39 Y127.782
;TYPE:SKIN
G1 F1200 X126.426 Y127.782 E55.55916
G1 X126.426 Y116.818 E55.90289
G1 X137.39 Y116.818 E56.24662
G1 X137.39 Y127.782 E56.59035
G0 F7200 X136.926 Y127.532
G1 F1200 X137.14 Y127.318 E56.59984
G0 F7200 X137.14 Y126.611
G1 F1200 X136.219 Y127.532 E56.64068
G0 F7200 X135.512 Y127.532
G1 F1200 X137.14 Y125.904 E56.71286
G0 F7200 X137.14 Y125.197
G1 F1200 X134.805 Y127.532 E56.81638
G0 F7200 X134.098 Y127.532
G1 F1200 X137.14 Y124.49 E56.95126
G0 F7200 X137.14 Y123.783
G1 F1200 X133.391 Y127.532 E57.11748
G0 F7200 X132.684 Y127.532
G1 F1200 X137.14 Y123.075 E57.31506
G0 F7200 X137.14 Y122.368
G1 F1200 X131.977 Y127.532 E57.544
G0 F7200 X131.269 Y127.532
G1 F1200 X137.14 Y121.661 E57.8043
G0 F7200 X137.14 Y120.954
G1 F1200 X130.562 Y127.532 E58.09595
G0 F7200 X129.855 Y127.532
G1 F1200 X137.14 Y120.247 E58.41894
G0 F7200 X137.14 Y119.54
G1 F1200 X129.148 Y127.532 E58.77328
G0 F7200 X128.441 Y127.532
G1 F1200 X137.14 Y118.833 E59.15897
G0 F7200 X137.14 Y118.126
G1 F1200 X127.734 Y127.532 E59.576
G0 F7200 X127.027 Y127.532
G1 F1200 X137.14 Y117.419 E60.02438
G0 F7200 X136.783 Y117.068
G1 F1200 X126.676 Y127.175 E60.47249
G0 F7200 X126.676 Y126.468
G1 F1200 X136.076 Y117.068 E60.88926
G0 F7200 X135.369 Y117.068
G1 F1200 X126.676 Y125.761 E61.27468
G0 F7200 X126.676 Y125.054
G1 F1200 X134.662 Y117.068 E61.62876
G0 F7200 X133.955 Y117.068
G1 F1200 X126.676 Y124.347 E61.95148
G0 F7200 X126.676 Y123.64
G1 F1200 X133.248 Y117.068 E62.24287
G0 F7200 X132.541 Y117.068
G1 F1200 X126.676 Y122.933 E62.5029
G0 F7200 X126.676 Y122.226
G1 F1200 X131.834 Y117.068 E62.73159
G0 F7200 X131.127 Y117.068
G1 F1200 X126.676 Y121.518 E62.92891
G0 F7200 X126.676 Y120.811
G1 F1200 X130.419 Y117.068 E63.09487
G0 F7200 X129.712 Y117.068
G1 F1200 X126.676 Y120.104 E63.22947
G0 F7200 X126.676 Y119.397
G1 F1200 X129.005 Y117.068 E63.33273
G0 F7200 X128.298 Y117.068
G1 F1200 X126.676 Y118.69 E63.40465
G0 F7200 X126.676 Y117.983
G1 F1200 X127.591 Y117.068 E63.44522
G0 F7200 X126.884 Y117.068
G1 F1200 X126.676 Y117.276 E63.45444
G0 F7200 X126.707 Y117.276
;MESH:NONMESH
G0 F600 X126.707 Y117.276 Z2.7
G0 F7200 X137.549 Y127.941
G0 X137.906 Y128.298
;TIME_ELAPSED:109.449913
;LAYER:6
;TYPE:WALL-INNER
;MESH:platform-15-13.STL
G1 F2400 X137.906 Y116.31 E63.83027
G1 X125.918 Y116.31 E64.20611
G1 X125.918 Y128.298 E64.58194
G1 X137.906 Y128.298 E64.95778
G0 F7200 X138.406 Y128.798
;TYPE:WALL-OUTER
G1 F1200 X138.406 Y115.81 E65.36496
G1 X125.418 Y115.81 E65.77215
G1 X125.418 Y128.798 E66.17934
G1 X138.406 Y128.798 E66.58652
G0 F7200 X138.406 Y128.548
G0 X137.588 Y127.98
G0 X137.43 Y127.822
;TYPE:SKIN
G1 F1200 X126.39 Y127.822 E66.93264
G1 X126.39 Y116.782 E67.27875
G1 X137.43 Y116.782 E67.62486
