;FLAVOR:Marlin
;TIME:775
;Filament used: 0.484556m
;Layer height: 0.4
;LAYER_COUNT:38
;LAYER:0
;MESH:platform-15-13.STL

G21 ;start of the code
G1 Z15 F300
G28 X-7.250 Y-7.250 ;Home
G92 X-7.250 Y-7.250 ;Consider this as current
G0 X42.750 Y42.750 F3000 ;Go-to Offset
G92 X-7.250 Y-7.250 ;Reset

G0 F3600 X5.762 Y5.762 Z0.3
M7
;TYPE:WALL-INNER
G1 F1200 X5.762 Y-5.766 E0.27106
G1 X-5.766 Y-5.766 E0.54212
G1 X-5.766 Y5.762 E0.81318
G1 X5.762 Y5.762 E1.08424
G0 F3600 X6.262 Y6.262
;TYPE:WALL-OUTER
G1 F1200 X6.262 Y-6.266 E1.37881
G1 X-6.266 Y-6.266 E1.67339
G1 X-6.266 Y6.262 E1.96796
G1 X6.262 Y6.262 E2.26253
G0 F3600 X6.262 Y6.012
G0 X5.445 Y5.445
G0 X5.286 Y5.286
;TYPE:SKIN
G1 F1200 X-5.294 Y5.286 E2.5113
G1 X-5.294 Y-5.294 E2.76007
G1 X5.286 Y-5.294 E3.00884
G1 X5.286 Y5.286 E3.25761
G0 F3600 X5.036 Y-4.448
G1 F1200 X4.440 Y-5.044 E3.27743
G0 F3600 X3.733 Y-5.044
G1 F1200 X5.036 Y-3.741 E3.32076
G0 F3600 X5.036 Y-3.033
G1 F1200 X3.026 Y-5.044 E3.38761
G0 F3600 X2.319 Y-5.044
G1 F1200 X5.036 Y-2.326 E3.47798
G0 F3600 X5.036 Y-1.619
G1 F1200 X1.612 Y-5.044 E3.59185
G0 F3600 X0.905 Y-5.044
G1 F1200 X5.036 Y-0.912 E3.72923
G0 F3600 X5.036 Y-0.205
G1 F1200 X0.197 Y-5.044 E3.89014
G0 F3600 X-0.510 Y-5.044
G1 F1200 X5.036 Y0.502 E4.07456
G0 F3600 X5.036 Y1.209
G1 F1200 X-1.217 Y-5.044 E4.28249
G0 F3600 X-1.924 Y-5.044
G1 F1200 X5.036 Y1.916 E4.51393
G0 F3600 X5.036 Y2.623
G1 F1200 X-2.631 Y-5.044 E4.76888
G0 F3600 X-3.338 Y-5.044
G1 F1200 X5.036 Y3.330 E5.04734
G0 F3600 X5.036 Y4.038
G1 F1200 X-4.045 Y-5.044 E5.34932
G0 F3600 X-4.752 Y-5.044
G1 F1200 X5.036 Y4.745 E5.67482
G0 F3600 X4.620 Y5.036
G1 F1200 X-5.044 Y-4.629 E5.99619
G0 F3600 X-5.044 Y-3.922
G1 F1200 X3.913 Y5.036 E6.29405
G0 F3600 X3.206 Y5.036
G1 F1200 X-5.044 Y-3.214 E6.56838
G0 F3600 X-5.044 Y-2.507
G1 F1200 X2.499 Y5.036 E6.81921
G0 F3600 X1.792 Y5.036
G1 F1200 X-5.044 Y-1.800 E7.04652
G0 F3600 X-5.044 Y-1.093
G1 F1200 X1.085 Y5.036 E7.25033
G0 F3600 X0.378 Y5.036
G1 F1200 X-5.044 Y-0.386 E7.43062
G0 F3600 X-5.044 Y0.321
G1 F1200 X-0.329 Y5.036 E7.58741
G0 F3600 X-1.036 Y5.036
G1 F1200 X-5.044 Y1.028 E7.72069
G0 F3600 X-5.044 Y1.735
G1 F1200 X-1.744 Y5.036 E7.83044
G0 F3600 X-2.451 Y5.036
G1 F1200 X-5.044 Y2.442 E7.91668
G0 F3600 X-5.044 Y3.149
G1 F1200 X-3.158 Y5.036 E7.97941
G0 F3600 X-3.865 Y5.036
G1 F1200 X-5.044 Y3.857 E8.01861
G0 F3600 X-5.044 Y4.564
G1 F1200 X-4.572 Y5.036 E8.03431
G0 F3600 X-4.572 Y5.015
;MESH:NONMESH
G0 F600 X-4.572 Y5.015 Z0.7
G0 F3600 X5.445 Y5.445
G0 X5.798 Y5.798
;TIME_ELAPSED:21.370889
;LAYER:1
;TYPE:WALL-INNER
;MESH:platform-15-13.STL
G1 F1200 X5.798 Y-5.798 E8.39786
G1 X-5.798 Y-5.798 E8.7614
G1 X-5.798 Y5.798 E9.12495
G1 X5.798 Y5.798 E9.48849
G0 F5400 X6.298 Y6.298
;TYPE:WALL-OUTER
G1 F1200 X6.298 Y-6.298 E9.88339
G1 X-6.298 Y-6.298 E10.27828
G1 X-6.298 Y6.298 E10.67318
G1 X6.298 Y6.298 E11.06808
G0 F5400 X6.298 Y6.048
G0 X5.480 Y5.480
G0 X5.322 Y5.322
;TYPE:SKIN
G1 F1200 X-5.326 Y5.322 E11.4019
G1 X-5.326 Y-5.326 E11.73573
G1 X5.322 Y-5.326 E12.06955
G1 X5.322 Y5.322 E12.40338
G0 F5400 X4.463 Y5.072
G1 F1200 X5.072 Y4.463 E12.43038
G0 F5400 X5.072 Y3.755
G1 F1200 X3.756 Y5.072 E12.48875
G0 F5400 X3.049 Y5.072
G1 F1200 X5.072 Y3.048 E12.57846
G0 F5400 X5.072 Y2.341
G1 F1200 X2.341 Y5.072 E12.69955
G0 F5400 X1.634 Y5.072
G1 F1200 X5.072 Y1.634 E12.85198
G0 F5400 X5.072 Y0.927
G1 F1200 X0.927 Y5.072 E13.03575
G0 F5400 X0.220 Y5.072
G1 F1200 X5.072 Y0.220 E13.25088
G0 F5400 X5.072 Y-0.487
G1 F1200 X-0.487 Y5.072 E13.49734
G0 F5400 X-1.194 Y5.072
G1 F1200 X5.072 Y-1.194 E13.77516
G0 F5400 X5.072 Y-1.901
G1 F1200 X-1.901 Y5.072 E14.08432
G0 F5400 X-2.608 Y5.072
G1 F1200 X5.072 Y-2.608 E14.42483
G0 F5400 X5.072 Y-3.316
G1 F1200 X-3.315 Y5.072 E14.7967
G0 F5400 X-4.023 Y5.072
G1 F1200 X5.072 Y-4.023 E15.19995
G0 F5400 X5.072 Y-4.730
G1 F1200 X-4.730 Y5.072 E15.63454
G0 F5400 X-5.076 Y4.711
G1 F1200 X4.712 Y-5.076 E16.06849
G0 F5400 X4.005 Y-5.076
G1 F1200 X-5.076 Y4.004 E16.47109
G0 F5400 X-5.076 Y3.297
G1 F1200 X3.297 Y-5.076 E16.84232
G0 F5400 X2.590 Y-5.076
G1 F1200 X-5.076 Y2.590 E17.18221
G0 F5400 X-5.076 Y1.883
G1 F1200 X1.883 Y-5.076 E17.49075
G0 F5400 X1.176 Y-5.076
G1 F1200 X-5.076 Y1.176 E17.76794
G0 F5400 X-5.076 Y0.469
G1 F1200 X0.469 Y-5.076 E18.01379
G0 F5400 X-0.238 Y-5.076
G1 F1200 X-5.076 Y-0.238 E18.22829
G0 F5400 X-5.076 Y-0.945
G1 F1200 X-0.945 Y-5.076 E18.41145
G0 F5400 X-1.652 Y-5.076
G1 F1200 X-5.076 Y-1.652 E18.56326
G0 F5400 X-5.076 Y-2.360
G1 F1200 X-2.359 Y-5.076 E18.6837
G0 F5400 X-3.067 Y-5.076
G1 F1200 X-5.076 Y-3.067 E18.77277
G0 F5400 X-5.076 Y-3.774
G1 F1200 X-3.774 Y-5.076 E18.8305
G0 F5400 X-4.481 Y-5.076
G1 F1200 X-5.076 Y-4.481 E18.85688
G0 F5400 X-5.048 Y-4.481
;MESH:NONMESH
G0 F600 X-5.048 Y-4.481 Z1.1
G0 F5400 X5.480 Y5.480
G0 X5.838 Y5.838
;TIME_ELAPSED:38.868047
;LAYER:2
;TYPE:WALL-INNER
;MESH:platform-15-13.STL
G1 F1200 X5.838 Y-5.838 E19.22293
G1 X-5.838 Y-5.838 E19.58898
G1 X-5.838 Y5.838 E19.95504
G1 X5.838 Y5.838 E20.32109
G0 F7200 X6.338 Y6.338
;TYPE:WALL-OUTER
G1 F1200 X6.338 Y-6.338 E20.7185
G1 X-6.338 Y-6.338 E21.1159
G1 X-6.338 Y6.338 E21.5133
G1 X6.338 Y6.338 E21.91071
G0 F7200 X6.338 Y6.088
G0 X5.519 Y5.519
G0 X5.362 Y5.362
;TYPE:SKIN
G1 F1200 X-5.366 Y5.362 E22.24704
G1 X-5.366 Y-5.366 E22.58337
G1 X5.362 Y-5.366 E22.91971
G1 X5.362 Y5.362 E23.25604
G0 F7200 X5.112 Y-4.372
G1 F1200 X4.368 Y-5.116 E23.28903
G0 F7200 X3.661 Y-5.116
G1 F1200 X5.112 Y-3.665 E23.35336
G0 F7200 X5.112 Y-2.958
G1 F1200 X2.954 Y-5.116 E23.44904
G0 F7200 X2.247 Y-5.116
G1 F1200 X5.112 Y-2.251 E23.57606
G0 F7200 X5.112 Y-1.544
G1 F1200 X1.540 Y-5.116 E23.73444
G0 F7200 X0.832 Y-5.116
G1 F1200 X5.112 Y-0.836 E23.9242
G0 F7200 X5.112 Y-0.129
G1 F1200 X0.125 Y-5.116 E24.14531
G0 F7200 X-0.582 Y-5.116
G1 F1200 X5.112 Y0.578 E24.39776
G0 F7200 X5.112 Y1.285
G1 F1200 X-1.289 Y-5.116 E24.68156
G0 F7200 X-1.996 Y-5.116
G1 F1200 X5.112 Y1.992 E24.99671
G0 F7200 X5.112 Y2.699
G1 F1200 X-2.703 Y-5.116 E25.3432
G0 F7200 X-3.410 Y-5.116
G1 F1200 X5.112 Y3.406 E25.72104
G0 F7200 X5.112 Y4.113
G1 F1200 X-4.117 Y-5.116 E26.13022
G0 F7200 X-4.824 Y-5.116
G1 F1200 X5.112 Y4.820 E26.57076
G0 F7200 X4.696 Y5.112
G1 F1200 X-5.116 Y-4.700 E27.00579
G0 F7200 X-5.116 Y-3.993
G1 F1200 X3.989 Y5.112 E27.40948
G0 F7200 X3.282 Y5.112
G1 F1200 X-5.116 Y-3.286 E27.78182
G0 F7200 X-5.116 Y-2.579
G1 F1200 X2.575 Y5.112 E28.12281
G0 F7200 X1.868 Y5.112
G1 F1200 X-5.116 Y-1.872 E28.43246
G0 F7200 X-5.116 Y-1.165
G1 F1200 X1.161 Y5.112 E28.71077
G0 F7200 X0.453 Y5.112
G1 F1200 X-5.116 Y-0.457 E28.95768
G0 F7200 X-5.116 Y0.250
G1 F1200 X-0.254 Y5.112 E29.17324
G0 F7200 X-0.961 Y5.112
G1 F1200 X-5.116 Y0.957 E29.35746
G0 F7200 X-5.116 Y1.664
G1 F1200 X-1.668 Y5.112 E29.51034
G0 F7200 X-2.375 Y5.112
G1 F1200 X-5.116 Y2.371 E29.63186
G0 F7200 X-5.116 Y3.078
G1 F1200 X-3.082 Y5.112 E29.72205
G0 F7200 X-3.789 Y5.112
G1 F1200 X-5.116 Y3.785 E29.78088
G0 F7200 X-5.116 Y4.492
G1 F1200 X-4.496 Y5.112 E29.80837
G0 F7200 X-4.496 Y5.089
;MESH:NONMESH
G0 F600 X-4.496 Y5.089 Z1.5
G0 F7200 X5.519 Y5.519
G0 X5.878 Y5.878
;TIME_ELAPSED:56.208681
;LAYER:3
;TYPE:WALL-INNER
;MESH:platform-15-13.STL
G1 F1200 X5.878 Y-5.878 E30.17693
G1 X-5.878 Y-5.878 E30.54549
G1 X-5.878 Y5.878 E30.91405
G1 X5.878 Y5.878 E31.28262
G0 F7200 X6.378 Y6.378
;TYPE:WALL-OUTER
G1 F1200 X6.378 Y-6.378 E31.68253
G1 X-6.378 Y-6.378 E32.08244
G1 X-6.378 Y6.378 E32.48235
G1 X6.378 Y6.378 E32.88227
G0 F7200 X6.378 Y6.128
G0 X5.558 Y5.558
G0 X5.402 Y5.402
;TYPE:SKIN
G1 F1200 X-5.406 Y5.402 E33.22111
G1 X-5.406 Y-5.406 E33.55995
G1 X5.402 Y-5.406 E33.89879
G1 X5.402 Y5.402 E34.23763
G0 F7200 X4.383 Y5.152
G1 F1200 X5.152 Y4.383 E34.27172
G0 F7200 X5.152 Y3.676
G1 F1200 X3.676 Y5.152 E34.33717
G0 F7200 X2.969 Y5.152
G1 F1200 X5.152 Y2.968 E34.43397
G0 F7200 X5.152 Y2.261
G1 F1200 X2.262 Y5.152 E34.56213
G0 F7200 X1.554 Y5.152
G1 F1200 X5.152 Y1.554 E34.72165
G0 F7200 X5.152 Y0.847
G1 F1200 X0.847 Y5.152 E34.91253
G0 F7200 X0.140 Y5.152
G1 F1200 X5.152 Y0.140 E35.13474
G0 F7200 X5.152 Y-0.567
G1 F1200 X-0.567 Y5.152 E35.3883
G0 F7200 X-1.274 Y5.152
G1 F1200 X5.152 Y-1.274 E35.67321
G0 F7200 X5.152 Y-1.981
G1 F1200 X-1.981 Y5.152 E35.98947
G0 F7200 X-2.688 Y5.152
G1 F1200 X5.152 Y-2.688 E36.33707
G0 F7200 X5.152 Y-3.396
G1 F1200 X-3.395 Y5.152 E36.71604
G0 F7200 X-4.102 Y5.152
G1 F1200 X5.152 Y-4.103 E37.12636
G0 F7200 X5.152 Y-4.810
G1 F1200 X-4.810 Y5.152 E37.56804
G0 F7200 X-5.156 Y4.791
G1 F1200 X4.792 Y-5.156 E38.00908
G0 F7200 X4.084 Y-5.156
G1 F1200 X-5.156 Y4.084 E38.41875
G0 F7200 X-5.156 Y3.377
G1 F1200 X3.377 Y-5.156 E38.79708
G0 F7200 X2.670 Y-5.156
G1 F1200 X-5.156 Y2.670 E39.14406
G0 F7200 X-5.156 Y1.963
G1 F1200 X1.963 Y-5.156 E39.4597
G0 F7200 X1.256 Y-5.156
G1 F1200 X-5.156 Y1.256 E39.74398
G0 F7200 X-5.156 Y0.549
G1 F1200 X0.549 Y-5.156 E39.99693
G0 F7200 X-0.158 Y-5.156
G1 F1200 X-5.156 Y-0.158 E40.21852
G0 F7200 X-5.156 Y-0.865
G1 F1200 X-0.865 Y-5.156 E40.40877
G0 F7200 X-1.572 Y-5.156
G1 F1200 X-5.156 Y-1.573 E40.56765
G0 F7200 X-5.156 Y-2.280
G1 F1200 X-2.280 Y-5.156 E40.69517
G0 F7200 X-2.987 Y-5.156
G1 F1200 X-5.156 Y-2.987 E40.79133
G0 F7200 X-5.156 Y-3.694
G1 F1200 X-3.694 Y-5.156 E40.85615
G0 F7200 X-4.401 Y-5.156
G1 F1200 X-5.156 Y-4.401 E40.88963
G1 X-5.244 Y-4.313
G0 F7200 X-5.126 Y-4.313
;MESH:NONMESH
G0 F600 X-5.126 Y-4.313 Z1.9
G0 F7200 X5.558 Y5.558
G0 X5.914 Y5.914
;TIME_ELAPSED:73.710558
;LAYER:4
;TYPE:WALL-INNER
;MESH:platform-15-13.STL
G1 F1200 X5.914 Y-5.918 E41.26057
G1 X-5.918 Y-5.918 E41.63152
G1 X-5.918 Y5.914 E42.00246
G1 X5.914 Y5.914 E42.3734
G0 F7200 X6.414 Y6.414
;TYPE:WALL-OUTER
G1 F1200 X6.414 Y-6.418 E42.7757
G1 X-6.418 Y-6.418 E43.17799
G1 X-6.418 Y6.414 E43.58029
G1 X6.414 Y6.414 E43.98259
G0 F7200 X6.414 Y6.164
G0 X5.597 Y5.597
G0 X5.438 Y5.438
;TYPE:SKIN
G1 F1200 X-5.446 Y5.438 E44.32381
G1 X-5.446 Y-5.446 E44.66503
G1 X5.438 Y-5.446 E45.00626
G1 X5.438 Y5.438 E45.34748
G0 F7200 X5.188 Y-5.003
G1 F1200 X4.995 Y-5.196 E45.35604
G0 F7200 X4.288 Y-5.196
G1 F1200 X5.188 Y-4.296 E45.39594
G0 F7200 X5.188 Y-3.589
G1 F1200 X3.581 Y-5.196 E45.46719
G0 F7200 X2.874 Y-5.196
G1 F1200 X5.188 Y-2.881 E45.56981
G0 F7200 X5.188 Y-2.174
G1 F1200 X2.167 Y-5.196 E45.70377
G0 F7200 X1.460 Y-5.196
G1 F1200 X5.188 Y-1.467 E45.86908
G0 F7200 X5.188 Y-0.760
G1 F1200 X0.753 Y-5.196 E46.06574
G0 F7200 X0.045 Y-5.196
G1 F1200 X5.188 Y-0.053 E46.29376
G0 F7200 X5.188 Y0.654
G1 F1200 X-0.662 Y-5.196 E46.55313
G0 F7200 X-1.369 Y-5.196
G1 F1200 X5.188 Y1.361 E46.84385
G0 F7200 X5.188 Y2.068
G1 F1200 X-2.076 Y-5.196 E47.16591
G0 F7200 X-2.783 Y-5.196
G1 F1200 X5.188 Y2.775 E47.51932
G0 F7200 X5.188 Y3.483
G1 F1200 X-3.490 Y-5.196 E47.9041
G0 F7200 X-4.197 Y-5.196
G1 F1200 X5.188 Y4.190 E48.32022
G0 F7200 X5.188 Y4.897
G1 F1200 X-4.904 Y-5.196 E48.76769
G0 F7200 X-5.196 Y-4.781
G1 F1200 X4.772 Y5.188 E49.20967
G0 F7200 X4.065 Y5.188
G1 F1200 X-5.196 Y-4.074 E49.62029
G0 F7200 X-5.196 Y-3.367
G1 F1200 X3.358 Y5.188 E49.99957
G0 F7200 X2.651 Y5.188
G1 F1200 X-5.196 Y-2.659 E50.34749
G0 F7200 X-5.196 Y-1.952
G1 F1200 X1.944 Y5.188 E50.66405
G0 F7200 X1.237 Y5.188
G1 F1200 X-5.196 Y-1.245 E50.94927
G0 F7200 X-5.196 Y-0.538
G1 F1200 X0.530 Y5.188 E51.20314
G0 F7200 X-0.177 Y5.188
G1 F1200 X-5.196 Y0.169 E51.42567
G0 F7200 X-5.196 Y0.876
G1 F1200 X-0.884 Y5.188 E51.61685
G0 F7200 X-1.592 Y5.188
G1 F1200 X-5.196 Y1.583 E51.77666
G0 F7200 X-5.196 Y2.290
G1 F1200 X-2.299 Y5.188 E51.90513
G0 F7200 X-3.006 Y5.188
G1 F1200 X-5.196 Y2.997 E52.00225
G0 F7200 X-5.196 Y3.705
G1 F1200 X-3.713 Y5.188 E52.068
G0 F7200 X-4.420 Y5.188
G1 F1200 X-5.196 Y4.412 E52.10241
G1 X-5.284 Y4.324
G0 F7200 X-5.165 Y4.324
;MESH:NONMESH
G0 F600 X-5.165 Y4.324 Z2.3
G0 F7200 X5.597 Y5.597
G0 X5.954 Y5.954
;TIME_ELAPSED:91.498421
;LAYER:5
;TYPE:WALL-INNER
;MESH:platform-15-13.STL
G1 F1200 X5.954 Y-5.958 E52.47586
G1 X-5.958 Y-5.958 E52.84931
G1 X-5.958 Y5.954 E53.22276
G1 X5.954 Y5.954 E53.59622
G0 F7200 X6.454 Y6.454
;TYPE:WALL-OUTER
G1 F1200 X6.454 Y-6.458 E54.00102
G1 X-6.458 Y-6.458 E54.40582
G1 X-6.458 Y6.454 E54.81062
G1 X6.454 Y6.454 E55.21543
G0 F7200 X6.454 Y6.204
G0 X5.637 Y5.637
G0 X5.478 Y5.478
;TYPE:SKIN
G1 F1200 X-5.486 Y5.478 E55.55916
G1 X-5.486 Y-5.486 E55.90289
G1 X5.478 Y-5.486 E56.24662
G1 X5.478 Y5.478 E56.59035
G0 F7200 X5.014 Y5.228
G1 F1200 X5.228 Y5.014 E56.59984
G0 F7200 X5.228 Y4.307
G1 F1200 X4.307 Y5.228 E56.64068
G0 F7200 X3.600 Y5.228
G1 F1200 X5.228 Y3.600 E56.71286
G0 F7200 X5.228 Y2.893
G1 F1200 X2.893 Y5.228 E56.81638
G0 F7200 X2.186 Y5.228
G1 F1200 X5.228 Y2.186 E56.95126
G0 F7200 X5.228 Y1.479
G1 F1200 X1.479 Y5.228 E57.11748
G0 F7200 X0.772 Y5.228
G1 F1200 X5.228 Y0.771 E57.31506
G0 F7200 X5.228 Y0.064
G1 F1200 X0.065 Y5.228 E57.544
G0 F7200 X-0.643 Y5.228
G1 F1200 X5.228 Y-0.643 E57.8043
G0 F7200 X5.228 Y-1.350
G1 F1200 X-1.350 Y5.228 E58.09595
G0 F7200 X-2.057 Y5.228
G1 F1200 X5.228 Y-2.057 E58.41894
G0 F7200 X5.228 Y-2.764
G1 F1200 X-2.764 Y5.228 E58.77328
G0 F7200 X-3.471 Y5.228
G1 F1200 X5.228 Y-3.471 E59.15897
G0 F7200 X5.228 Y-4.178
G1 F1200 X-4.178 Y5.228 E59.576
G0 F7200 X-4.885 Y5.228
G1 F1200 X5.228 Y-4.885 E60.02438
G0 F7200 X4.871 Y-5.236
G1 F1200 X-5.236 Y4.871 E60.47249
G0 F7200 X-5.236 Y4.164
G1 F1200 X4.164 Y-5.236 E60.88926
G0 F7200 X3.457 Y-5.236
G1 F1200 X-5.236 Y3.457 E61.27468
G0 F7200 X-5.236 Y2.750
G1 F1200 X2.750 Y-5.236 E61.62876
G0 F7200 X2.043 Y-5.236
G1 F1200 X-5.236 Y2.043 E61.95148
G0 F7200 X-5.236 Y1.336
G1 F1200 X1.336 Y-5.236 E62.24287
G0 F7200 X0.629 Y-5.236
G1 F1200 X-5.236 Y0.629 E62.5029
G0 F7200 X-5.236 Y-0.078
G1 F1200 X-0.078 Y-5.236 E62.73159
G0 F7200 X-0.785 Y-5.236
G1 F1200 X-5.236 Y-0.786 E62.92891
G0 F7200 X-5.236 Y-1.493
G1 F1200 X-1.493 Y-5.236 E63.09487
G0 F7200 X-2.200 Y-5.236
G1 F1200 X-5.236 Y-2.200 E63.22947
G0 F7200 X-5.236 Y-2.907
G1 F1200 X-2.907 Y-5.236 E63.33273
G0 F7200 X-3.614 Y-5.236
G1 F1200 X-5.236 Y-3.614 E63.40465
G0 F7200 X-5.236 Y-4.321
G1 F1200 X-4.321 Y-5.236 E63.44522
G0 F7200 X-5.028 Y-5.236
G1 F1200 X-5.236 Y-5.028 E63.45444
G0 F7200 X-5.205 Y-5.028
;MESH:NONMESH
G0 F600 X-5.205 Y-5.028 Z2.7
G0 F7200 X5.637 Y5.637
G0 X5.994 Y5.994
;TIME_ELAPSED:109.449913
;LAYER:6
;TYPE:WALL-INNER
;MESH:platform-15-13.STL
G1 F1200 X5.994 Y-5.994 E63.83027
G1 X-5.994 Y-5.994 E64.20611
G1 X-5.994 Y5.994 E64.58194
G1 X5.994 Y5.994 E64.95778
G0 F7200 X6.494 Y6.494
;TYPE:WALL-OUTER
G1 F1200 X6.494 Y-6.494 E65.36496
G1 X-6.494 Y-6.494 E65.77215
G1 X-6.494 Y6.494 E66.17934
G1 X6.494 Y6.494 E66.58652
G0 F7200 X6.494 Y6.244
G0 X5.676 Y5.676
G0 X5.518 Y5.518
;TYPE:SKIN
G1 F1200 X-5.522 Y5.518 E66.93264
G1 X-5.522 Y-5.522 E67.27875
G1 X5.518 Y-5.522 E67.62486
G1 X5.518 Y5.518 E67.97098
G0 F7200 X5.268 Y-4.923
G1 F1200 X4.919 Y-5.272 E67.98645
G0 F7200 X4.212 Y-5.272
G1 F1200 X5.268 Y-4.216 E68.03327
G0 F7200 X5.268 Y-3.509
G1 F1200 X3.505 Y-5.272 E68.11144
G0 F7200 X2.797 Y-5.272
G1 F1200 X5.268 Y-2.802 E68.22097
G0 F7200 X5.268 Y-2.094
G1 F1200 X2.090 Y-5.272 E68.36188
G0 F7200 X1.383 Y-5.272
G1 F1200 X5.268 Y-1.387 E68.53412
G0 F7200 X5.268 Y-0.680
G1 F1200 X0.676 Y-5.272 E68.73772
G0 F7200 X-0.031 Y-5.272
G1 F1200 X5.268 Y0.027 E68.97266
G0 F7200 X5.268 Y0.734
G1 F1200 X-0.738 Y-5.272 E69.23895
G0 F7200 X-1.445 Y-5.272
G1 F1200 X5.268 Y1.441 E69.53658
G0 F7200 X5.268 Y2.148
G1 F1200 X-2.152 Y-5.272 E69.86556
G0 F7200 X-2.859 Y-5.272
G1 F1200 X5.268 Y2.855 E70.22589
G0 F7200 X5.268 Y3.562
G1 F1200 X-3.566 Y-5.272 E70.61756
G0 F7200 X-4.274 Y-5.272
G1 F1200 X5.268 Y4.270 E71.04062
G0 F7200 X5.268 Y4.977
G1 F1200 X-4.981 Y-5.272 E71.49503
G0 F7200 X-5.272 Y-4.856
G1 F1200 X4.852 Y5.268 E71.9439
G0 F7200 X4.145 Y5.268
G1 F1200 X-5.272 Y-4.149 E72.36142
G0 F7200 X-5.272 Y-3.442
G1 F1200 X3.438 Y5.268 E72.74759
G0 F7200 X2.731 Y5.268
G1 F1200 X-5.272 Y-2.735 E73.10242
G0 F7200 X-5.272 Y-2.028
G1 F1200 X2.024 Y5.268 E73.4259
G0 F7200 X1.317 Y5.268
G1 F1200 X-5.272 Y-1.321 E73.71804
G0 F7200 X-5.272 Y-0.614
G1 F1200 X0.610 Y5.268 E73.97883
G0 F7200 X-0.097 Y5.268
G1 F1200 X-5.272 Y0.093 E74.20827
G0 F7200 X-5.272 Y0.800
G1 F1200 X-0.805 Y5.268 E74.40635
G0 F7200 X-1.512 Y5.268
