;FLAVOR:Marlin
;TIME:178
;Filament used: 0.155383m
;Layer height: 0.4
;LAYER_COUNT:25
;LAYER:0
;MESH:cube1.stl

G21 ;start of the code
G1 Z15 F300
G28 X0 Y0 ;Home
G92 X0 Y0 ;Consider this as current
G0 X50 Y50 F3000 ;Go-to Offset
G92 X0 Y0 ;Reset

G0 F3600 X9.000 Y9.000 Z0.3
M7
;TYPE:WALL-INNER
G1 F1200 X9.000 Y0.500 E0.19986
G1 X0.500 Y0.500 E0.39972
G1 X0.500 Y9.000 E0.59959
G1 X9.000 Y9.000 E0.79945
G0 F3600 X9.500 Y9.500
;TYPE:WALL-OUTER
G1 F1200 X9.500 Y0.000 E1.02282
G1 X0.000 Y0.000 E1.2462
G1 X0.000 Y9.500 E1.46957
G1 X9.500 Y9.500 E1.69295
G0 F3600 X9.500 Y9.250
G0 X8.680 Y8.680
G0 X8.524 Y8.524
;TYPE:SKIN
G1 F1200 X0.972 Y8.524 E1.87052
G1 X0.972 Y0.972 E2.04809
G1 X8.524 Y0.972 E2.22567
G1 X8.524 Y8.524 E2.40324
G0 F3600 X8.274 Y1.582
G1 F1200 X7.914 Y1.222 E2.41521
G0 F3600 X7.207 Y1.222
G1 F1200 X8.274 Y2.289 E2.45069
G0 F3600 X8.274 Y2.996
G1 F1200 X6.500 Y1.222 E2.50968
G0 F3600 X5.793 Y1.222
G1 F1200 X8.274 Y3.703 E2.59218
G0 F3600 X8.274 Y4.410
G1 F1200 X5.086 Y1.222 E2.69819
G0 F3600 X4.379 Y1.222
G1 F1200 X8.274 Y5.118 E2.82772
G0 F3600 X8.274 Y5.825
G1 F1200 X3.671 Y1.222 E2.98079
G0 F3600 X2.964 Y1.222
G1 F1200 X8.274 Y6.532 E3.15736
G0 F3600 X8.274 Y7.239
G1 F1200 X2.257 Y1.222 E3.35744
G0 F3600 X1.550 Y1.222
G1 F1200 X8.274 Y7.946 E3.58103
G0 F3600 X7.894 Y8.273
G1 F1200 X1.222 Y1.601 E3.80289
G0 F3600 X1.222 Y2.308
G1 F1200 X7.187 Y8.273 E4.00124
G0 F3600 X6.480 Y8.273
G1 F1200 X1.222 Y3.015 E4.17609
G0 F3600 X1.222 Y3.722
G1 F1200 X5.773 Y8.273 E4.32742
G0 F3600 X5.066 Y8.273
G1 F1200 X1.222 Y4.430 E4.45523
G0 F3600 X1.222 Y5.137
G1 F1200 X4.359 Y8.273 E4.55952
G0 F3600 X3.652 Y8.273
G1 F1200 X1.222 Y5.844 E4.64031
G0 F3600 X1.222 Y6.551
G1 F1200 X2.945 Y8.273 E4.69759
G0 F3600 X2.237 Y8.273
G1 F1200 X1.222 Y7.258 E4.73134
G0 F3600 X1.222 Y7.965
G1 F1200 X1.530 Y8.273 E4.74158
G0 F3600 X1.530 Y8.250
;MESH:NONMESH
G0 F600 X1.530 Y8.250 Z0.7
G0 F3600 X8.680 Y8.680
G0 X9.000 Y9.000
;TIME_ELAPSED:11.400223
;LAYER:1
;TYPE:WALL-INNER
;MESH:cube1.stl
G1 F1800 X9.000 Y0.500 E5.00806
G1 X0.500 Y0.500 E5.27455
G1 X0.500 Y9.000 E5.54103
G1 X9.000 Y9.000 E5.80751
G0 F5400 X9.500 Y9.500
;TYPE:WALL-OUTER
G1 F1200 X9.500 Y0.000 E6.10535
G1 X0.000 Y0.000 E6.40318
G1 X0.000 Y9.500 E6.70101
G1 X9.500 Y9.500 E6.99885
G0 F5400 X9.500 Y9.250
G0 X8.680 Y8.680
G0 X8.524 Y8.524
;TYPE:SKIN
G1 F1200 X0.972 Y8.524 E7.23561
G1 X0.972 Y0.972 E7.47237
G1 X8.524 Y0.972 E7.70914
G1 X8.524 Y8.524 E7.9459
G0 F5400 X7.957 Y8.274
G1 F1200 X8.274 Y7.957 E7.95995
G0 F5400 X8.274 Y7.250
G1 F1200 X7.250 Y8.274 E8.00535
G0 F5400 X6.543 Y8.274
G1 F1200 X8.274 Y6.543 E8.0821
G0 F5400 X8.274 Y5.836
G1 F1200 X5.836 Y8.274 E8.19019
G0 F5400 X5.129 Y8.274
G1 F1200 X8.274 Y5.129 E8.32963
G0 F5400 X8.274 Y4.422
G1 F1200 X4.422 Y8.274 E8.50042
G0 F5400 X3.715 Y8.274
G1 F1200 X8.274 Y3.715 E8.70255
G0 F5400 X8.274 Y3.008
G1 F1200 X3.007 Y8.274 E8.93605
G0 F5400 X2.300 Y8.274
G1 F1200 X8.274 Y2.300 E9.20092
G0 F5400 X8.274 Y1.593
G1 F1200 X1.593 Y8.274 E9.49713
G0 F5400 X1.222 Y7.938
G1 F1200 X7.939 Y1.221 E9.79495
G0 F5400 X7.232 Y1.221
G1 F1200 X1.222 Y7.231 E10.06141
G0 F5400 X1.222 Y6.524
G1 F1200 X6.525 Y1.221 E10.29653
G0 F5400 X5.818 Y1.221
G1 F1200 X1.222 Y5.817 E10.5003
G0 F5400 X1.222 Y5.110
G1 F1200 X5.110 Y1.221 E10.67271
G0 F5400 X4.403 Y1.221
G1 F1200 X1.222 Y4.403 E10.81376
G0 F5400 X1.222 Y3.696
G1 F1200 X3.696 Y1.221 E10.92348
G0 F5400 X2.989 Y1.221
G1 F1200 X1.222 Y2.988 E11.00182
G0 F5400 X1.222 Y2.281
G1 F1200 X2.282 Y1.221 E11.04882
G0 F5400 X1.575 Y1.221
G1 F1200 X1.222 Y1.574 E11.06447
G0 F5400 X1.250 Y1.574
;MESH:NONMESH
G0 F600 X1.250 Y1.574 Z1.1
G0 F5400 X8.500 Y8.500
;TIME_ELAPSED:21.681625
;LAYER:2
;TYPE:FILL
;MESH:cube1.stl
G1 F2400 X1.000 Y8.500 E11.2996
G1 X1.000 Y1.000 E11.53473
G1 X8.500 Y1.000 E11.76986
G1 X8.500 Y8.500 E12.00499
G0 F7200 X8.000 Y8.000
G1 F2400 X1.500 Y8.000 E12.20878
G1 X1.500 Y1.500 E12.41256
G1 X8.000 Y1.500 E12.61634
G1 X8.000 Y8.000 E12.82012
G0 F7200 X7.500 Y7.500
G1 F2400 X2.000 Y7.500 E12.99255
G1 X2.000 Y2.000 E13.16498
G1 X7.500 Y2.000 E13.33741
G1 X7.500 Y7.500 E13.50984
G0 F7200 X7.000 Y7.000
G1 F2400 X2.500 Y7.000 E13.65092
G1 X2.500 Y2.500 E13.792
G1 X7.000 Y2.500 E13.93308
G1 X7.000 Y7.000 E14.07416
G0 F7200 X6.500 Y6.500
G1 F2400 X3.000 Y6.500 E14.18388
G1 X3.000 Y3.000 E14.29361
G1 X6.500 Y3.000 E14.40334
G1 X6.500 Y6.500 E14.51307
G0 F7200 X6.000 Y6.000
G1 F2400 X3.500 Y6.000 E14.59145
G1 X3.500 Y3.500 E14.66982
G1 X6.000 Y3.500 E14.7482
G1 X6.000 Y6.000 E14.82658
G0 F7200 X5.500 Y5.500
G1 F2400 X4.000 Y5.500 E14.8736
G1 X4.000 Y4.000 E14.92063
G1 X5.500 Y4.000 E14.96766
G1 X5.500 Y5.500 E15.01468
G0 F7200 X5.000 Y5.000
G1 F2400 X4.500 Y5.000 E15.03036
G1 X4.500 Y4.500 E15.04603
G1 X5.000 Y4.500 E15.06171
G1 X5.000 Y5.000 E15.07739
G0 F7200 X8.680 Y8.680
G0 X9.000 Y9.000
;TYPE:WALL-INNER
G1 F2400 X9.000 Y0.500 E15.34387
G1 X0.500 Y0.500 E15.61035
G1 X0.500 Y9.000 E15.87683
G1 X9.000 Y9.000 E16.14332
G0 F7200 X9.500 Y9.500
;TYPE:WALL-OUTER
G1 F1200 X9.500 Y0.000 E16.44115
G1 X0.000 Y0.000 E16.73898
G1 X0.000 Y9.500 E17.03682
G1 X9.500 Y9.500 E17.33465
G0 F7200 X9.500 Y9.250
G0 X8.250 Y8.397
;MESH:NONMESH
G0 F600 X8.250 Y8.397 Z1.5
G0 F7200 X8.500 Y8.500
;TIME_ELAPSED:28.180177
;LAYER:3
;TYPE:FILL
;MESH:cube1.stl
G1 F2400 X1.000 Y8.500 E17.56978
G1 X1.000 Y1.000 E17.80492
G1 X8.500 Y1.000 E18.04005
G1 X8.500 Y8.500 E18.27518
G0 F7200 X8.000 Y8.000
G1 F2400 X1.500 Y8.000 E18.47896
G1 X1.500 Y1.500 E18.68274
G1 X8.000 Y1.500 E18.88652
G1 X8.000 Y8.000 E19.0903
G0 F7200 X7.500 Y7.500
G1 F2400 X2.000 Y7.500 E19.26273
G1 X2.000 Y2.000 E19.43516
G1 X7.500 Y2.000 E19.60759
G1 X7.500 Y7.500 E19.78002
G0 F7200 X7.000 Y7.000
G1 F2400 X2.500 Y7.000 E19.9211
G1 X2.500 Y2.500 E20.06218
G1 X7.000 Y2.500 E20.20326
G1 X7.000 Y7.000 E20.34434
G0 F7200 X6.500 Y6.500
G1 F2400 X3.000 Y6.500 E20.45407
G1 X3.000 Y3.000 E20.5638
G1 X6.500 Y3.000 E20.67353
G1 X6.500 Y6.500 E20.78325
G0 F7200 X6.000 Y6.000
G1 F2400 X3.500 Y6.000 E20.86163
G1 X3.500 Y3.500 E20.94001
G1 X6.000 Y3.500 E21.01839
G1 X6.000 Y6.000 E21.09676
G0 F7200 X5.500 Y5.500
G1 F2400 X4.000 Y5.500 E21.14379
G1 X4.000 Y4.000 E21.19082
G1 X5.500 Y4.000 E21.23784
G1 X5.500 Y5.500 E21.28487
G0 F7200 X5.000 Y5.000
G1 F2400 X4.500 Y5.000 E21.30054
G1 X4.500 Y4.500 E21.31622
G1 X5.000 Y4.500 E21.3319
G1 X5.000 Y5.000 E21.34757
G0 F7200 X8.680 Y8.680
G0 X9.000 Y9.000
;TYPE:WALL-INNER
G1 F2400 X9.000 Y0.500 E21.61405
G1 X0.500 Y0.500 E21.88054
G1 X0.500 Y9.000 E22.14702
G1 X9.000 Y9.000 E22.4135
G0 F7200 X9.500 Y9.500
;TYPE:WALL-OUTER
G1 F1200 X9.500 Y0.000 E22.71134
G1 X0.000 Y0.000 E23.00917
G1 X0.000 Y9.500 E23.307
G1 X9.500 Y9.500 E23.60484
G0 F7200 X9.500 Y9.250
G0 X8.250 Y8.397
;MESH:NONMESH
G0 F600 X8.250 Y8.397 Z1.9
G0 F7200 X8.500 Y8.500
;TIME_ELAPSED:34.678728
;LAYER:4
;TYPE:FILL
;MESH:cube1.stl
G1 F2400 X1.000 Y8.500 E23.83997
G1 X1.000 Y1.000 E24.0751
G1 X8.500 Y1.000 E24.31023
G1 X8.500 Y8.500 E24.54537
G0 F7200 X8.000 Y8.000
G1 F2400 X1.500 Y8.000 E24.74915
G1 X1.500 Y1.500 E24.95293
G1 X8.000 Y1.500 E25.15671
G1 X8.000 Y8.000 E25.36049
G0 F7200 X7.500 Y7.500
G1 F2400 X2.000 Y7.500 E25.53292
G1 X2.000 Y2.000 E25.70535
G1 X7.500 Y2.000 E25.87778
G1 X7.500 Y7.500 E26.05021
G0 F7200 X7.000 Y7.000
G1 F2400 X2.500 Y7.000 E26.19129
G1 X2.500 Y2.500 E26.33237
G1 X7.000 Y2.500 E26.47345
G1 X7.000 Y7.000 E26.61453
G0 F7200 X6.500 Y6.500
G1 F2400 X3.000 Y6.500 E26.72426
G1 X3.000 Y3.000 E26.83398
G1 X6.500 Y3.000 E26.94371
G1 X6.500 Y6.500 E27.05344
G0 F7200 X6.000 Y6.000
G1 F2400 X3.500 Y6.000 E27.13182
G1 X3.500 Y3.500 E27.21019
G1 X6.000 Y3.500 E27.28857
G1 X6.000 Y6.000 E27.36695
G0 F7200 X5.500 Y5.500
G1 F2400 X4.000 Y5.500 E27.41398
G1 X4.000 Y4.000 E27.461
G1 X5.500 Y4.000 E27.50803
G1 X5.500 Y5.500 E27.55505
G0 F7200 X5.000 Y5.000
G1 F2400 X4.500 Y5.000 E27.57073
G1 X4.500 Y4.500 E27.58641
G1 X5.000 Y4.500 E27.60208
G1 X5.000 Y5.000 E27.61776
G0 F7200 X8.680 Y8.680
G0 X9.000 Y9.000
;TYPE:WALL-INNER
G1 F2400 X9.000 Y0.500 E27.88424
G1 X0.500 Y0.500 E28.15072
G1 X0.500 Y9.000 E28.41721
G1 X9.000 Y9.000 E28.68369
G0 F7200 X9.500 Y9.500
;TYPE:WALL-OUTER
G1 F1200 X9.500 Y0.000 E28.98152
G1 X0.000 Y0.000 E29.27936
G1 X0.000 Y9.500 E29.57719
G1 X9.500 Y9.500 E29.87502
G0 F7200 X9.500 Y9.250
G0 X8.250 Y8.397
;MESH:NONMESH
G0 F600 X8.250 Y8.397 Z2.3
G0 F7200 X8.500 Y8.500
;TIME_ELAPSED:41.177280
;LAYER:5
;TYPE:FILL
;MESH:cube1.stl
G1 F2400 X1.000 Y8.500 E30.11016
G1 X1.000 Y1.000 E30.34529
G1 X8.500 Y1.000 E30.58042
G1 X8.500 Y8.500 E30.81555
G0 F7200 X8.000 Y8.000
G1 F2400 X1.500 Y8.000 E31.01933
G1 X1.500 Y1.500 E31.22311
G1 X8.000 Y1.500 E31.42689
G1 X8.000 Y8.000 E31.63068
G0 F7200 X7.500 Y7.500
G1 F2400 X2.000 Y7.500 E31.80311
G1 X2.000 Y2.000 E31.97554
G1 X7.500 Y2.000 E32.14797
G1 X7.500 Y7.500 E32.3204
G0 F7200 X7.000 Y7.000
G1 F2400 X2.500 Y7.000 E32.46147
G1 X2.500 Y2.500 E32.60255
G1 X7.000 Y2.500 E32.74363
G1 X7.000 Y7.000 E32.88471
G0 F7200 X6.500 Y6.500
G1 F2400 X3.000 Y6.500 E32.99444
G1 X3.000 Y3.000 E33.10417
G1 X6.500 Y3.000 E33.2139
G1 X6.500 Y6.500 E33.32363
G0 F7200 X6.000 Y6.000
G1 F2400 X3.500 Y6.000 E33.402
G1 X3.500 Y3.500 E33.48038
G1 X6.000 Y3.500 E33.55876
G1 X6.000 Y6.000 E33.63713
G0 F7200 X5.500 Y5.500
G1 F2400 X4.000 Y5.500 E33.68416
G1 X4.000 Y4.000 E33.73119
G1 X5.500 Y4.000 E33.77821
G1 X5.500 Y5.500 E33.82524
G0 F7200 X5.000 Y5.000
G1 F2400 X4.500 Y5.000 E33.84092
G1 X4.500 Y4.500 E33.85659
G1 X5.000 Y4.500 E33.87227
G1 X5.000 Y5.000 E33.88794
G0 F7200 X8.680 Y8.680
G0 X9.000 Y9.000
;TYPE:WALL-INNER
G1 F2400 X9.000 Y0.500 E34.15442
G1 X0.500 Y0.500 E34.42091
G1 X0.500 Y9.000 E34.68739
G1 X9.000 Y9.000 E34.95387
G0 F7200 X9.500 Y9.500
;TYPE:WALL-OUTER
G1 F1200 X9.500 Y0.000 E35.25171
G1 X0.000 Y0.000 E35.54954
G1 X0.000 Y9.500 E35.84737
G1 X9.500 Y9.500 E36.14521
G0 F7200 X9.500 Y9.250
G0 X8.250 Y8.397
;MESH:NONMESH
G0 F600 X8.250 Y8.397 Z2.7
G0 F7200 X8.500 Y8.500
;TIME_ELAPSED:47.675832
;LAYER:6
;TYPE:FILL
;MESH:cube1.stl
G1 F2400 X1.000 Y8.500 E36.38034
G1 X1.000 Y1.000 E36.61547
G1 X8.500 Y1.000 E36.8506
G1 X8.500 Y8.500 E37.08574
G0 F7200 X8.000 Y8.000
G1 F2400 X1.500 Y8.000 E37.28952
G1 X1.500 Y1.500 E37.4933
G1 X8.000 Y1.500 E37.69708
G1 X8.000 Y8.000 E37.90086
G0 F7200 X7.500 Y7.500
G1 F2400 X2.000 Y7.500 E38.07329
G1 X2.000 Y2.000 E38.24572
G1 X7.500 Y2.000 E38.41815
G1 X7.500 Y7.500 E38.59058
G0 F7200 X7.000 Y7.000
G1 F2400 X2.500 Y7.000 E38.73166
G1 X2.500 Y2.500 E38.87274
G1 X7.000 Y2.500 E39.01382
G1 X7.000 Y7.000 E39.1549
G0 F7200 X6.500 Y6.500
G1 F2400 X3.000 Y6.500 E39.26463
G1 X3.000 Y3.000 E39.37435
G1 X6.500 Y3.000 E39.48408
G1 X6.500 Y6.500 E39.59381
G0 F7200 X6.000 Y6.000
G1 F2400 X3.500 Y6.000 E39.67219
G1 X3.500 Y3.500 E39.75057
G1 X6.000 Y3.500 E39.82894
G1 X6.000 Y6.000 E39.90732
G0 F7200 X5.500 Y5.500
G1 F2400 X4.000 Y5.500 E39.95435
G1 X4.000 Y4.000 E40.00137
G1 X5.500 Y4.000 E40.0484
G1 X5.500 Y5.500 E40.09543
G0 F7200 X5.000 Y5.000
G1 F2400 X4.500 Y5.000 E40.1111
G1 X4.500 Y4.500 E40.12678
G1 X5.000 Y4.500 E40.14245
G1 X5.000 Y5.000 E40.15813
G0 F7200 X8.680 Y8.680
G0 X9.000 Y9.000
;TYPE:WALL-INNER
G1 F2400 X9.000 Y0.500 E40.42461
G1 X0.500 Y0.500 E40.69109
G1 X0.500 Y9.000 E40.95758
G1 X9.000 Y9.000 E41.22406
G0 F7200 X9.500 Y9.500
;TYPE:WALL-OUTER
G1 F1200 X9.500 Y0.000 E41.52189
G1 X0.000 Y0.000 E41.81973
G1 X0.000 Y9.500 E42.11756
G1 X9.500 Y9.500 E42.41539
G0 F7200 X9.500 Y9.250
G0 X8.250 Y8.397
;MESH:NONMESH
G0 F600 X8.250 Y8.397 Z3.1
G0 F7200 X8.500 Y8.500
;TIME_ELAPSED:54.174384
;LAYER:7
;TYPE:FILL
;MESH:cube1.stl
G1 F2400 X1.000 Y8.500 E42.65053
G1 X1.000 Y1.000 E42.88566
G1 X8.500 Y1.000 E43.12079
G1 X8.500 Y8.500 E43.35592
G0 F7200 X8.000 Y8.000
G1 F2400 X1.500 Y8.000 E43.5597
G1 X1.500 Y1.500 E43.76348
G1 X8.000 Y1.500 E43.96727
G1 X8.000 Y8.000 E44.17105
G0 F7200 X7.500 Y7.500
G1 F2400 X2.000 Y7.500 E44.34348
G1 X2.000 Y2.000 E44.51591
G1 X7.500 Y2.000 E44.68834
G1 X7.500 Y7.500 E44.86077
G0 F7200 X7.000 Y7.000
G1 F2400 X2.500 Y7.000 E45.00185
G1 X2.500 Y2.500 E45.14293
G1 X7.000 Y2.500 E45.284
G1 X7.000 Y7.000 E45.42508
G0 F7200 X6.500 Y6.500
G1 F2400 X3.000 Y6.500 E45.53481
G1 X3.000 Y3.000 E45.64454
G1 X6.500 Y3.000 E45.75427
G1 X6.500 Y6.500 E45.864
G0 F7200 X6.000 Y6.000
G1 F2400 X3.500 Y6.000 E45.94237
G1 X3.500 Y3.500 E46.02075
G1 X6.000 Y3.500 E46.09913
G1 X6.000 Y6.000 E46.17751
G0 F7200 X5.500 Y5.500
G1 F2400 X4.000 Y5.500 E46.22453
G1 X4.000 Y4.000 E46.27156
G1 X5.500 Y4.000 E46.31858
G1 X5.500 Y5.500 E46.36561
G0 F7200 X5.000 Y5.000
G1 F2400 X4.500 Y5.000 E46.38129
G1 X4.500 Y4.500 E46.39696
G1 X5.000 Y4.500 E46.41264
G1 X5.000 Y5.000 E46.42831
G0 F7200 X8.680 Y8.680
G0 X9.000 Y9.000
;TYPE:WALL-INNER
G1 F2400 X9.000 Y0.500 E46.6948
G1 X0.500 Y0.500 E46.96128
G1 X0.500 Y9.000 E47.22776
G1 X9.000 Y9.000 E47.49424
G0 F7200 X9.500 Y9.500
;TYPE:WALL-OUTER
G1 F1200 X9.500 Y0.000 E47.79208
G1 X0.000 Y0.000 E48.08991
G1 X0.000 Y9.500 E48.38775
G1 X9.500 Y9.500 E48.68558
G0 F7200 X9.500 Y9.250
G0 X8.250 Y8.397
;MESH:NONMESH
G0 F600 X8.250 Y8.397 Z3.5
G0 F7200 X8.500 Y8.500
;TIME_ELAPSED:60.672935
;LAYER:8
;TYPE:FILL
;MESH:cube1.stl
G1 F2400 X1.000 Y8.500 E48.92071
G1 X1.000 Y1.000 E49.15584
G1 X8.500 Y1.000 E49.39098
G1 X8.500 Y8.500 E49.62611
G0 F7200 X8.000 Y8.000
G1 F2400 X1.500 Y8.000 E49.82989
G1 X1.500 Y1.500 E50.03367
G1 X8.000 Y1.500 E50.23745
G1 X8.000 Y8.000 E50.44123
G0 F7200 X7.500 Y7.500
G1 F2400 X2.000 Y7.500 E50.61366
G1 X2.000 Y2.000 E50.78609
G1 X7.500 Y2.000 E50.95852
G1 X7.500 Y7.500 E51.13095
G0 F7200 X7.000 Y7.000
G1 F2400 X2.500 Y7.000 E51.27203
G1 X2.500 Y2.500 E51.41311
G1 X7.000 Y2.500 E51.55419
G1 X7.000 Y7.000 E51.69527
G0 F7200 X6.500 Y6.500
G1 F2400 X3.000 Y6.500 E51.805
G1 X3.000 Y3.000 E51.91473
G1 X6.500 Y3.000 E52.02445
G1 X6.500 Y6.500 E52.13418
G0 F7200 X6.000 Y6.000
G1 F2400 X3.500 Y6.000 E52.21256
G1 X3.500 Y3.500 E52.29094
G1 X6.000 Y3.500 E52.36931
G1 X6.000 Y6.000 E52.44769
G0 F7200 X5.500 Y5.500
G1 F2400 X4.000 Y5.500 E52.49472
G1 X4.000 Y4.000 E52.54174
G1 X5.500 Y4.000 E52.58877
G1 X5.500 Y5.500 E52.6358
G0 F7200 X5.000 Y5.000
G1 F2400 X4.500 Y5.000 E52.65147
G1 X4.500 Y4.500 E52.66715
G1 X5.000 Y4.500 E52.68282
G1 X5.000 Y5.000 E52.6985
G0 F7200 X8.680 Y8.680
G0 X9.000 Y9.000
;TYPE:WALL-INNER
G1 F2400 X9.000 Y0.500 E52.96498
G1 X0.500 Y0.500 E53.23146
G1 X0.500 Y9.000 E53.49795
G1 X9.000 Y9.000 E53.76443
G0 F7200 X9.500 Y9.500
;TYPE:WALL-OUTER
G1 F1200 X9.500 Y0.000 E54.06226
G1 X0.000 Y0.000 E54.3601
G1 X0.000 Y9.500 E54.65793
G1 X9.500 Y9.500 E54.95577
G0 F7200 X9.500 Y9.250
G0 X8.250 Y8.397
;MESH:NONMESH
G0 F600 X8.250 Y8.397 Z3.9
G0 F7200 X8.500 Y8.500
;TIME_ELAPSED:67.171487
;LAYER:9
;TYPE:FILL
;MESH:cube1.stl
G1 F2400 X1.000 Y8.500 E55.1909
G1 X1.000 Y1.000 E55.42603
G1 X8.500 Y1.000 E55.66116
G1 X8.500 Y8.500 E55.89629
G0 F7200 X8.000 Y8.000
G1 F2400 X1.500 Y8.000 E56.10007
G1 X1.500 Y1.500 E56.30386
G1 X8.000 Y1.500 E56.50764
G1 X8.000 Y8.000 E56.71142
G0 F7200 X7.500 Y7.500
G1 F2400 X2.000 Y7.500 E56.88385
G1 X2.000 Y2.000 E57.05628
G1 X7.500 Y2.000 E57.22871
G1 X7.500 Y7.500 E57.40114
G0 F7200 X7.000 Y7.000
G1 F2400 X2.500 Y7.000 E57.54222
G1 X2.500 Y2.500 E57.6833
G1 X7.000 Y2.500 E57.82438
G1 X7.000 Y7.000 E57.96545
G0 F7200 X6.500 Y6.500
G1 F2400 X3.000 Y6.500 E58.07518
G1 X3.000 Y3.000 E58.18491
G1 X6.500 Y3.000 E58.29464
G1 X6.500 Y6.500 E58.40437
G0 F7200 X6.000 Y6.000
G1 F2400 X3.500 Y6.000 E58.48274
G1 X3.500 Y3.500 E58.56112
G1 X6.000 Y3.500 E58.6395
G1 X6.000 Y6.000 E58.71788
G0 F7200 X5.500 Y5.500
G1 F2400 X4.000 Y5.500 E58.7649
G1 X4.000 Y4.000 E58.81193
G1 X5.500 Y4.000 E58.85896
G1 X5.500 Y5.500 E58.90598
G0 F7200 X5.000 Y5.000
G1 F2400 X4.500 Y5.000 E58.92166
G1 X4.500 Y4.500 E58.93733
G1 X5.000 Y4.500 E58.95301
G1 X5.000 Y5.000 E58.96868
G0 F7200 X8.680 Y8.680
G0 X9.000 Y9.000
;TYPE:WALL-INNER
G1 F2400 X9.000 Y0.500 E59.23517
G1 X0.500 Y0.500 E59.50165
G1 X0.500 Y9.000 E59.76813
G1 X9.000 Y9.000 E60.03462
G0 F7200 X9.500 Y9.500
;TYPE:WALL-OUTER
G1 F1200 X9.500 Y0.000 E60.33245
G1 X0.000 Y0.000 E60.63028
G1 X0.000 Y9.500 E60.92812
G1 X9.500 Y9.500 E61.22595
