;FLAVOR:Marlin
;TIME:229
;Filament used: 0.155344m
;Layer height: 0.3
;MAXZ:9.9
;LAYER_COUNT:33
;LAYER:0
;MESH:cube1.stl

G21 ;start of the code
G1 Z15 F300
G28 X0 Y0 ;Home
G92 X0 Y0 ;Consider this as current
G0 X50 Y50 F3000 ;Go-to Offset
G92 X0 Y0 ;Reset

G0 F3600 X9.000 Y9.000 Z0.3
M7
;TYPE:WALL-INNER
G1 F1200 X9.000 Y0.500 E0.19986
G1 X0.500 Y0.500 E0.39972
G1 X0.500 Y9.000 E0.59959
G1 X9.000 Y9.000 E0.79945
G0 F3600 X9.500 Y9.500
;TYPE:WALL-OUTER
G1 F1200 X9.500 Y0.000 E1.02282
G1 X0.000 Y0.000 E1.2462
G1 X0.000 Y9.500 E1.46957
G1 X9.500 Y9.500 E1.69295
G0 F3600 X9.500 Y9.250
G0 X8.680 Y8.680
G0 X8.524 Y8.524
;TYPE:SKIN
G1 F1200 X0.972 Y8.524 E1.87052
G1 X0.972 Y0.972 E2.04809
G1 X8.524 Y0.972 E2.22567
G1 X8.524 Y8.524 E2.40324
G0 F3600 X8.274 Y1.582
G1 F1200 X7.914 Y1.222 E2.41521
G0 F3600 X7.207 Y1.222
G1 F1200 X8.274 Y2.289 E2.45069
G0 F3600 X8.274 Y2.996
G1 F1200 X6.500 Y1.222 E2.50968
G0 F3600 X5.793 Y1.222
G1 F1200 X8.274 Y3.703 E2.59218
G0 F3600 X8.274 Y4.410
G1 F1200 X5.086 Y1.222 E2.69819
G0 F3600 X4.379 Y1.222
G1 F1200 X8.274 Y5.118 E2.82772
G0 F3600 X8.274 Y5.825
G1 F1200 X3.671 Y1.222 E2.98079
G0 F3600 X2.964 Y1.222
G1 F1200 X8.274 Y6.532 E3.15736
G0 F3600 X8.274 Y7.239
G1 F1200 X2.257 Y1.222 E3.35744
G0 F3600 X1.550 Y1.222
G1 F1200 X8.274 Y7.946 E3.58103
G0 F3600 X7.894 Y8.273
G1 F1200 X1.222 Y1.601 E3.80289
G0 F3600 X1.222 Y2.308
G1 F1200 X7.187 Y8.273 E4.00124
G0 F3600 X6.480 Y8.273
G1 F1200 X1.222 Y3.015 E4.17609
G0 F3600 X1.222 Y3.722
G1 F1200 X5.773 Y8.273 E4.32742
G0 F3600 X5.066 Y8.273
G1 F1200 X1.222 Y4.430 E4.45523
G0 F3600 X1.222 Y5.137
G1 F1200 X4.359 Y8.273 E4.55952
G0 F3600 X3.652 Y8.273
G1 F1200 X1.222 Y5.844 E4.64031
G0 F3600 X1.222 Y6.551
G1 F1200 X2.945 Y8.273 E4.69759
G0 F3600 X2.237 Y8.273
G1 F1200 X1.222 Y7.258 E4.73134
G0 F3600 X1.222 Y7.965
G1 F1200 X1.530 Y8.273 E4.74158
G0 F3600 X1.530 Y8.250
;MESH:NONMESH
G0 F600 X1.530 Y8.250 Z0.6
G0 F3600 X8.680 Y8.680
G0 X9.000 Y9.000
;TIME_ELAPSED:11.383957
;LAYER:1
;TYPE:WALL-INNER
;MESH:cube1.stl
G1 F1800 X9.000 Y0.500 E4.94144
G1 X0.500 Y0.500 E5.14131
G1 X0.500 Y9.000 E5.34117
G1 X9.000 Y9.000 E5.54103
G0 F5400 X9.500 Y9.500
;TYPE:WALL-OUTER
G1 F1200 X9.500 Y0.000 E5.76441
G1 X0.000 Y0.000 E5.98778
G1 X0.000 Y9.500 E6.21116
G1 X9.500 Y9.500 E6.43453
G0 F5400 X9.500 Y9.250
G0 X8.680 Y8.680
G0 X8.524 Y8.524
;TYPE:SKIN
G1 F1200 X0.972 Y8.524 E6.6121
G1 X0.972 Y0.972 E6.78968
G1 X8.524 Y0.972 E6.96725
G1 X8.524 Y8.524 E7.14482
G0 F5400 X7.957 Y8.274
G1 F1200 X8.274 Y7.957 E7.15536
G0 F5400 X8.274 Y7.250
G1 F1200 X7.250 Y8.274 E7.18941
G0 F5400 X6.543 Y8.274
G1 F1200 X8.274 Y6.543 E7.24697
G0 F5400 X8.274 Y5.836
G1 F1200 X5.836 Y8.274 E7.32804
G0 F5400 X5.129 Y8.274
G1 F1200 X8.274 Y5.129 E7.43262
G0 F5400 X8.274 Y4.422
G1 F1200 X4.422 Y8.274 E7.56071
G0 F5400 X3.715 Y8.274
G1 F1200 X8.274 Y3.715 E7.71231
G0 F5400 X8.274 Y3.008
G1 F1200 X3.007 Y8.274 E7.88743
G0 F5400 X2.300 Y8.274
G1 F1200 X8.274 Y2.300 E8.08609
G0 F5400 X8.274 Y1.593
G1 F1200 X1.593 Y8.274 E8.30825
G0 F5400 X1.222 Y7.938
G1 F1200 X7.939 Y1.221 E8.5316
G0 F5400 X7.232 Y1.221
G1 F1200 X1.222 Y7.231 E8.73145
G0 F5400 X1.222 Y6.524
G1 F1200 X6.525 Y1.221 E8.90779
G0 F5400 X5.818 Y1.221
G1 F1200 X1.222 Y5.817 E9.06062
G0 F5400 X1.222 Y5.110
G1 F1200 X5.110 Y1.221 E9.18992
G0 F5400 X4.403 Y1.221
G1 F1200 X1.222 Y4.403 E9.29572
G0 F5400 X1.222 Y3.696
G1 F1200 X3.696 Y1.221 E9.378
G0 F5400 X2.989 Y1.221
G1 F1200 X1.222 Y2.988 E9.43676
G0 F5400 X1.222 Y2.281
G1 F1200 X2.282 Y1.221 E9.47201
G0 F5400 X1.575 Y1.221
G1 F1200 X1.222 Y1.574 E9.48375
G0 F5400 X1.250 Y1.574
;MESH:NONMESH
G0 F600 X1.250 Y1.574 Z0.9
G0 F5400 X8.500 Y8.500
;TIME_ELAPSED:21.649819
;LAYER:2
;TYPE:FILL
;MESH:cube1.stl
G1 F2400 X1.000 Y8.500 E9.66009
G1 X1.000 Y1.000 E9.83644
G1 X8.500 Y1.000 E10.01279
G1 X8.500 Y8.500 E10.18914
G0 F7200 X8.000 Y8.000
G1 F2400 X1.500 Y8.000 E10.34198
G1 X1.500 Y1.500 E10.49481
G1 X8.000 Y1.500 E10.64765
G1 X8.000 Y8.000 E10.80048
G0 F7200 X7.500 Y7.500
G1 F2400 X2.000 Y7.500 E10.92981
G1 X2.000 Y2.000 E11.05913
G1 X7.500 Y2.000 E11.18845
G1 X7.500 Y7.500 E11.31777
G0 F7200 X7.000 Y7.000
G1 F2400 X2.500 Y7.000 E11.42358
G1 X2.500 Y2.500 E11.52939
G1 X7.000 Y2.500 E11.6352
G1 X7.000 Y7.000 E11.74101
G0 F7200 X6.500 Y6.500
G1 F2400 X3.000 Y6.500 E11.82331
G1 X3.000 Y3.000 E11.9056
G1 X6.500 Y3.000 E11.9879
G1 X6.500 Y6.500 E12.0702
G0 F7200 X6.000 Y6.000
G1 F2400 X3.500 Y6.000 E12.12898
G1 X3.500 Y3.500 E12.18776
G1 X6.000 Y3.500 E12.24655
G1 X6.000 Y6.000 E12.30533
G0 F7200 X5.500 Y5.500
G1 F2400 X4.000 Y5.500 E12.3406
G1 X4.000 Y4.000 E12.37587
G1 X5.500 Y4.000 E12.41114
G1 X5.500 Y5.500 E12.44641
G0 F7200 X5.000 Y5.000
G1 F2400 X4.500 Y5.000 E12.45816
G1 X4.500 Y4.500 E12.46992
G1 X5.000 Y4.500 E12.48168
G1 X5.000 Y5.000 E12.49343
G0 F7200 X8.680 Y8.680
G0 X9.000 Y9.000
;TYPE:WALL-INNER
G1 F2400 X9.000 Y0.500 E12.6933
G1 X0.500 Y0.500 E12.89316
G1 X0.500 Y9.000 E13.09302
G1 X9.000 Y9.000 E13.29288
G0 F7200 X9.500 Y9.500
;TYPE:WALL-OUTER
G1 F1200 X9.500 Y0.000 E13.51626
G1 X0.000 Y0.000 E13.73963
G1 X0.000 Y9.500 E13.96301
G1 X9.500 Y9.500 E14.18638
G0 F7200 X9.500 Y9.250
G0 X8.250 Y8.397
;MESH:NONMESH
G0 F600 X8.250 Y8.397 Z1.2
G0 F7200 X8.500 Y8.500
;TIME_ELAPSED:28.133700
;LAYER:3
;TYPE:FILL
;MESH:cube1.stl
G1 F2400 X1.000 Y8.500 E14.36273
G1 X1.000 Y1.000 E14.53908
G1 X8.500 Y1.000 E14.71543
G1 X8.500 Y8.500 E14.89178
G0 F7200 X8.000 Y8.000
G1 F2400 X1.500 Y8.000 E15.04462
G1 X1.500 Y1.500 E15.19745
G1 X8.000 Y1.500 E15.35029
G1 X8.000 Y8.000 E15.50312
G0 F7200 X7.500 Y7.500
G1 F2400 X2.000 Y7.500 E15.63245
G1 X2.000 Y2.000 E15.76177
G1 X7.500 Y2.000 E15.89109
G1 X7.500 Y7.500 E16.02041
G0 F7200 X7.000 Y7.000
G1 F2400 X2.500 Y7.000 E16.12622
G1 X2.500 Y2.500 E16.23203
G1 X7.000 Y2.500 E16.33784
G1 X7.000 Y7.000 E16.44365
G0 F7200 X6.500 Y6.500
G1 F2400 X3.000 Y6.500 E16.52595
G1 X3.000 Y3.000 E16.60824
G1 X6.500 Y3.000 E16.69054
G1 X6.500 Y6.500 E16.77284
G0 F7200 X6.000 Y6.000
G1 F2400 X3.500 Y6.000 E16.83162
G1 X3.500 Y3.500 E16.8904
G1 X6.000 Y3.500 E16.94919
G1 X6.000 Y6.000 E17.00797
G0 F7200 X5.500 Y5.500
G1 F2400 X4.000 Y5.500 E17.04324
G1 X4.000 Y4.000 E17.07851
G1 X5.500 Y4.000 E17.11378
G1 X5.500 Y5.500 E17.14905
G0 F7200 X5.000 Y5.000
G1 F2400 X4.500 Y5.000 E17.1608
G1 X4.500 Y4.500 E17.17256
G1 X5.000 Y4.500 E17.18432
G1 X5.000 Y5.000 E17.19607
G0 F7200 X8.680 Y8.680
G0 X9.000 Y9.000
;TYPE:WALL-INNER
G1 F2400 X9.000 Y0.500 E17.39594
G1 X0.500 Y0.500 E17.5958
G1 X0.500 Y9.000 E17.79566
G1 X9.000 Y9.000 E17.99552
G0 F7200 X9.500 Y9.500
;TYPE:WALL-OUTER
G1 F1200 X9.500 Y0.000 E18.2189
G1 X0.000 Y0.000 E18.44227
G1 X0.000 Y9.500 E18.66565
G1 X9.500 Y9.500 E18.88902
G0 F7200 X9.500 Y9.250
G0 X8.250 Y8.397
;MESH:NONMESH
G0 F600 X8.250 Y8.397 Z1.5
G0 F7200 X8.500 Y8.500
;TIME_ELAPSED:34.617582
;LAYER:4
;TYPE:FILL
;MESH:cube1.stl
G1 F2400 X1.000 Y8.500 E19.06537
G1 X1.000 Y1.000 E19.24172
G1 X8.500 Y1.000 E19.41807
G1 X8.500 Y8.500 E19.59442
G0 F7200 X8.000 Y8.000
G1 F2400 X1.500 Y8.000 E19.74726
G1 X1.500 Y1.500 E19.90009
G1 X8.000 Y1.500 E20.05293
G1 X8.000 Y8.000 E20.20576
G0 F7200 X7.500 Y7.500
G1 F2400 X2.000 Y7.500 E20.33509
G1 X2.000 Y2.000 E20.46441
G1 X7.500 Y2.000 E20.59373
G1 X7.500 Y7.500 E20.72305
G0 F7200 X7.000 Y7.000
G1 F2400 X2.500 Y7.000 E20.82886
G1 X2.500 Y2.500 E20.93467
G1 X7.000 Y2.500 E21.04048
G1 X7.000 Y7.000 E21.14629
G0 F7200 X6.500 Y6.500
G1 F2400 X3.000 Y6.500 E21.22859
G1 X3.000 Y3.000 E21.31088
G1 X6.500 Y3.000 E21.39318
G1 X6.500 Y6.500 E21.47548
G0 F7200 X6.000 Y6.000
G1 F2400 X3.500 Y6.000 E21.53426
G1 X3.500 Y3.500 E21.59304
G1 X6.000 Y3.500 E21.65182
G1 X6.000 Y6.000 E21.71061
G0 F7200 X5.500 Y5.500
G1 F2400 X4.000 Y5.500 E21.74588
G1 X4.000 Y4.000 E21.78115
G1 X5.500 Y4.000 E21.81642
G1 X5.500 Y5.500 E21.85169
G0 F7200 X5.000 Y5.000
G1 F2400 X4.500 Y5.000 E21.86344
G1 X4.500 Y4.500 E21.8752
G1 X5.000 Y4.500 E21.88696
G1 X5.000 Y5.000 E21.89871
G0 F7200 X8.680 Y8.680
G0 X9.000 Y9.000
;TYPE:WALL-INNER
G1 F2400 X9.000 Y0.500 E22.09858
G1 X0.500 Y0.500 E22.29844
G1 X0.500 Y9.000 E22.4983
G1 X9.000 Y9.000 E22.69816
G0 F7200 X9.500 Y9.500
;TYPE:WALL-OUTER
G1 F1200 X9.500 Y0.000 E22.92154
G1 X0.000 Y0.000 E23.14491
G1 X0.000 Y9.500 E23.36829
G1 X9.500 Y9.500 E23.59166
G0 F7200 X9.500 Y9.250
G0 X8.250 Y8.397
;MESH:NONMESH
G0 F600 X8.250 Y8.397 Z1.8
G0 F7200 X8.500 Y8.500
;TIME_ELAPSED:41.101463
;LAYER:5
;TYPE:FILL
;MESH:cube1.stl
G1 F2400 X1.000 Y8.500 E23.76801
G1 X1.000 Y1.000 E23.94436
G1 X8.500 Y1.000 E24.12071
G1 X8.500 Y8.500 E24.29706
G0 F7200 X8.000 Y8.000
G1 F2400 X1.500 Y8.000 E24.44989
G1 X1.500 Y1.500 E24.60273
G1 X8.000 Y1.500 E24.75557
G1 X8.000 Y8.000 E24.9084
G0 F7200 X7.500 Y7.500
G1 F2400 X2.000 Y7.500 E25.03772
G1 X2.000 Y2.000 E25.16705
G1 X7.500 Y2.000 E25.29637
G1 X7.500 Y7.500 E25.42569
G0 F7200 X7.000 Y7.000
G1 F2400 X2.500 Y7.000 E25.5315
G1 X2.500 Y2.500 E25.63731
G1 X7.000 Y2.500 E25.74312
G1 X7.000 Y7.000 E25.84893
G0 F7200 X6.500 Y6.500
G1 F2400 X3.000 Y6.500 E25.93123
G1 X3.000 Y3.000 E26.01352
G1 X6.500 Y3.000 E26.09582
G1 X6.500 Y6.500 E26.17811
G0 F7200 X6.000 Y6.000
G1 F2400 X3.500 Y6.000 E26.2369
G1 X3.500 Y3.500 E26.29568
G1 X6.000 Y3.500 E26.35446
G1 X6.000 Y6.000 E26.41325
G0 F7200 X5.500 Y5.500
G1 F2400 X4.000 Y5.500 E26.44852
G1 X4.000 Y4.000 E26.48379
G1 X5.500 Y4.000 E26.51906
G1 X5.500 Y5.500 E26.55433
G0 F7200 X5.000 Y5.000
G1 F2400 X4.500 Y5.000 E26.56608
G1 X4.500 Y4.500 E26.57784
G1 X5.000 Y4.500 E26.5896
G1 X5.000 Y5.000 E26.60135
G0 F7200 X8.680 Y8.680
G0 X9.000 Y9.000
;TYPE:WALL-INNER
G1 F2400 X9.000 Y0.500 E26.80121
G1 X0.500 Y0.500 E27.00108
G1 X0.500 Y9.000 E27.20094
G1 X9.000 Y9.000 E27.4008
G0 F7200 X9.500 Y9.500
;TYPE:WALL-OUTER
G1 F1200 X9.500 Y0.000 E27.62418
G1 X0.000 Y0.000 E27.84755
G1 X0.000 Y9.500 E28.07093
G1 X9.500 Y9.500 E28.2943
G0 F7200 X9.500 Y9.250
G0 X8.250 Y8.397
;MESH:NONMESH
G0 F600 X8.250 Y8.397 Z2.1
G0 F7200 X8.500 Y8.500
;TIME_ELAPSED:47.585345
;LAYER:6
;TYPE:FILL
;MESH:cube1.stl
G1 F2400 X1.000 Y8.500 E28.47065
G1 X1.000 Y1.000 E28.647
G1 X8.500 Y1.000 E28.82335
G1 X8.500 Y8.500 E28.9997
G0 F7200 X8.000 Y8.000
G1 F2400 X1.500 Y8.000 E29.15253
G1 X1.500 Y1.500 E29.30537
G1 X8.000 Y1.500 E29.45821
G1 X8.000 Y8.000 E29.61104
G0 F7200 X7.500 Y7.500
G1 F2400 X2.000 Y7.500 E29.74036
G1 X2.000 Y2.000 E29.86969
G1 X7.500 Y2.000 E29.99901
G1 X7.500 Y7.500 E30.12833
G0 F7200 X7.000 Y7.000
G1 F2400 X2.500 Y7.000 E30.23414
G1 X2.500 Y2.500 E30.33995
G1 X7.000 Y2.500 E30.44576
G1 X7.000 Y7.000 E30.55157
G0 F7200 X6.500 Y6.500
G1 F2400 X3.000 Y6.500 E30.63387
G1 X3.000 Y3.000 E30.71616
G1 X6.500 Y3.000 E30.79846
G1 X6.500 Y6.500 E30.88075
G0 F7200 X6.000 Y6.000
G1 F2400 X3.500 Y6.000 E30.93954
G1 X3.500 Y3.500 E30.99832
G1 X6.000 Y3.500 E31.0571
G1 X6.000 Y6.000 E31.11589
G0 F7200 X5.500 Y5.500
G1 F2400 X4.000 Y5.500 E31.15116
G1 X4.000 Y4.000 E31.18643
G1 X5.500 Y4.000 E31.22169
G1 X5.500 Y5.500 E31.25696
G0 F7200 X5.000 Y5.000
G1 F2400 X4.500 Y5.000 E31.26872
G1 X4.500 Y4.500 E31.28048
G1 X5.000 Y4.500 E31.29223
G1 X5.000 Y5.000 E31.30399
G0 F7200 X8.680 Y8.680
G0 X9.000 Y9.000
;TYPE:WALL-INNER
G1 F2400 X9.000 Y0.500 E31.50385
G1 X0.500 Y0.500 E31.70372
G1 X0.500 Y9.000 E31.90358
G1 X9.000 Y9.000 E32.10344
G0 F7200 X9.500 Y9.500
;TYPE:WALL-OUTER
G1 F1200 X9.500 Y0.000 E32.32682
G1 X0.000 Y0.000 E32.55019
G1 X0.000 Y9.500 E32.77357
G1 X9.500 Y9.500 E32.99694
G0 F7200 X9.500 Y9.250
G0 X8.250 Y8.397
;MESH:NONMESH
G0 F600 X8.250 Y8.397 Z2.4
G0 F7200 X8.500 Y8.500
;TIME_ELAPSED:54.069227
;LAYER:7
;TYPE:FILL
;MESH:cube1.stl
G1 F2400 X1.000 Y8.500 E33.17329
G1 X1.000 Y1.000 E33.34964
G1 X8.500 Y1.000 E33.52599
G1 X8.500 Y8.500 E33.70234
G0 F7200 X8.000 Y8.000
G1 F2400 X1.500 Y8.000 E33.85517
G1 X1.500 Y1.500 E34.00801
G1 X8.000 Y1.500 E34.16084
G1 X8.000 Y8.000 E34.31368
G0 F7200 X7.500 Y7.500
G1 F2400 X2.000 Y7.500 E34.443
G1 X2.000 Y2.000 E34.57233
G1 X7.500 Y2.000 E34.70165
G1 X7.500 Y7.500 E34.83097
G0 F7200 X7.000 Y7.000
G1 F2400 X2.500 Y7.000 E34.93678
G1 X2.500 Y2.500 E35.04259
G1 X7.000 Y2.500 E35.1484
G1 X7.000 Y7.000 E35.25421
G0 F7200 X6.500 Y6.500
G1 F2400 X3.000 Y6.500 E35.3365
G1 X3.000 Y3.000 E35.4188
G1 X6.500 Y3.000 E35.5011
G1 X6.500 Y6.500 E35.58339
G0 F7200 X6.000 Y6.000
G1 F2400 X3.500 Y6.000 E35.64218
G1 X3.500 Y3.500 E35.70096
G1 X6.000 Y3.500 E35.75974
G1 X6.000 Y6.000 E35.81852
G0 F7200 X5.500 Y5.500
G1 F2400 X4.000 Y5.500 E35.85379
G1 X4.000 Y4.000 E35.88906
G1 X5.500 Y4.000 E35.92433
G1 X5.500 Y5.500 E35.9596
G0 F7200 X5.000 Y5.000
G1 F2400 X4.500 Y5.000 E35.97136
G1 X4.500 Y4.500 E35.98312
G1 X5.000 Y4.500 E35.99487
G1 X5.000 Y5.000 E36.00663
G0 F7200 X8.680 Y8.680
G0 X9.000 Y9.000
;TYPE:WALL-INNER
G1 F2400 X9.000 Y0.500 E36.20649
G1 X0.500 Y0.500 E36.40635
G1 X0.500 Y9.000 E36.60622
G1 X9.000 Y9.000 E36.80608
G0 F7200 X9.500 Y9.500
;TYPE:WALL-OUTER
G1 F1200 X9.500 Y0.000 E37.02945
G1 X0.000 Y0.000 E37.25283
G1 X0.000 Y9.500 E37.4762
G1 X9.500 Y9.500 E37.69958
G0 F7200 X9.500 Y9.250
G0 X8.250 Y8.397
;MESH:NONMESH
G0 F600 X8.250 Y8.397 Z2.7
G0 F7200 X8.500 Y8.500
;TIME_ELAPSED:60.553108
;LAYER:8
;TYPE:FILL
;MESH:cube1.stl
G1 F2400 X1.000 Y8.500 E37.87593
G1 X1.000 Y1.000 E38.05228
G1 X8.500 Y1.000 E38.22863
G1 X8.500 Y8.500 E38.40498
G0 F7200 X8.000 Y8.000
G1 F2400 X1.500 Y8.000 E38.55781
G1 X1.500 Y1.500 E38.71065
G1 X8.000 Y1.500 E38.86348
G1 X8.000 Y8.000 E39.01632
G0 F7200 X7.500 Y7.500
G1 F2400 X2.000 Y7.500 E39.14564
G1 X2.000 Y2.000 E39.27496
G1 X7.500 Y2.000 E39.40429
G1 X7.500 Y7.500 E39.53361
G0 F7200 X7.000 Y7.000
G1 F2400 X2.500 Y7.000 E39.63942
G1 X2.500 Y2.500 E39.74523
G1 X7.000 Y2.500 E39.85104
G1 X7.000 Y7.000 E39.95685
G0 F7200 X6.500 Y6.500
G1 F2400 X3.000 Y6.500 E40.03914
G1 X3.000 Y3.000 E40.12144
G1 X6.500 Y3.000 E40.20374
G1 X6.500 Y6.500 E40.28603
G0 F7200 X6.000 Y6.000
G1 F2400 X3.500 Y6.000 E40.34481
G1 X3.500 Y3.500 E40.4036
G1 X6.000 Y3.500 E40.46238
G1 X6.000 Y6.000 E40.52116
G0 F7200 X5.500 Y5.500
G1 F2400 X4.000 Y5.500 E40.55643
G1 X4.000 Y4.000 E40.5917
G1 X5.500 Y4.000 E40.62697
G1 X5.500 Y5.500 E40.66224
G0 F7200 X5.000 Y5.000
G1 F2400 X4.500 Y5.000 E40.674
G1 X4.500 Y4.500 E40.68576
G1 X5.000 Y4.500 E40.69751
G1 X5.000 Y5.000 E40.70927
G0 F7200 X8.680 Y8.680
G0 X9.000 Y9.000
;TYPE:WALL-INNER
G1 F2400 X9.000 Y0.500 E40.90913
G1 X0.500 Y0.500 E41.10899
G1 X0.500 Y9.000 E41.30886
G1 X9.000 Y9.000 E41.50872
G0 F7200 X9.500 Y9.500
;TYPE:WALL-OUTER
G1 F1200 X9.500 Y0.000 E41.73209
G1 X0.000 Y0.000 E41.95547
G1 X0.000 Y9.500 E42.17884
G1 X9.500 Y9.500 E42.40222
G0 F7200 X9.500 Y9.250
G0 X8.250 Y8.397
;MESH:NONMESH
G0 F600 X8.250 Y8.397 Z3
G0 F7200 X8.500 Y8.500
;TIME_ELAPSED:67.036990
;LAYER:9
;TYPE:FILL
;MESH:cube1.stl
G1 F2400 X1.000 Y8.500 E42.57857
G1 X1.000 Y1.000 E42.75492
G1 X8.500 Y1.000 E42.93127
G1 X8.500 Y8.500 E43.10762
G0 F7200 X8.000 Y8.000
G1 F2400 X1.500 Y8.000 E43.26045
G1 X1.500 Y1.500 E43.41329
G1 X8.000 Y1.500 E43.56612
G1 X8.000 Y8.000 E43.71896
G0 F7200 X7.500 Y7.500
G1 F2400 X2.000 Y7.500 E43.84828
G1 X2.000 Y2.000 E43.9776
G1 X7.500 Y2.000 E44.10693
G1 X7.500 Y7.500 E44.23625
G0 F7200 X7.000 Y7.000
G1 F2400 X2.500 Y7.000 E44.34206
G1 X2.500 Y2.500 E44.44787
G1 X7.000 Y2.500 E44.55368
G1 X7.000 Y7.000 E44.65949
G0 F7200 X6.500 Y6.500
G1 F2400 X3.000 Y6.500 E44.74178
G1 X3.000 Y3.000 E44.82408
G1 X6.500 Y3.000 E44.90637
G1 X6.500 Y6.500 E44.98867
G0 F7200 X6.000 Y6.000
G1 F2400 X3.500 Y6.000 E45.04745
G1 X3.500 Y3.500 E45.10624
G1 X6.000 Y3.500 E45.16502
G1 X6.000 Y6.000 E45.2238
G0 F7200 X5.500 Y5.500
G1 F2400 X4.000 Y5.500 E45.25907
G1 X4.000 Y4.000 E45.29434
G1 X5.500 Y4.000 E45.32961
G1 X5.500 Y5.500 E45.36488
G0 F7200 X5.000 Y5.000
G1 F2400 X4.500 Y5.000 E45.37664
G1 X4.500 Y4.500 E45.3884
G1 X5.000 Y4.500 E45.40015
G1 X5.000 Y5.000 E45.41191
G0 F7200 X8.680 Y8.680
G0 X9.000 Y9.000
;TYPE:WALL-INNER
G1 F2400 X9.000 Y0.500 E45.61177
G1 X0.500 Y0.500 E45.81163
G1 X0.500 Y9.000 E46.01149
G1 X9.000 Y9.000 E46.21136
G0 F7200 X9.500 Y9.500
;TYPE:WALL-OUTER
G1 F1200 X9.500 Y0.000 E46.43473
G1 X0.000 Y0.000 E46.65811
G1 X0.000 Y9.500 E46.88148
G1 X9.500 Y9.500 E47.10486
