;FLAVOR:Marlin
;TIME:217
;Filament used: 0.181m
;Layer height: 0.4
;MINX:187.25
;MINY:187.25
;MINZ:0.3
;MAXX:212.75
;MAXY:212.75
;MAXZ:9.9
;TARGET_MACHINE.NAME:Unknown
;Generated with Cura_SteamEngine 5.7.1
M104 S200
M105
M109 S200
M82 ;absolute extrusion mode
G28 ;Home
G1 Z15.0 F6000 ;Move the platform down 15mm
;Prime the extruder
G92 E0
G1 F200 E3
G92 E0
G92 E0
G92 E0
G1 F1500 E-6.5
;LAYER_COUNT:25
;LAYER:0
M107
G0 F3600 X189.801 Y189.302 Z0.3
;TYPE:SKIRT
G1 F1500 E0
G1 F1800 X190.755 Y188.514 E0.02909
G1 X192.378 Y187.621 E0.07265
G1 X194.238 Y187.25 E0.11725
G1 X205.724 Y187.3 E0.38732
G1 X207.281 Y187.528 E0.42432
G1 X209.307 Y188.525 E0.47742
G1 X210.524 Y189.58 E0.51529
G1 X211.483 Y190.75 E0.55086
G1 X212.379 Y192.378 E0.59455
G1 X212.75 Y194.234 E0.63906
G1 X212.75 Y205.668 E0.90791
G1 X212.339 Y207.546 E0.95311
G1 X211.388 Y209.483 E1.00385
G1 X210.199 Y210.698 E1.04382
G1 X209.245 Y211.486 E1.07291
G1 X207.622 Y212.379 E1.11647
G1 X205.766 Y212.75 E1.16097
G1 X194.332 Y212.75 E1.42982
G1 X192.454 Y212.339 E1.47503
G1 X190.517 Y211.388 E1.52577
G1 X189.302 Y210.199 E1.56574
G1 X188.514 Y209.245 E1.59483
G1 X187.621 Y207.622 E1.63839
G1 X187.25 Y205.766 E1.68289
G1 X187.25 Y194.332 E1.95174
G1 X187.661 Y192.454 E1.99695
G1 X188.612 Y190.517 E2.04768
G1 X189.801 Y189.302 E2.08766
G0 F3600 X190.119 Y189.688
G1 F1800 X191.038 Y188.929 E2.11568
G1 X192.552 Y188.096 E2.15631
G1 X194.285 Y187.75 E2.19787
G1 X205.651 Y187.795 E2.46512
G1 X207.13 Y188.012 E2.50027
G1 X209.028 Y188.945 E2.55
G1 X210.165 Y189.931 E2.58538
G1 X211.068 Y191.033 E2.61888
G1 X211.904 Y192.552 E2.65965
G1 X212.25 Y194.282 E2.70113
G1 X212.25 Y205.616 E2.96763
G1 X211.864 Y207.378 E3.01005
G1 X210.974 Y209.191 E3.05753
G1 X209.881 Y210.312 E3.09435
G1 X208.962 Y211.071 E3.12237
G1 X207.448 Y211.904 E3.163
G1 X205.718 Y212.25 E3.20449
G1 X194.384 Y212.25 E3.47099
G1 X192.622 Y211.864 E3.5134
G1 X190.809 Y210.974 E3.56089
G1 X189.688 Y209.881 E3.5977
G1 X188.929 Y208.962 E3.62573
G1 X188.096 Y207.448 E3.66636
G1 X187.75 Y205.718 E3.70784
G1 X187.75 Y194.384 E3.97434
G1 X188.136 Y192.622 E4.01675
G1 X189.026 Y190.809 E4.06424
G1 X190.119 Y189.688 E4.10106
G0 F3600 X190.437 Y190.074
G1 F1800 X191.321 Y189.344 E4.12801
G1 X192.726 Y188.571 E4.16572
G1 X194.332 Y188.25 E4.20423
G1 X205.579 Y188.29 E4.46868
G1 X206.979 Y188.495 E4.50195
G1 X208.749 Y189.365 E4.54833
G1 X209.806 Y190.282 E4.58123
G1 X210.653 Y191.316 E4.61266
G1 X211.429 Y192.726 E4.6505
G1 X211.75 Y194.33 E4.68896
G1 X211.75 Y205.564 E4.95311
G1 X211.39 Y207.209 E4.99271
G1 X210.559 Y208.9 E5.03701
G1 X209.563 Y209.926 E5.07063
G1 X208.679 Y210.656 E5.09759
G1 X207.274 Y211.429 E5.13529
G1 X205.67 Y211.75 E5.17376
G1 X194.436 Y211.75 E5.4379
G1 X192.791 Y211.39 E5.4775
G1 X191.1 Y210.559 E5.5218
G1 X190.074 Y209.563 E5.55542
G1 X189.344 Y208.679 E5.58238
G1 X188.571 Y207.274 E5.62008
G1 X188.25 Y205.67 E5.65855
G1 X188.25 Y194.436 E5.92269
G1 X188.61 Y192.791 E5.96229
G1 X189.441 Y191.1 E6.00659
G1 X190.437 Y190.074 E6.04021
G0 F3600 X190.755 Y190.46
G1 F1800 X191.604 Y189.759 E6.0661
G1 X192.9 Y189.046 E6.10088
G1 X194.379 Y188.75 E6.13635
G1 X205.506 Y188.785 E6.39798
G1 X206.828 Y188.979 E6.4294
G1 X208.47 Y189.786 E6.47242
G1 X209.447 Y190.633 E6.50282
G1 X210.238 Y191.599 E6.53218
G1 X210.954 Y192.9 E6.5671
G1 X211.25 Y194.378 E6.60254
G1 X211.25 Y205.512 E6.86433
G1 X210.915 Y207.041 E6.90114
G1 X210.145 Y208.609 E6.94221
G1 X209.245 Y209.54 E6.97266
G1 X208.396 Y210.241 E6.99855
G1 X207.1 Y210.954 E7.03333
G1 X205.622 Y211.25 E7.06877
G1 X194.488 Y211.25 E7.33057
G1 X192.959 Y210.915 E7.36737
G1 X191.391 Y210.145 E7.40845
G1 X190.46 Y209.245 E7.43889
G1 X189.759 Y208.396 E7.46478
G1 X189.046 Y207.1 E7.49956
G1 X188.75 Y205.622 E7.535
G1 X188.75 Y194.488 E7.7968
G1 X189.085 Y192.959 E7.8336
G1 X189.855 Y191.391 E7.87468
G1 X190.755 Y190.46 E7.90513
G0 F3600 X191.114 Y190.808
G1 F1800 X191.884 Y190.176 E7.92855
G1 X193.074 Y189.521 E7.96049
G1 X194.426 Y189.25 E7.99291
G1 X205.434 Y189.28 E8.25174
G1 X206.677 Y189.462 E8.28128
G1 X208.193 Y190.208 E8.32101
G1 X209.085 Y190.981 E8.34876
G1 X209.823 Y191.882 E8.37615
G1 X210.479 Y193.074 E8.40814
G1 X210.75 Y194.426 E8.44056
G1 X210.75 Y205.46 E8.70001
G1 X210.441 Y206.872 E8.73399
G1 X209.73 Y208.319 E8.7719
G1 X208.886 Y209.192 E8.80045
G1 X208.116 Y209.824 E8.82388
G1 X206.926 Y210.479 E8.85582
G1 X205.574 Y210.75 E8.88824
G1 X194.54 Y210.75 E9.14768
G1 X193.128 Y210.441 E9.18167
G1 X191.681 Y209.73 E9.21958
G1 X190.808 Y208.886 E9.24813
G1 X190.176 Y208.116 E9.27155
G1 X189.521 Y206.926 E9.30349
G1 X189.25 Y205.574 E9.33591
G1 X189.25 Y194.54 E9.59536
G1 X189.559 Y193.128 E9.62935
G1 X190.27 Y191.681 E9.66725
G1 X191.114 Y190.808 E9.69581
G0 F3600 X191.431 Y191.195
G1 F1800 X192.167 Y190.591 E9.71819
G1 X193.248 Y189.996 E9.74721
G1 X194.474 Y189.75 E9.77661
G1 X205.362 Y189.775 E10.03262
G1 X206.526 Y189.945 E10.06028
G1 X207.914 Y190.628 E10.09665
G1 X208.726 Y191.332 E10.12192
G1 X209.408 Y192.165 E10.14724
G1 X210.004 Y193.248 E10.1763
G1 X210.25 Y194.474 E10.20571
G1 X210.25 Y205.408 E10.4628
G1 X209.967 Y206.703 E10.49397
G1 X209.315 Y208.029 E10.52871
G1 X208.569 Y208.805 E10.55402
G1 X207.833 Y209.409 E10.57641
G1 X206.752 Y210.004 E10.60542
G1 X205.526 Y210.25 E10.63482
G1 X194.592 Y210.25 E10.89192
G1 X193.297 Y209.967 E10.92308
G1 X191.971 Y209.315 E10.95783
G1 X191.195 Y208.569 E10.98314
G1 X190.591 Y207.833 E11.00553
G1 X189.996 Y206.752 E11.03454
G1 X189.75 Y205.526 E11.06394
G1 X189.75 Y194.592 E11.32103
G1 X190.033 Y193.297 E11.3522
G1 X190.685 Y191.971 E11.38695
G1 X191.431 Y191.195 E11.41226
G0 F3600 X191.748 Y191.582
G1 F1800 X192.45 Y191.006 E11.43361
G1 X193.422 Y190.471 E11.4597
G1 X194.522 Y190.25 E11.48608
G1 X205.29 Y190.27 E11.73927
G1 X206.376 Y190.429 E11.76508
G1 X207.634 Y191.047 E11.79803
G1 X208.367 Y191.683 E11.82085
G1 X208.993 Y192.448 E11.84409
G1 X209.529 Y193.422 E11.87023
G1 X209.75 Y194.522 E11.89661
G1 X209.75 Y205.356 E12.15136
G1 X209.492 Y206.535 E12.17973
G1 X208.901 Y207.738 E12.21125
G1 X208.252 Y208.418 E12.23335
G1 X207.55 Y208.994 E12.2547
G1 X206.578 Y209.529 E12.28079
G1 X205.478 Y209.75 E12.30717
G1 X194.644 Y209.75 E12.56192
G1 X193.465 Y209.492 E12.59029
G1 X192.262 Y208.901 E12.62181
G1 X191.582 Y208.252 E12.64391
G1 X191.006 Y207.55 E12.66526
G1 X190.471 Y206.578 E12.69135
G1 X190.25 Y205.478 E12.71773
G1 X190.25 Y194.644 E12.97247
G1 X190.508 Y193.465 E13.00085
G1 X191.099 Y192.262 E13.03237
G1 X191.748 Y191.582 E13.05447
G0 F3600 X192.11 Y191.927
G1 F1800 X192.731 Y191.422 E13.07329
G1 X193.596 Y190.946 E13.09651
G1 X194.571 Y190.75 E13.11989
G1 X205.217 Y190.765 E13.37021
G1 X206.226 Y190.913 E13.39419
G1 X207.357 Y191.469 E13.42382
G1 X208.008 Y192.033 E13.44408
G1 X208.576 Y192.728 E13.46518
G1 X209.054 Y193.596 E13.48848
G1 X209.25 Y194.571 E13.51186
G1 X209.25 Y205.304 E13.76423
G1 X209.017 Y206.367 E13.78982
G1 X208.486 Y207.448 E13.81814
G1 X207.89 Y208.073 E13.83844
G1 X207.269 Y208.578 E13.85726
G1 X206.404 Y209.054 E13.88048
G1 X205.429 Y209.25 E13.90386
G1 X194.696 Y209.25 E14.15623
G1 X193.633 Y209.017 E14.18182
G1 X192.552 Y208.486 E14.21014
G1 X191.927 Y207.89 E14.23044
G1 X191.422 Y207.269 E14.24926
G1 X190.946 Y206.404 E14.27248
G1 X190.75 Y205.429 E14.29586
G1 X190.75 Y194.696 E14.54823
G1 X190.983 Y193.633 E14.57382
G1 X191.514 Y192.552 E14.60214
G1 X192.11 Y191.927 E14.62244
G0 F3600 X192.472 Y192.272
G1 F1800 X193.012 Y191.838 E14.63873
G1 X193.77 Y191.421 E14.65908
G1 X194.62 Y191.25 E14.67946
G1 X205.145 Y191.26 E14.92694
G1 X206.075 Y191.396 E14.94904
G1 X207.08 Y191.891 E14.97538
G1 X207.649 Y192.383 E14.99307
G1 X208.159 Y193.008 E15.01203
G1 X208.579 Y193.77 E15.03249
G1 X208.75 Y194.62 E15.05288
G1 X208.75 Y205.252 E15.30287
G1 X208.543 Y206.197 E15.32562
G1 X208.07 Y207.159 E15.35082
G1 X207.528 Y207.728 E15.3693
G1 X206.988 Y208.162 E15.38559
G1 X206.23 Y208.579 E15.40593
G1 X205.38 Y208.75 E15.42632
G1 X194.748 Y208.75 E15.67631
G1 X193.803 Y208.543 E15.69906
G1 X192.841 Y208.07 E15.72427
G1 X192.272 Y207.528 E15.74274
G1 X191.838 Y206.988 E15.75903
G1 X191.421 Y206.23 E15.77937
G1 X191.25 Y205.38 E15.79976
G1 X191.25 Y194.748 E16.04975
G1 X191.457 Y193.803 E16.0725
G1 X191.93 Y192.841 E16.09771
G1 X192.472 Y192.272 E16.11618
G0 F3600 X192.785 Y192.662
G1 F1800 X193.292 Y192.255 E16.13147
G1 X193.944 Y191.896 E16.14897
G1 X194.669 Y191.75 E16.16636
G1 X205.072 Y191.755 E16.41097
G1 X205.924 Y191.88 E16.43122
G1 X206.804 Y192.313 E16.45428
G1 X207.287 Y192.73 E16.46928
G1 X207.744 Y193.291 E16.48629
G1 X208.104 Y193.944 E16.50383
G1 X208.25 Y194.669 E16.52122
G1 X208.25 Y205.2 E16.76883
G1 X208.069 Y206.027 E16.78874
G1 X207.653 Y206.872 E16.81089
G1 X207.215 Y207.338 E16.82592
G1 X206.708 Y207.745 E16.84121
G1 X206.056 Y208.104 E16.85871
G1 X205.331 Y208.25 E16.8761
G1 X194.8 Y208.25 E17.12372
G1 X193.973 Y208.069 E17.14362
G1 X193.128 Y207.653 E17.16577
G1 X192.662 Y207.215 E17.18081
G1 X192.255 Y206.708 E17.19609
G1 X191.896 Y206.056 E17.2136
G1 X191.75 Y205.331 E17.23098
G1 X191.75 Y194.8 E17.4786
G1 X191.931 Y193.973 E17.49851
G1 X192.347 Y193.128 E17.52065
G1 X192.785 Y192.662 E17.53569
G0 F3600 X193.098 Y193.052
G1 F1800 X193.572 Y192.672 E17.54998
G1 X194.118 Y192.371 E17.56464
G1 X194.718 Y192.25 E17.57903
G1 X205 Y192.25 E17.82079
G1 X205.773 Y192.363 E17.83916
G1 X206.583 Y192.762 E17.86039
G1 X206.948 Y193.098 E17.87206
G1 X207.328 Y193.572 E17.88634
G1 X207.629 Y194.118 E17.901
G1 X207.75 Y194.718 E17.91539
G1 X207.75 Y205.148 E18.16063
G1 X207.595 Y205.857 E18.1777
G1 X207.236 Y206.586 E18.19681
G1 X206.902 Y206.948 E18.20839
G1 X206.428 Y207.328 E18.22267
G1 X205.882 Y207.629 E18.23733
G1 X205.282 Y207.75 E18.25172
G1 X194.852 Y207.75 E18.49697
G1 X194.143 Y207.595 E18.51403
G1 X193.414 Y207.236 E18.53314
G1 X193.052 Y206.902 E18.54472
G1 X192.672 Y206.428 E18.559
G1 X192.371 Y205.882 E18.57366
G1 X192.25 Y205.282 E18.58806
G1 X192.25 Y194.852 E18.8333
G1 X192.405 Y194.143 E18.85036
G1 X192.764 Y193.414 E18.86947
G1 X193.098 Y193.052 E18.88105
G0 F3600 X193.411 Y193.442
G1 F1800 X193.18 Y193.701 E18.88921
G1 X192.88 Y194.309 E18.90515
G1 X192.75 Y194.904 E18.91947
G1 X192.75 Y205.282 E19.16349
G1 X192.846 Y205.709 E19.17378
G1 X193.062 Y206.115 E19.1846
G1 X193.442 Y206.589 E19.19888
G1 X193.701 Y206.82 E19.20704
G1 X194.309 Y207.12 E19.22298
G1 X194.904 Y207.25 E19.2373
G1 X205.282 Y207.25 E19.48132
G1 X205.709 Y207.154 E19.49161
G1 X206.115 Y206.938 E19.50243
G1 X206.589 Y206.558 E19.51671
G1 X206.82 Y206.299 E19.52487
G1 X207.12 Y205.691 E19.54081
G1 X207.25 Y205.096 E19.55513
G1 X207.25 Y194.718 E19.79915
G1 X207.154 Y194.291 E19.80945
G1 X206.938 Y193.885 E19.82026
G1 X206.558 Y193.411 E19.83454
G1 X206.299 Y193.18 E19.8427
G1 X205.621 Y192.846 E19.86047
G1 X205 Y192.75 E19.87525
G1 X194.718 Y192.75 E20.11701
G1 X194.291 Y192.846 E20.1273
G1 X193.885 Y193.062 E20.13812
G1 X193.411 Y193.442 E20.1524
G0 F3600 X193.724 Y193.832
G1 F1800 X194.198 Y193.452 E20.16669
G1 X194.515 Y193.293 E20.17502
G1 X194.718 Y193.25 E20.1799
G1 X205 Y193.25 E20.42167
G1 X205.47 Y193.328 E20.43287
G1 X206.017 Y193.598 E20.44721
G1 X206.168 Y193.724 E20.45184
G1 X206.548 Y194.198 E20.46612
G1 X206.707 Y194.515 E20.47446
G1 X206.75 Y194.718 E20.47934
G1 X206.75 Y205.048 E20.72223
G1 X206.672 Y205.47 E20.73232
G1 X206.402 Y206.017 E20.74666
G1 X206.276 Y206.168 E20.75129
G1 X205.802 Y206.548 E20.76557
G1 X205.485 Y206.707 E20.77391
G1 X205.282 Y206.75 E20.77879
G1 X194.952 Y206.75 E21.02168
G1 X194.53 Y206.672 E21.03177
G1 X193.983 Y206.402 E21.04612
G1 X193.832 Y206.276 E21.05074
G1 X193.452 Y205.802 E21.06502
G1 X193.293 Y205.485 E21.07336
G1 X193.25 Y205.282 E21.07824
G1 X193.25 Y194.952 E21.32113
G1 X193.328 Y194.53 E21.33122
G1 X193.598 Y193.983 E21.34557
G1 X193.724 Y193.832 E21.35019
G0 F3600 X194.037 Y194.222
G1 F1800 X194.511 Y193.842 E21.36448
G1 X194.718 Y193.75 E21.3698
G1 X205 Y193.75 E21.61157
G1 X205.379 Y193.82 E21.62063
G1 X205.778 Y194.037 E21.63131
G1 X206.158 Y194.511 E21.64559
G1 X206.25 Y194.718 E21.65092
G1 X206.25 Y205 E21.89268
G1 X206.18 Y205.379 E21.90174
G1 X205.963 Y205.778 E21.91242
G1 X205.489 Y206.158 E21.92671
G1 X205.282 Y206.25 E21.93203
G1 X195 Y206.25 E22.1738
G1 X194.621 Y206.18 E22.18286
G1 X194.222 Y205.963 E22.19354
G1 X193.842 Y205.489 E22.20782
G1 X193.75 Y205.282 E22.21315
G1 X193.75 Y195 E22.45491
G1 X193.82 Y194.621 E22.46397
G1 X194.037 Y194.222 E22.47465
G0 F3600 X194.789 Y194.866
G1 F1800 X194.921 Y194.75 E22.47878
G1 X205 Y194.75 E22.71577
G1 X205.134 Y194.789 E22.71906
G1 X205.25 Y194.921 E22.72319
G1 X205.25 Y205 E22.96018
G1 X205.211 Y205.134 E22.96346
G1 X205.079 Y205.25 E22.96759
G1 X195 Y205.25 E23.20458
G1 X194.866 Y205.211 E23.20786
G1 X194.75 Y205.079 E23.21199
G1 X194.75 Y195 E23.44898
G1 X194.789 Y194.866 E23.45226
G0 F3600 X194.309 Y194.726
G1 F1800 X194.459 Y194.49 E23.45884
G1 X194.799 Y194.25 E23.46863
G1 X205 Y194.25 E23.70848
G1 X205.274 Y194.309 E23.71507
G1 X205.51 Y194.459 E23.72165
G1 X205.75 Y194.799 E23.73143
G1 X205.75 Y205 E23.97129
G1 X205.691 Y205.274 E23.97788
G1 X205.541 Y205.51 E23.98446
G1 X205.201 Y205.75 E23.99424
G1 X195 Y205.75 E24.2341
G1 X194.726 Y205.691 E24.24069
G1 X194.49 Y205.541 E24.24727
G1 X194.25 Y205.201 E24.25705
G1 X194.25 Y195 E24.49691
G1 X194.309 Y194.726 E24.5035
G1 F1500 E18.0035
;MESH:cube1.stl
G0 F3600 X195.514 Y195.514
G0 X203.93 Y203.93
G0 X204.25 Y204.25
;TYPE:WALL-INNER
G1 F1500 E24.5035
G1 F1800 X204.25 Y195.75 E24.70336
G1 X195.75 Y195.75 E24.90323
G1 X195.75 Y204.25 E25.10309
G1 X204.25 Y204.25 E25.30295
G0 F3600 X204.75 Y204.75
;TYPE:WALL-OUTER
G1 F1800 X204.75 Y195.25 E25.52632
G1 X195.25 Y195.25 E25.7497
G1 X195.25 Y204.75 E25.97308
G1 X204.75 Y204.75 E26.19645
G0 F3600 X204.75 Y204.5
G0 X203.93 Y203.93
G0 X203.774 Y203.774
;TYPE:SKIN
G1 F1800 X196.222 Y203.774 E26.37402
G1 X196.222 Y196.222 E26.55159
G1 X203.774 Y196.222 E26.72917
G1 X203.774 Y203.774 E26.90674
G0 F3600 X203.524 Y197.16
G1 F1800 X202.836 Y196.472 E26.92962
G0 F3600 X202.129 Y196.472
G1 F1800 X203.524 Y197.868 E26.97602
G0 F3600 X203.524 Y198.575
G1 F1800 X201.421 Y196.472 E27.04595
G0 F3600 X200.714 Y196.472
G1 F1800 X203.524 Y199.282 E27.13939
G0 F3600 X203.524 Y199.989
G1 F1800 X200.007 Y196.472 E27.25634
G0 F3600 X199.3 Y196.472
G1 F1800 X203.524 Y200.696 E27.3968
G0 F3600 X203.524 Y201.403
G1 F1800 X198.593 Y196.472 E27.56077
G0 F3600 X197.886 Y196.472
G1 F1800 X203.524 Y202.11 E27.74825
G0 F3600 X203.524 Y202.817
G1 F1800 X197.179 Y196.472 E27.95923
G0 F3600 X196.472 Y196.472
G1 F1800 X203.524 Y203.524 E28.19373
G0 F3600 X202.817 Y203.524
G1 F1800 X196.472 Y197.179 E28.40472
G0 F3600 X196.472 Y197.886
G1 F1800 X202.11 Y203.524 E28.5922
G0 F3600 X201.402 Y203.524
G1 F1800 X196.472 Y198.593 E28.75615
G0 F3600 X196.472 Y199.3
G1 F1800 X200.695 Y203.524 E28.89659
G0 F3600 X199.988 Y203.524
G1 F1800 X196.472 Y200.007 E29.01353
G0 F3600 X196.472 Y200.714
G1 F1800 X199.281 Y203.524 E29.10695
G0 F3600 X198.574 Y203.524
G1 F1800 X196.472 Y201.421 E29.17686
G0 F3600 X196.472 Y202.129
G1 F1800 X197.867 Y203.524 E29.22325
G0 F3600 X197.16 Y203.524
G1 F1800 X196.472 Y202.836 E29.24613
G0 F3600 X196.5 Y202.836
;MESH:NONMESH
G0 F600 X196.5 Y202.836 Z0.7
G0 F3600 X203.93 Y203.93
G0 X204.25 Y204.25
;TIME_ELAPSED:49.748829
;LAYER:1
M106 S255
;TYPE:WALL-INNER
;MESH:cube1.stl
G1 F2700 X204.25 Y195.75 E29.51261
G1 X195.75 Y195.75 E29.7791
G1 X195.75 Y204.25 E30.04558
G1 X204.25 Y204.25 E30.31206
G0 F5400 X204.75 Y204.75
;TYPE:WALL-OUTER
G1 F1800 X204.75 Y195.25 E30.6099
G1 X195.25 Y195.25 E30.90773
G1 X195.25 Y204.75 E31.20556
G1 X204.75 Y204.75 E31.5034
G0 F5400 X204.75 Y204.5
G0 X203.93 Y203.93
G0 X203.774 Y203.774
;TYPE:SKIN
G1 F1800 X196.222 Y203.774 E31.74016
G1 X196.222 Y196.222 E31.97692
G1 X203.774 Y196.222 E32.21368
G1 X203.774 Y203.774 E32.45045
G0 F5400 X203.524 Y203.063
G1 F1800 X203.062 Y203.524 E32.47091
G0 F5400 X202.355 Y203.524
G1 F1800 X203.524 Y202.356 E32.52271
G0 F5400 X203.524 Y201.648
G1 F1800 X201.648 Y203.524 E32.60589
