;FLAVOR:Marlin
;TIME:175
;Filament used: 0.156481m
;Layer height: 0.4
;MINX:10.674
;MINY:9.354
;MINZ:0.3
;MAXX:20.174
;MAXY:18.854
;MAXZ:9.9
;TARGET_MACHINE.NAME:Unknown
;Generated with Cura_SteamEngine 5.7.1
M104 S200
M105
M109 S200
M82 ;absolute extrusion mode
G28 ;Home
G1 Z15.0 F6000 ;Move the platform down 15mm
;Prime the extruder
G92 E0
G1 F200 E3
G92 E0
G92 E0
G92 E0
;LAYER_COUNT:25
;LAYER:0
M107
;MESH:cube1.stl
G0 F3600 X19.674 Y18.354 Z0.3
;TYPE:WALL-INNER
G1 F1800 X19.674 Y9.854 E0.19986
G1 X11.174 Y9.854 E0.39972
G1 X11.174 Y18.354 E0.59959
G1 X19.674 Y18.354 E0.79945
G0 F3600 X20.174 Y18.854
;TYPE:WALL-OUTER
G1 F1800 X20.174 Y9.354 E1.02282
G1 X10.674 Y9.354 E1.2462
G1 X10.674 Y18.854 E1.46957
G1 X20.174 Y18.854 E1.69295
G0 F3600 X20.174 Y18.604
G0 X19.355 Y18.036
G0 X19.198 Y17.878
;TYPE:SKIN
G1 F1800 X11.646 Y17.878 E1.87052
G1 X11.646 Y10.326 E2.04809
G1 X19.198 Y10.326 E2.22567
G1 X19.198 Y17.878 E2.40324
G0 F3600 X18.948 Y11.17
G1 F1800 X18.354 Y10.576 E2.42299
G0 F3600 X17.647 Y10.576
G1 F1800 X18.948 Y11.877 E2.46625
G0 F3600 X18.948 Y12.584
G1 F1800 X16.94 Y10.576 E2.53302
G0 F3600 X16.233 Y10.576
G1 F1800 X18.948 Y13.291 E2.6233
G0 F3600 X18.948 Y13.999
G1 F1800 X15.526 Y10.576 E2.73711
G0 F3600 X14.819 Y10.576
G1 F1800 X18.948 Y14.706 E2.87443
G0 F3600 X18.948 Y15.413
G1 F1800 X14.112 Y10.576 E3.03525
G0 F3600 X13.405 Y10.576
G1 F1800 X18.948 Y16.12 E3.21959
G0 F3600 X18.948 Y16.827
G1 F1800 X12.698 Y10.576 E3.42744
G0 F3600 X11.99 Y10.576
G1 F1800 X18.948 Y17.534 E3.65881
G0 F3600 X18.335 Y17.628
G1 F1800 X11.896 Y11.189 E3.87292
G0 F3600 X11.896 Y11.896
G1 F1800 X17.628 Y17.628 E4.06353
G0 F3600 X16.921 Y17.628
G1 F1800 X11.896 Y12.603 E4.23062
G0 F3600 X11.896 Y13.31
G1 F1800 X16.214 Y17.628 E4.37421
G0 F3600 X15.507 Y17.628
G1 F1800 X11.896 Y14.017 E4.49428
G0 F3600 X11.896 Y14.724
G1 F1800 X14.8 Y17.628 E4.59085
G0 F3600 X14.093 Y17.628
G1 F1800 X11.896 Y15.431 E4.6639
G0 F3600 X11.896 Y16.138
G1 F1800 X13.386 Y17.628 E4.71345
G0 F3600 X12.678 Y17.628
G1 F1800 X11.896 Y16.845 E4.73947
G0 F3600 X11.896 Y17.553
G1 F1800 X11.971 Y17.628 E4.74196
G0 F3600 X11.971 Y17.606
;MESH:NONMESH
G0 F600 X11.971 Y17.606 Z0.7
G0 F3600 X19.355 Y18.036
G0 X19.674 Y18.354
;TIME_ELAPSED:8.068215
;LAYER:1
;TYPE:WALL-INNER
;MESH:cube1.stl
G1 F2700 X19.674 Y9.854 E5.00845
G1 X11.174 Y9.854 E5.27493
G1 X11.174 Y18.354 E5.54141
G1 X19.674 Y18.354 E5.8079
G0 F5400 X20.174 Y18.854
;TYPE:WALL-OUTER
G1 F1800 X20.174 Y9.354 E6.10573
G1 X10.674 Y9.354 E6.40356
G1 X10.674 Y18.854 E6.7014
G1 X20.174 Y18.854 E6.99923
G0 F5400 X20.174 Y18.604
G0 X19.355 Y18.036
G0 X19.198 Y17.878
;TYPE:SKIN
G1 F1800 X11.646 Y17.878 E7.23599
G1 X11.646 Y10.326 E7.47276
G1 X19.198 Y10.326 E7.70952
G1 X19.198 Y17.878 E7.94628
G0 F5400 X18.948 Y17.115
G1 F1800 X18.434 Y17.628 E7.96905
G0 F5400 X17.727 Y17.628
G1 F1800 X18.948 Y16.408 E8.02316
G0 F5400 X18.948 Y15.701
G1 F1800 X17.02 Y17.628 E8.10862
G0 F5400 X16.313 Y17.628
G1 F1800 X18.948 Y14.993 E8.22545
G0 F5400 X18.948 Y14.286
G1 F1800 X15.606 Y17.628 E8.37362
G0 F5400 X14.899 Y17.628
G1 F1800 X18.948 Y13.579 E8.55314
G0 F5400 X18.948 Y12.872
G1 F1800 X14.192 Y17.628 E8.76401
G0 F5400 X13.485 Y17.628
G1 F1800 X18.948 Y12.165 E9.00622
G0 F5400 X18.948 Y11.458
G1 F1800 X12.777 Y17.628 E9.2798
G0 F5400 X12.07 Y17.628
G1 F1800 X18.948 Y10.751 E9.58473
G0 F5400 X18.415 Y10.576
G1 F1800 X11.896 Y17.095 E9.87376
G0 F5400 X11.896 Y16.388
G1 F1800 X17.708 Y10.576 E10.13145
G0 F5400 X17.001 Y10.576
G1 F1800 X11.896 Y15.681 E10.35779
G0 F5400 X11.896 Y14.974
G1 F1800 X16.294 Y10.576 E10.55278
G0 F5400 X15.587 Y10.576
G1 F1800 X11.896 Y14.267 E10.71643
G0 F5400 X11.896 Y13.559
G1 F1800 X14.88 Y10.576 E10.84871
G0 F5400 X14.173 Y10.576
G1 F1800 X11.896 Y12.852 E10.94964
G0 F5400 X11.896 Y12.145
G1 F1800 X13.465 Y10.576 E11.0192
G0 F5400 X12.758 Y10.576
G1 F1800 X11.896 Y11.438 E11.05742
G0 F5400 X11.896 Y10.731
G1 F1800 X12.051 Y10.576 E11.06429
G0 F5400 X12.051 Y10.606
;MESH:NONMESH
G0 F600 X12.051 Y10.606 Z1.1
G0 F5400 X19.355 Y18.036
G0 X19.674 Y18.354
;TIME_ELAPSED:15.224472
;LAYER:2
;TYPE:WALL-INNER
;MESH:cube1.stl
G1 F3600 X19.674 Y9.854 E11.33078
G1 X11.174 Y9.854 E11.59726
G1 X11.174 Y18.354 E11.86374
G1 X19.674 Y18.354 E12.13023
G0 F7200 X20.174 Y18.854
;TYPE:WALL-OUTER
G1 F1800 X20.174 Y9.354 E12.42806
G1 X10.674 Y9.354 E12.72589
G1 X10.674 Y18.854 E13.02373
G1 X20.174 Y18.854 E13.32156
G0 F7200 X20.174 Y18.604
G0 X19.355 Y18.036
G0 X19.198 Y17.878
;TYPE:SKIN
G1 F1800 X11.646 Y17.878 E13.55832
G1 X11.646 Y10.326 E13.79509
G1 X19.198 Y10.326 E14.03185
G1 X19.198 Y17.878 E14.26861
G0 F7200 X18.948 Y11.17
G1 F1800 X18.354 Y10.576 E14.29495
G0 F7200 X17.647 Y10.576
G1 F1800 X18.948 Y11.877 E14.35263
G0 F7200 X18.948 Y12.584
G1 F1800 X16.94 Y10.576 E14.44166
G0 F7200 X16.233 Y10.576
G1 F1800 X18.948 Y13.291 E14.56203
G0 F7200 X18.948 Y13.999
G1 F1800 X15.526 Y10.576 E14.71378
G0 F7200 X14.819 Y10.576
G1 F1800 X18.948 Y14.706 E14.89686
G0 F7200 X18.948 Y15.413
G1 F1800 X14.112 Y10.576 E15.1113
G0 F7200 X13.405 Y10.576
G1 F1800 X18.948 Y16.12 E15.35708
G0 F7200 X18.948 Y16.827
G1 F1800 X12.698 Y10.576 E15.63421
G0 F7200 X11.99 Y10.576
G1 F1800 X18.948 Y17.534 E15.94271
G0 F7200 X18.335 Y17.628
G1 F1800 X11.896 Y11.189 E16.22819
G0 F7200 X11.896 Y11.896
G1 F1800 X17.628 Y17.628 E16.48233
G0 F7200 X16.921 Y17.628
G1 F1800 X11.896 Y12.603 E16.70512
G0 F7200 X11.896 Y13.31
G1 F1800 X16.214 Y17.628 E16.89657
G0 F7200 X15.507 Y17.628
G1 F1800 X11.896 Y14.017 E17.05667
G0 F7200 X11.896 Y14.724
G1 F1800 X14.8 Y17.628 E17.18542
G0 F7200 X14.093 Y17.628
G1 F1800 X11.896 Y15.431 E17.28283
G0 F7200 X11.896 Y16.138
G1 F1800 X13.386 Y17.628 E17.3489
G0 F7200 X12.678 Y17.628
G1 F1800 X11.896 Y16.845 E17.38359
G0 F7200 X11.896 Y17.553
G1 F1800 X11.971 Y17.628 E17.38691
G0 F7200 X11.971 Y17.606
;MESH:NONMESH
G0 F600 X11.971 Y17.606 Z1.5
G0 F7200 X19.355 Y18.036
G0 X19.674 Y18.354
;TIME_ELAPSED:22.231485
;LAYER:3
;TYPE:WALL-INNER
;MESH:cube1.stl
G1 F3600 X19.674 Y9.854 E17.6534
G1 X11.174 Y9.854 E17.91988
G1 X11.174 Y18.354 E18.18636
G1 X19.674 Y18.354 E18.45285
G0 F7200 X20.174 Y18.854
;TYPE:WALL-OUTER
G1 F1800 X20.174 Y9.354 E18.75068
G1 X10.674 Y9.354 E19.04851
G1 X10.674 Y18.854 E19.34635
G1 X20.174 Y18.854 E19.64418
G0 F7200 X20.174 Y18.604
G0 X19.355 Y18.036
G0 X19.198 Y17.878
;TYPE:SKIN
G1 F1800 X11.646 Y17.878 E19.88094
G1 X11.646 Y10.326 E20.11771
G1 X19.198 Y10.326 E20.35447
G1 X19.198 Y17.878 E20.59123
G0 F7200 X18.948 Y17.115
G1 F1800 X18.434 Y17.628 E20.614
G0 F7200 X17.727 Y17.628
G1 F1800 X18.948 Y16.408 E20.66811
G0 F7200 X18.948 Y15.701
G1 F1800 X17.02 Y17.628 E20.75357
G0 F7200 X16.313 Y17.628
G1 F1800 X18.948 Y14.993 E20.8704
G0 F7200 X18.948 Y14.286
G1 F1800 X15.606 Y17.628 E21.01857
G0 F7200 X14.899 Y17.628
G1 F1800 X18.948 Y13.579 E21.19809
G0 F7200 X18.948 Y12.872
G1 F1800 X14.192 Y17.628 E21.40896
G0 F7200 X13.485 Y17.628
G1 F1800 X18.948 Y12.165 E21.65117
G0 F7200 X18.948 Y11.458
G1 F1800 X12.777 Y17.628 E21.92475
G0 F7200 X12.07 Y17.628
G1 F1800 X18.948 Y10.751 E22.22968
G0 F7200 X18.415 Y10.576
G1 F1800 X11.896 Y17.095 E22.51871
G0 F7200 X11.896 Y16.388
G1 F1800 X17.708 Y10.576 E22.7764
G0 F7200 X17.001 Y10.576
G1 F1800 X11.896 Y15.681 E23.00274
G0 F7200 X11.896 Y14.974
G1 F1800 X16.294 Y10.576 E23.19773
G0 F7200 X15.587 Y10.576
G1 F1800 X11.896 Y14.267 E23.36138
G0 F7200 X11.896 Y13.559
G1 F1800 X14.88 Y10.576 E23.49366
G0 F7200 X14.173 Y10.576
G1 F1800 X11.896 Y12.852 E23.59459
G0 F7200 X11.896 Y12.145
G1 F1800 X13.465 Y10.576 E23.66415
G0 F7200 X12.758 Y10.576
G1 F1800 X11.896 Y11.438 E23.70237
G0 F7200 X11.896 Y10.731
G1 F1800 X12.051 Y10.576 E23.70924
G0 F7200 X12.051 Y10.606
;MESH:NONMESH
G0 F600 X12.051 Y10.606 Z1.9
G0 F7200 X19.355 Y18.036
G0 X19.674 Y18.354
;TIME_ELAPSED:29.199748
;LAYER:4
;TYPE:WALL-INNER
;MESH:cube1.stl
G1 F3600 X19.674 Y9.854 E23.97573
G1 X11.174 Y9.854 E24.24221
G1 X11.174 Y18.354 E24.50869
G1 X19.674 Y18.354 E24.77518
G0 F7200 X20.174 Y18.854
;TYPE:WALL-OUTER
G1 F1800 X20.174 Y9.354 E25.07301
G1 X10.674 Y9.354 E25.37084
G1 X10.674 Y18.854 E25.66868
G1 X20.174 Y18.854 E25.96651
G0 F7200 X20.174 Y18.604
G0 X19.355 Y18.036
G0 X19.198 Y17.878
;TYPE:SKIN
G1 F1800 X11.646 Y17.878 E26.20327
G1 X11.646 Y10.326 E26.44004
G1 X19.198 Y10.326 E26.6768
G1 X19.198 Y17.878 E26.91356
G0 F7200 X18.948 Y11.17
G1 F1800 X18.354 Y10.576 E26.9399
G0 F7200 X17.647 Y10.576
G1 F1800 X18.948 Y11.877 E26.99758
G0 F7200 X18.948 Y12.584
G1 F1800 X16.94 Y10.576 E27.08661
G0 F7200 X16.233 Y10.576
G1 F1800 X18.948 Y13.291 E27.20698
G0 F7200 X18.948 Y13.999
G1 F1800 X15.526 Y10.576 E27.35873
G0 F7200 X14.819 Y10.576
G1 F1800 X18.948 Y14.706 E27.54181
G0 F7200 X18.948 Y15.413
G1 F1800 X14.112 Y10.576 E27.75625
G0 F7200 X13.405 Y10.576
G1 F1800 X18.948 Y16.12 E28.00203
G0 F7200 X18.948 Y16.827
G1 F1800 X12.698 Y10.576 E28.27916
G0 F7200 X11.99 Y10.576
G1 F1800 X18.948 Y17.534 E28.58766
G0 F7200 X18.335 Y17.628
G1 F1800 X11.896 Y11.189 E28.87314
G0 F7200 X11.896 Y11.896
G1 F1800 X17.628 Y17.628 E29.12728
G0 F7200 X16.921 Y17.628
G1 F1800 X11.896 Y12.603 E29.35007
G0 F7200 X11.896 Y13.31
G1 F1800 X16.214 Y17.628 E29.54152
G0 F7200 X15.507 Y17.628
G1 F1800 X11.896 Y14.017 E29.70162
G0 F7200 X11.896 Y14.724
G1 F1800 X14.8 Y17.628 E29.83037
G0 F7200 X14.093 Y17.628
G1 F1800 X11.896 Y15.431 E29.92778
G0 F7200 X11.896 Y16.138
G1 F1800 X13.386 Y17.628 E29.99384
G0 F7200 X12.678 Y17.628
G1 F1800 X11.896 Y16.845 E30.02854
G0 F7200 X11.896 Y17.553
G1 F1800 X11.971 Y17.628 E30.03186
G0 F7200 X11.971 Y17.606
;MESH:NONMESH
G0 F600 X11.971 Y17.606 Z2.3
G0 F7200 X19.355 Y18.036
G0 X19.674 Y18.354
;TIME_ELAPSED:36.206761
;LAYER:5
;TYPE:WALL-INNER
;MESH:cube1.stl
G1 F3600 X19.674 Y9.854 E30.29835
G1 X11.174 Y9.854 E30.56483
G1 X11.174 Y18.354 E30.83131
G1 X19.674 Y18.354 E31.0978
G0 F7200 X20.174 Y18.854
;TYPE:WALL-OUTER
G1 F1800 X20.174 Y9.354 E31.39563
G1 X10.674 Y9.354 E31.69346
G1 X10.674 Y18.854 E31.9913
G1 X20.174 Y18.854 E32.28913
G0 F7200 X20.174 Y18.604
G0 X19.355 Y18.036
G0 X19.198 Y17.878
;TYPE:SKIN
G1 F1800 X11.646 Y17.878 E32.52589
G1 X11.646 Y10.326 E32.76265
G1 X19.198 Y10.326 E32.99942
G1 X19.198 Y17.878 E33.23618
G0 F7200 X18.948 Y17.115
G1 F1800 X18.434 Y17.628 E33.25895
G0 F7200 X17.727 Y17.628
G1 F1800 X18.948 Y16.408 E33.31306
G0 F7200 X18.948 Y15.701
G1 F1800 X17.02 Y17.628 E33.39852
G0 F7200 X16.313 Y17.628
G1 F1800 X18.948 Y14.993 E33.51535
G0 F7200 X18.948 Y14.286
G1 F1800 X15.606 Y17.628 E33.66352
G0 F7200 X14.899 Y17.628
G1 F1800 X18.948 Y13.579 E33.84304
G0 F7200 X18.948 Y12.872
G1 F1800 X14.192 Y17.628 E34.05391
G0 F7200 X13.485 Y17.628
G1 F1800 X18.948 Y12.165 E34.29612
G0 F7200 X18.948 Y11.458
G1 F1800 X12.777 Y17.628 E34.5697
G0 F7200 X12.07 Y17.628
G1 F1800 X18.948 Y10.751 E34.87463
G0 F7200 X18.415 Y10.576
G1 F1800 X11.896 Y17.095 E35.16366
G0 F7200 X11.896 Y16.388
G1 F1800 X17.708 Y10.576 E35.42135
G0 F7200 X17.001 Y10.576
G1 F1800 X11.896 Y15.681 E35.64769
G0 F7200 X11.896 Y14.974
G1 F1800 X16.294 Y10.576 E35.84268
G0 F7200 X15.587 Y10.576
G1 F1800 X11.896 Y14.267 E36.00633
G0 F7200 X11.896 Y13.559
G1 F1800 X14.88 Y10.576 E36.13861
G0 F7200 X14.173 Y10.576
G1 F1800 X11.896 Y12.852 E36.23954
G0 F7200 X11.896 Y12.145
G1 F1800 X13.465 Y10.576 E36.3091
G0 F7200 X12.758 Y10.576
G1 F1800 X11.896 Y11.438 E36.34732
G0 F7200 X11.896 Y10.731
G1 F1800 X12.051 Y10.576 E36.35419
G0 F7200 X12.051 Y10.606
;MESH:NONMESH
G0 F600 X12.051 Y10.606 Z2.7
G0 F7200 X19.355 Y18.036
G0 X19.674 Y18.354
;TIME_ELAPSED:43.175024
;LAYER:6
;TYPE:WALL-INNER
;MESH:cube1.stl
G1 F3600 X19.674 Y9.854 E36.62068
G1 X11.174 Y9.854 E36.88716
G1 X11.174 Y18.354 E37.15364
G1 X19.674 Y18.354 E37.42013
G0 F7200 X20.174 Y18.854
;TYPE:WALL-OUTER
G1 F1800 X20.174 Y9.354 E37.71796
G1 X10.674 Y9.354 E38.01579
G1 X10.674 Y18.854 E38.31363
G1 X20.174 Y18.854 E38.61146
G0 F7200 X20.174 Y18.604
G0 X19.355 Y18.036
G0 X19.198 Y17.878
;TYPE:SKIN
G1 F1800 X11.646 Y17.878 E38.84822
G1 X11.646 Y10.326 E39.08499
G1 X19.198 Y10.326 E39.32175
G1 X19.198 Y17.878 E39.55851
G0 F7200 X18.948 Y11.17
G1 F1800 X18.354 Y10.576 E39.58485
G0 F7200 X17.647 Y10.576
G1 F1800 X18.948 Y11.877 E39.64253
G0 F7200 X18.948 Y12.584
G1 F1800 X16.94 Y10.576 E39.73156
G0 F7200 X16.233 Y10.576
G1 F1800 X18.948 Y13.291 E39.85193
G0 F7200 X18.948 Y13.999
G1 F1800 X15.526 Y10.576 E40.00367
G0 F7200 X14.819 Y10.576
G1 F1800 X18.948 Y14.706 E40.18676
G0 F7200 X18.948 Y15.413
G1 F1800 X14.112 Y10.576 E40.4012
G0 F7200 X13.405 Y10.576
G1 F1800 X18.948 Y16.12 E40.64698
G0 F7200 X18.948 Y16.827
G1 F1800 X12.698 Y10.576 E40.92411
G0 F7200 X11.99 Y10.576
G1 F1800 X18.948 Y17.534 E41.23261
G0 F7200 X18.335 Y17.628
G1 F1800 X11.896 Y11.189 E41.51809
G0 F7200 X11.896 Y11.896
G1 F1800 X17.628 Y17.628 E41.77223
G0 F7200 X16.921 Y17.628
G1 F1800 X11.896 Y12.603 E41.99502
G0 F7200 X11.896 Y13.31
G1 F1800 X16.214 Y17.628 E42.18647
G0 F7200 X15.507 Y17.628
G1 F1800 X11.896 Y14.017 E42.34657
G0 F7200 X11.896 Y14.724
G1 F1800 X14.8 Y17.628 E42.47532
G0 F7200 X14.093 Y17.628
G1 F1800 X11.896 Y15.431 E42.57273
G0 F7200 X11.896 Y16.138
G1 F1800 X13.386 Y17.628 E42.63879
G0 F7200 X12.678 Y17.628
G1 F1800 X11.896 Y16.845 E42.67349
G0 F7200 X11.896 Y17.553
G1 F1800 X11.971 Y17.628 E42.67681
G0 F7200 X11.971 Y17.606
;MESH:NONMESH
G0 F600 X11.971 Y17.606 Z3.1
G0 F7200 X19.355 Y18.036
G0 X19.674 Y18.354
;TIME_ELAPSED:50.182036
;LAYER:7
;TYPE:WALL-INNER
;MESH:cube1.stl
G1 F3600 X19.674 Y9.854 E42.9433
G1 X11.174 Y9.854 E43.20978
G1 X11.174 Y18.354 E43.47626
G1 X19.674 Y18.354 E43.74274
G0 F7200 X20.174 Y18.854
;TYPE:WALL-OUTER
G1 F1800 X20.174 Y9.354 E44.04058
G1 X10.674 Y9.354 E44.33841
G1 X10.674 Y18.854 E44.63625
G1 X20.174 Y18.854 E44.93408
G0 F7200 X20.174 Y18.604
G0 X19.355 Y18.036
G0 X19.198 Y17.878
;TYPE:SKIN
G1 F1800 X11.646 Y17.878 E45.17084
G1 X11.646 Y10.326 E45.4076
G1 X19.198 Y10.326 E45.64437
G1 X19.198 Y17.878 E45.88113
G0 F7200 X18.948 Y17.115
G1 F1800 X18.434 Y17.628 E45.9039
G0 F7200 X17.727 Y17.628
G1 F1800 X18.948 Y16.408 E45.95801
G0 F7200 X18.948 Y15.701
G1 F1800 X17.02 Y17.628 E46.04347
G0 F7200 X16.313 Y17.628
G1 F1800 X18.948 Y14.993 E46.1603
G0 F7200 X18.948 Y14.286
G1 F1800 X15.606 Y17.628 E46.30847
G0 F7200 X14.899 Y17.628
G1 F1800 X18.948 Y13.579 E46.48799
G0 F7200 X18.948 Y12.872
G1 F1800 X14.192 Y17.628 E46.69886
G0 F7200 X13.485 Y17.628
G1 F1800 X18.948 Y12.165 E46.94107
G0 F7200 X18.948 Y11.458
G1 F1800 X12.777 Y17.628 E47.21465
G0 F7200 X12.07 Y17.628
G1 F1800 X18.948 Y10.751 E47.51958
G0 F7200 X18.415 Y10.576
G1 F1800 X11.896 Y17.095 E47.80861
G0 F7200 X11.896 Y16.388
G1 F1800 X17.708 Y10.576 E48.0663
G0 F7200 X17.001 Y10.576
G1 F1800 X11.896 Y15.681 E48.29264
G0 F7200 X11.896 Y14.974
G1 F1800 X16.294 Y10.576 E48.48763
G0 F7200 X15.587 Y10.576
G1 F1800 X11.896 Y14.267 E48.65128
G0 F7200 X11.896 Y13.559
G1 F1800 X14.88 Y10.576 E48.78356
G0 F7200 X14.173 Y10.576
G1 F1800 X11.896 Y12.852 E48.88449
G0 F7200 X11.896 Y12.145
G1 F1800 X13.465 Y10.576 E48.95405
G0 F7200 X12.758 Y10.576
G1 F1800 X11.896 Y11.438 E48.99227
G0 F7200 X11.896 Y10.731
G1 F1800 X12.051 Y10.576 E48.99914
G0 F7200 X12.051 Y10.606
;MESH:NONMESH
G0 F600 X12.051 Y10.606 Z3.5
G0 F7200 X19.355 Y18.036
G0 X19.674 Y18.354
;TIME_ELAPSED:57.150299
;LAYER:8
;TYPE:WALL-INNER
;MESH:cube1.stl
G1 F3600 X19.674 Y9.854 E49.26563
G1 X11.174 Y9.854 E49.53211
G1 X11.174 Y18.354 E49.79859
G1 X19.674 Y18.354 E50.06508
G0 F7200 X20.174 Y18.854
;TYPE:WALL-OUTER
G1 F1800 X20.174 Y9.354 E50.36291
G1 X10.674 Y9.354 E50.66074
G1 X10.674 Y18.854 E50.95858
G1 X20.174 Y18.854 E51.25641
G0 F7200 X20.174 Y18.604
G0 X19.355 Y18.036
G0 X19.198 Y17.878
;TYPE:SKIN
G1 F1800 X11.646 Y17.878 E51.49317
G1 X11.646 Y10.326 E51.72994
G1 X19.198 Y10.326 E51.9667
G1 X19.198 Y17.878 E52.20346
G0 F7200 X18.948 Y11.17
G1 F1800 X18.354 Y10.576 E52.2298
G0 F7200 X17.647 Y10.576
G1 F1800 X18.948 Y11.877 E52.28748
G0 F7200 X18.948 Y12.584
G1 F1800 X16.94 Y10.576 E52.37651
G0 F7200 X16.233 Y10.576
G1 F1800 X18.948 Y13.291 E52.49688
G0 F7200 X18.948 Y13.999
G1 F1800 X15.526 Y10.576 E52.64862
G0 F7200 X14.819 Y10.576
