;FLAVOR:Marlin
;TIME:178
;Filament used: 0.155383m
;Layer height: 0.4
;MINX:9.398
;MINY:9.726
;MINZ:0.3
;MAXX:18.898
;MAXY:19.226
;MAXZ:9.9
;TARGET_MACHINE.NAME:Unknown
;Generated with Cura_SteamEngine 5.7.1
M104 S200
M105
M109 S200
M82 ;absolute extrusion mode
G28 ;Home
G1 Z15.0 F6000 ;Move the platform down 15mm
;Prime the extruder
G92 E0
G1 F200 E3
G92 E0
G92 E0
G92 E0
;LAYER_COUNT:25
;LAYER:0
M107
;MESH:cube1.stl
G0 F3600 X18.398 Y18.726 Z0.3
;TYPE:WALL-INNER
G1 F1200 X18.398 Y10.226 E0.19986
G1 X9.898 Y10.226 E0.39972
G1 X9.898 Y18.726 E0.59959
G1 X18.398 Y18.726 E0.79945
G0 F3600 X18.898 Y19.226
;TYPE:WALL-OUTER
G1 F1200 X18.898 Y9.726 E1.02282
G1 X9.398 Y9.726 E1.2462
G1 X9.398 Y19.226 E1.46957
G1 X18.898 Y19.226 E1.69295
G0 F3600 X18.898 Y18.976
G0 X18.078 Y18.406
G0 X17.922 Y18.25
;TYPE:SKIN
G1 F1200 X10.37 Y18.25 E1.87052
G1 X10.37 Y10.698 E2.04809
G1 X17.922 Y10.698 E2.22567
G1 X17.922 Y18.25 E2.40324
G0 F3600 X17.672 Y11.308
G1 F1200 X17.312 Y10.948 E2.41521
G0 F3600 X16.605 Y10.948
G1 F1200 X17.672 Y12.015 E2.45069
G0 F3600 X17.672 Y12.722
G1 F1200 X15.898 Y10.948 E2.50968
G0 F3600 X15.191 Y10.948
G1 F1200 X17.672 Y13.429 E2.59218
G0 F3600 X17.672 Y14.136
G1 F1200 X14.484 Y10.948 E2.69819
G0 F3600 X13.777 Y10.948
G1 F1200 X17.672 Y14.844 E2.82772
G0 F3600 X17.672 Y15.551
G1 F1200 X13.069 Y10.948 E2.98079
G0 F3600 X12.362 Y10.948
G1 F1200 X17.672 Y16.258 E3.15736
G0 F3600 X17.672 Y16.965
G1 F1200 X11.655 Y10.948 E3.35744
G0 F3600 X10.948 Y10.948
G1 F1200 X17.672 Y17.672 E3.58103
G0 F3600 X17.292 Y17.999
G1 F1200 X10.62 Y11.327 E3.80289
G0 F3600 X10.62 Y12.034
G1 F1200 X16.585 Y17.999 E4.00124
G0 F3600 X15.878 Y17.999
G1 F1200 X10.62 Y12.741 E4.17609
G0 F3600 X10.62 Y13.448
G1 F1200 X15.171 Y17.999 E4.32742
G0 F3600 X14.464 Y17.999
G1 F1200 X10.62 Y14.156 E4.45523
G0 F3600 X10.62 Y14.863
G1 F1200 X13.757 Y17.999 E4.55952
G0 F3600 X13.05 Y17.999
G1 F1200 X10.62 Y15.57 E4.64031
G0 F3600 X10.62 Y16.277
G1 F1200 X12.343 Y17.999 E4.69759
G0 F3600 X11.635 Y17.999
G1 F1200 X10.62 Y16.984 E4.73134
G0 F3600 X10.62 Y17.691
G1 F1200 X10.928 Y17.999 E4.74158
G0 F3600 X10.928 Y17.976
;MESH:NONMESH
G0 F600 X10.928 Y17.976 Z0.7
G0 F3600 X18.078 Y18.406
G0 X18.398 Y18.726
;TIME_ELAPSED:11.400223
;LAYER:1
;TYPE:WALL-INNER
;MESH:cube1.stl
G1 F1800 X18.398 Y10.226 E5.00806
G1 X9.898 Y10.226 E5.27455
G1 X9.898 Y18.726 E5.54103
G1 X18.398 Y18.726 E5.80751
G0 F5400 X18.898 Y19.226
;TYPE:WALL-OUTER
G1 F1200 X18.898 Y9.726 E6.10535
G1 X9.398 Y9.726 E6.40318
G1 X9.398 Y19.226 E6.70101
G1 X18.898 Y19.226 E6.99885
G0 F5400 X18.898 Y18.976
G0 X18.078 Y18.406
G0 X17.922 Y18.25
;TYPE:SKIN
G1 F1200 X10.37 Y18.25 E7.23561
G1 X10.37 Y10.698 E7.47237
G1 X17.922 Y10.698 E7.70914
G1 X17.922 Y18.25 E7.9459
G0 F5400 X17.355 Y18
G1 F1200 X17.672 Y17.683 E7.95995
G0 F5400 X17.672 Y16.976
G1 F1200 X16.648 Y18 E8.00535
G0 F5400 X15.941 Y18
G1 F1200 X17.672 Y16.269 E8.0821
G0 F5400 X17.672 Y15.562
G1 F1200 X15.234 Y18 E8.19019
G0 F5400 X14.527 Y18
G1 F1200 X17.672 Y14.855 E8.32963
G0 F5400 X17.672 Y14.148
G1 F1200 X13.82 Y18 E8.50042
G0 F5400 X13.113 Y18
G1 F1200 X17.672 Y13.441 E8.70255
G0 F5400 X17.672 Y12.734
G1 F1200 X12.405 Y18 E8.93605
G0 F5400 X11.698 Y18
G1 F1200 X17.672 Y12.026 E9.20092
G0 F5400 X17.672 Y11.319
G1 F1200 X10.991 Y18 E9.49713
G0 F5400 X10.62 Y17.664
G1 F1200 X17.337 Y10.947 E9.79495
G0 F5400 X16.63 Y10.947
G1 F1200 X10.62 Y16.957 E10.06141
G0 F5400 X10.62 Y16.25
G1 F1200 X15.923 Y10.947 E10.29653
G0 F5400 X15.216 Y10.947
G1 F1200 X10.62 Y15.543 E10.5003
G0 F5400 X10.62 Y14.836
G1 F1200 X14.508 Y10.947 E10.67271
G0 F5400 X13.801 Y10.947
G1 F1200 X10.62 Y14.129 E10.81376
G0 F5400 X10.62 Y13.422
G1 F1200 X13.094 Y10.947 E10.92348
G0 F5400 X12.387 Y10.947
G1 F1200 X10.62 Y12.714 E11.00182
G0 F5400 X10.62 Y12.007
G1 F1200 X11.68 Y10.947 E11.04882
G0 F5400 X10.973 Y10.947
G1 F1200 X10.62 Y11.3 E11.06447
G0 F5400 X10.648 Y11.3
;MESH:NONMESH
G0 F600 X10.648 Y11.3 Z1.1
G0 F5400 X17.898 Y18.226
;TIME_ELAPSED:21.681625
;LAYER:2
;TYPE:FILL
;MESH:cube1.stl
G1 F2400 X10.398 Y18.226 E11.2996
G1 X10.398 Y10.726 E11.53473
G1 X17.898 Y10.726 E11.76986
G1 X17.898 Y18.226 E12.00499
G0 F7200 X17.398 Y17.726
G1 F2400 X10.898 Y17.726 E12.20878
G1 X10.898 Y11.226 E12.41256
G1 X17.398 Y11.226 E12.61634
G1 X17.398 Y17.726 E12.82012
G0 F7200 X16.898 Y17.226
G1 F2400 X11.398 Y17.226 E12.99255
G1 X11.398 Y11.726 E13.16498
G1 X16.898 Y11.726 E13.33741
G1 X16.898 Y17.226 E13.50984
G0 F7200 X16.398 Y16.726
G1 F2400 X11.898 Y16.726 E13.65092
G1 X11.898 Y12.226 E13.792
G1 X16.398 Y12.226 E13.93308
G1 X16.398 Y16.726 E14.07416
G0 F7200 X15.898 Y16.226
G1 F2400 X12.398 Y16.226 E14.18388
G1 X12.398 Y12.726 E14.29361
G1 X15.898 Y12.726 E14.40334
G1 X15.898 Y16.226 E14.51307
G0 F7200 X15.398 Y15.726
G1 F2400 X12.898 Y15.726 E14.59145
G1 X12.898 Y13.226 E14.66982
G1 X15.398 Y13.226 E14.7482
G1 X15.398 Y15.726 E14.82658
G0 F7200 X14.898 Y15.226
G1 F2400 X13.398 Y15.226 E14.8736
G1 X13.398 Y13.726 E14.92063
G1 X14.898 Y13.726 E14.96766
G1 X14.898 Y15.226 E15.01468
G0 F7200 X14.398 Y14.726
G1 F2400 X13.898 Y14.726 E15.03036
G1 X13.898 Y14.226 E15.04603
G1 X14.398 Y14.226 E15.06171
G1 X14.398 Y14.726 E15.07739
G0 F7200 X18.078 Y18.406
G0 X18.398 Y18.726
;TYPE:WALL-INNER
G1 F2400 X18.398 Y10.226 E15.34387
G1 X9.898 Y10.226 E15.61035
G1 X9.898 Y18.726 E15.87683
G1 X18.398 Y18.726 E16.14332
G0 F7200 X18.898 Y19.226
;TYPE:WALL-OUTER
G1 F1200 X18.898 Y9.726 E16.44115
G1 X9.398 Y9.726 E16.73898
G1 X9.398 Y19.226 E17.03682
G1 X18.898 Y19.226 E17.33465
G0 F7200 X18.898 Y18.976
G0 X17.648 Y18.123
;MESH:NONMESH
G0 F600 X17.648 Y18.123 Z1.5
G0 F7200 X17.898 Y18.226
;TIME_ELAPSED:28.180177
;LAYER:3
;TYPE:FILL
;MESH:cube1.stl
G1 F2400 X10.398 Y18.226 E17.56978
G1 X10.398 Y10.726 E17.80492
G1 X17.898 Y10.726 E18.04005
G1 X17.898 Y18.226 E18.27518
G0 F7200 X17.398 Y17.726
G1 F2400 X10.898 Y17.726 E18.47896
G1 X10.898 Y11.226 E18.68274
G1 X17.398 Y11.226 E18.88652
G1 X17.398 Y17.726 E19.0903
G0 F7200 X16.898 Y17.226
G1 F2400 X11.398 Y17.226 E19.26273
G1 X11.398 Y11.726 E19.43516
G1 X16.898 Y11.726 E19.60759
G1 X16.898 Y17.226 E19.78002
G0 F7200 X16.398 Y16.726
G1 F2400 X11.898 Y16.726 E19.9211
G1 X11.898 Y12.226 E20.06218
G1 X16.398 Y12.226 E20.20326
G1 X16.398 Y16.726 E20.34434
G0 F7200 X15.898 Y16.226
G1 F2400 X12.398 Y16.226 E20.45407
G1 X12.398 Y12.726 E20.5638
G1 X15.898 Y12.726 E20.67353
G1 X15.898 Y16.226 E20.78325
G0 F7200 X15.398 Y15.726
G1 F2400 X12.898 Y15.726 E20.86163
G1 X12.898 Y13.226 E20.94001
G1 X15.398 Y13.226 E21.01839
G1 X15.398 Y15.726 E21.09676
G0 F7200 X14.898 Y15.226
G1 F2400 X13.398 Y15.226 E21.14379
G1 X13.398 Y13.726 E21.19082
G1 X14.898 Y13.726 E21.23784
G1 X14.898 Y15.226 E21.28487
G0 F7200 X14.398 Y14.726
G1 F2400 X13.898 Y14.726 E21.30054
G1 X13.898 Y14.226 E21.31622
G1 X14.398 Y14.226 E21.3319
G1 X14.398 Y14.726 E21.34757
G0 F7200 X18.078 Y18.406
G0 X18.398 Y18.726
;TYPE:WALL-INNER
G1 F2400 X18.398 Y10.226 E21.61405
G1 X9.898 Y10.226 E21.88054
G1 X9.898 Y18.726 E22.14702
G1 X18.398 Y18.726 E22.4135
G0 F7200 X18.898 Y19.226
;TYPE:WALL-OUTER
G1 F1200 X18.898 Y9.726 E22.71134
G1 X9.398 Y9.726 E23.00917
G1 X9.398 Y19.226 E23.307
G1 X18.898 Y19.226 E23.60484
G0 F7200 X18.898 Y18.976
G0 X17.648 Y18.123
;MESH:NONMESH
G0 F600 X17.648 Y18.123 Z1.9
G0 F7200 X17.898 Y18.226
;TIME_ELAPSED:34.678728
;LAYER:4
;TYPE:FILL
;MESH:cube1.stl
G1 F2400 X10.398 Y18.226 E23.83997
G1 X10.398 Y10.726 E24.0751
G1 X17.898 Y10.726 E24.31023
G1 X17.898 Y18.226 E24.54537
G0 F7200 X17.398 Y17.726
G1 F2400 X10.898 Y17.726 E24.74915
G1 X10.898 Y11.226 E24.95293
G1 X17.398 Y11.226 E25.15671
G1 X17.398 Y17.726 E25.36049
G0 F7200 X16.898 Y17.226
G1 F2400 X11.398 Y17.226 E25.53292
G1 X11.398 Y11.726 E25.70535
G1 X16.898 Y11.726 E25.87778
G1 X16.898 Y17.226 E26.05021
G0 F7200 X16.398 Y16.726
G1 F2400 X11.898 Y16.726 E26.19129
G1 X11.898 Y12.226 E26.33237
G1 X16.398 Y12.226 E26.47345
G1 X16.398 Y16.726 E26.61453
G0 F7200 X15.898 Y16.226
G1 F2400 X12.398 Y16.226 E26.72426
G1 X12.398 Y12.726 E26.83398
G1 X15.898 Y12.726 E26.94371
G1 X15.898 Y16.226 E27.05344
G0 F7200 X15.398 Y15.726
G1 F2400 X12.898 Y15.726 E27.13182
G1 X12.898 Y13.226 E27.21019
G1 X15.398 Y13.226 E27.28857
G1 X15.398 Y15.726 E27.36695
G0 F7200 X14.898 Y15.226
G1 F2400 X13.398 Y15.226 E27.41398
G1 X13.398 Y13.726 E27.461
G1 X14.898 Y13.726 E27.50803
G1 X14.898 Y15.226 E27.55505
G0 F7200 X14.398 Y14.726
G1 F2400 X13.898 Y14.726 E27.57073
G1 X13.898 Y14.226 E27.58641
G1 X14.398 Y14.226 E27.60208
G1 X14.398 Y14.726 E27.61776
G0 F7200 X18.078 Y18.406
G0 X18.398 Y18.726
;TYPE:WALL-INNER
G1 F2400 X18.398 Y10.226 E27.88424
G1 X9.898 Y10.226 E28.15072
G1 X9.898 Y18.726 E28.41721
G1 X18.398 Y18.726 E28.68369
G0 F7200 X18.898 Y19.226
;TYPE:WALL-OUTER
G1 F1200 X18.898 Y9.726 E28.98152
G1 X9.398 Y9.726 E29.27936
G1 X9.398 Y19.226 E29.57719
G1 X18.898 Y19.226 E29.87502
G0 F7200 X18.898 Y18.976
G0 X17.648 Y18.123
;MESH:NONMESH
G0 F600 X17.648 Y18.123 Z2.3
G0 F7200 X17.898 Y18.226
;TIME_ELAPSED:41.177280
;LAYER:5
;TYPE:FILL
;MESH:cube1.stl
G1 F2400 X10.398 Y18.226 E30.11016
G1 X10.398 Y10.726 E30.34529
G1 X17.898 Y10.726 E30.58042
G1 X17.898 Y18.226 E30.81555
G0 F7200 X17.398 Y17.726
G1 F2400 X10.898 Y17.726 E31.01933
G1 X10.898 Y11.226 E31.22311
G1 X17.398 Y11.226 E31.42689
G1 X17.398 Y17.726 E31.63068
G0 F7200 X16.898 Y17.226
G1 F2400 X11.398 Y17.226 E31.80311
G1 X11.398 Y11.726 E31.97554
G1 X16.898 Y11.726 E32.14797
G1 X16.898 Y17.226 E32.3204
G0 F7200 X16.398 Y16.726
G1 F2400 X11.898 Y16.726 E32.46147
G1 X11.898 Y12.226 E32.60255
G1 X16.398 Y12.226 E32.74363
G1 X16.398 Y16.726 E32.88471
G0 F7200 X15.898 Y16.226
G1 F2400 X12.398 Y16.226 E32.99444
G1 X12.398 Y12.726 E33.10417
G1 X15.898 Y12.726 E33.2139
G1 X15.898 Y16.226 E33.32363
G0 F7200 X15.398 Y15.726
G1 F2400 X12.898 Y15.726 E33.402
G1 X12.898 Y13.226 E33.48038
G1 X15.398 Y13.226 E33.55876
G1 X15.398 Y15.726 E33.63713
G0 F7200 X14.898 Y15.226
G1 F2400 X13.398 Y15.226 E33.68416
G1 X13.398 Y13.726 E33.73119
G1 X14.898 Y13.726 E33.77821
G1 X14.898 Y15.226 E33.82524
G0 F7200 X14.398 Y14.726
G1 F2400 X13.898 Y14.726 E33.84092
G1 X13.898 Y14.226 E33.85659
G1 X14.398 Y14.226 E33.87227
G1 X14.398 Y14.726 E33.88794
G0 F7200 X18.078 Y18.406
G0 X18.398 Y18.726
;TYPE:WALL-INNER
G1 F2400 X18.398 Y10.226 E34.15442
G1 X9.898 Y10.226 E34.42091
G1 X9.898 Y18.726 E34.68739
G1 X18.398 Y18.726 E34.95387
G0 F7200 X18.898 Y19.226
;TYPE:WALL-OUTER
G1 F1200 X18.898 Y9.726 E35.25171
G1 X9.398 Y9.726 E35.54954
G1 X9.398 Y19.226 E35.84737
G1 X18.898 Y19.226 E36.14521
G0 F7200 X18.898 Y18.976
G0 X17.648 Y18.123
;MESH:NONMESH
G0 F600 X17.648 Y18.123 Z2.7
G0 F7200 X17.898 Y18.226
;TIME_ELAPSED:47.675832
;LAYER:6
;TYPE:FILL
;MESH:cube1.stl
G1 F2400 X10.398 Y18.226 E36.38034
G1 X10.398 Y10.726 E36.61547
G1 X17.898 Y10.726 E36.8506
G1 X17.898 Y18.226 E37.08574
G0 F7200 X17.398 Y17.726
G1 F2400 X10.898 Y17.726 E37.28952
G1 X10.898 Y11.226 E37.4933
G1 X17.398 Y11.226 E37.69708
G1 X17.398 Y17.726 E37.90086
G0 F7200 X16.898 Y17.226
G1 F2400 X11.398 Y17.226 E38.07329
G1 X11.398 Y11.726 E38.24572
G1 X16.898 Y11.726 E38.41815
G1 X16.898 Y17.226 E38.59058
G0 F7200 X16.398 Y16.726
G1 F2400 X11.898 Y16.726 E38.73166
G1 X11.898 Y12.226 E38.87274
G1 X16.398 Y12.226 E39.01382
G1 X16.398 Y16.726 E39.1549
G0 F7200 X15.898 Y16.226
G1 F2400 X12.398 Y16.226 E39.26463
G1 X12.398 Y12.726 E39.37435
G1 X15.898 Y12.726 E39.48408
G1 X15.898 Y16.226 E39.59381
G0 F7200 X15.398 Y15.726
G1 F2400 X12.898 Y15.726 E39.67219
G1 X12.898 Y13.226 E39.75057
G1 X15.398 Y13.226 E39.82894
G1 X15.398 Y15.726 E39.90732
G0 F7200 X14.898 Y15.226
G1 F2400 X13.398 Y15.226 E39.95435
G1 X13.398 Y13.726 E40.00137
G1 X14.898 Y13.726 E40.0484
G1 X14.898 Y15.226 E40.09543
G0 F7200 X14.398 Y14.726
G1 F2400 X13.898 Y14.726 E40.1111
G1 X13.898 Y14.226 E40.12678
G1 X14.398 Y14.226 E40.14245
G1 X14.398 Y14.726 E40.15813
G0 F7200 X18.078 Y18.406
G0 X18.398 Y18.726
;TYPE:WALL-INNER
G1 F2400 X18.398 Y10.226 E40.42461
G1 X9.898 Y10.226 E40.69109
G1 X9.898 Y18.726 E40.95758
G1 X18.398 Y18.726 E41.22406
G0 F7200 X18.898 Y19.226
;TYPE:WALL-OUTER
G1 F1200 X18.898 Y9.726 E41.52189
G1 X9.398 Y9.726 E41.81973
G1 X9.398 Y19.226 E42.11756
G1 X18.898 Y19.226 E42.41539
G0 F7200 X18.898 Y18.976
G0 X17.648 Y18.123
;MESH:NONMESH
G0 F600 X17.648 Y18.123 Z3.1
G0 F7200 X17.898 Y18.226
;TIME_ELAPSED:54.174384
;LAYER:7
;TYPE:FILL
;MESH:cube1.stl
G1 F2400 X10.398 Y18.226 E42.65053
G1 X10.398 Y10.726 E42.88566
G1 X17.898 Y10.726 E43.12079
G1 X17.898 Y18.226 E43.35592
G0 F7200 X17.398 Y17.726
G1 F2400 X10.898 Y17.726 E43.5597
G1 X10.898 Y11.226 E43.76348
G1 X17.398 Y11.226 E43.96727
G1 X17.398 Y17.726 E44.17105
G0 F7200 X16.898 Y17.226
G1 F2400 X11.398 Y17.226 E44.34348
G1 X11.398 Y11.726 E44.51591
G1 X16.898 Y11.726 E44.68834
G1 X16.898 Y17.226 E44.86077
G0 F7200 X16.398 Y16.726
G1 F2400 X11.898 Y16.726 E45.00185
G1 X11.898 Y12.226 E45.14293
G1 X16.398 Y12.226 E45.284
G1 X16.398 Y16.726 E45.42508
G0 F7200 X15.898 Y16.226
G1 F2400 X12.398 Y16.226 E45.53481
G1 X12.398 Y12.726 E45.64454
G1 X15.898 Y12.726 E45.75427
G1 X15.898 Y16.226 E45.864
G0 F7200 X15.398 Y15.726
G1 F2400 X12.898 Y15.726 E45.94237
G1 X12.898 Y13.226 E46.02075
G1 X15.398 Y13.226 E46.09913
G1 X15.398 Y15.726 E46.17751
G0 F7200 X14.898 Y15.226
G1 F2400 X13.398 Y15.226 E46.22453
G1 X13.398 Y13.726 E46.27156
G1 X14.898 Y13.726 E46.31858
G1 X14.898 Y15.226 E46.36561
G0 F7200 X14.398 Y14.726
G1 F2400 X13.898 Y14.726 E46.38129
G1 X13.898 Y14.226 E46.39696
G1 X14.398 Y14.226 E46.41264
G1 X14.398 Y14.726 E46.42831
G0 F7200 X18.078 Y18.406
G0 X18.398 Y18.726
;TYPE:WALL-INNER
G1 F2400 X18.398 Y10.226 E46.6948
G1 X9.898 Y10.226 E46.96128
G1 X9.898 Y18.726 E47.22776
G1 X18.398 Y18.726 E47.49424
G0 F7200 X18.898 Y19.226
;TYPE:WALL-OUTER
G1 F1200 X18.898 Y9.726 E47.79208
G1 X9.398 Y9.726 E48.08991
G1 X9.398 Y19.226 E48.38775
G1 X18.898 Y19.226 E48.68558
G0 F7200 X18.898 Y18.976
G0 X17.648 Y18.123
;MESH:NONMESH
G0 F600 X17.648 Y18.123 Z3.5
G0 F7200 X17.898 Y18.226
;TIME_ELAPSED:60.672935
;LAYER:8
;TYPE:FILL
;MESH:cube1.stl
G1 F2400 X10.398 Y18.226 E48.92071
G1 X10.398 Y10.726 E49.15584
G1 X17.898 Y10.726 E49.39098
G1 X17.898 Y18.226 E49.62611
G0 F7200 X17.398 Y17.726
G1 F2400 X10.898 Y17.726 E49.82989
G1 X10.898 Y11.226 E50.03367
G1 X17.398 Y11.226 E50.23745
G1 X17.398 Y17.726 E50.44123
G0 F7200 X16.898 Y17.226
G1 F2400 X11.398 Y17.226 E50.61366
G1 X11.398 Y11.726 E50.78609
G1 X16.898 Y11.726 E50.95852
G1 X16.898 Y17.226 E51.13095
G0 F7200 X16.398 Y16.726
G1 F2400 X11.898 Y16.726 E51.27203
G1 X11.898 Y12.226 E51.41311
G1 X16.398 Y12.226 E51.55419
G1 X16.398 Y16.726 E51.69527
G0 F7200 X15.898 Y16.226
G1 F2400 X12.398 Y16.226 E51.805
G1 X12.398 Y12.726 E51.91473
G1 X15.898 Y12.726 E52.02445
G1 X15.898 Y16.226 E52.13418
G0 F7200 X15.398 Y15.726
G1 F2400 X12.898 Y15.726 E52.21256
G1 X12.898 Y13.226 E52.29094
G1 X15.398 Y13.226 E52.36931
G1 X15.398 Y15.726 E52.44769
G0 F7200 X14.898 Y15.226
G1 F2400 X13.398 Y15.226 E52.49472
G1 X13.398 Y13.726 E52.54174
G1 X14.898 Y13.726 E52.58877
G1 X14.898 Y15.226 E52.6358
G0 F7200 X14.398 Y14.726
G1 F2400 X13.898 Y14.726 E52.65147
G1 X13.898 Y14.226 E52.66715
G1 X14.398 Y14.226 E52.68282
G1 X14.398 Y14.726 E52.6985
G0 F7200 X18.078 Y18.406
G0 X18.398 Y18.726
;TYPE:WALL-INNER
G1 F2400 X18.398 Y10.226 E52.96498
G1 X9.898 Y10.226 E53.23146
G1 X9.898 Y18.726 E53.49795
G1 X18.398 Y18.726 E53.76443
G0 F7200 X18.898 Y19.226
;TYPE:WALL-OUTER
G1 F1200 X18.898 Y9.726 E54.06226
G1 X9.398 Y9.726 E54.3601
G1 X9.398 Y19.226 E54.65793
G1 X18.898 Y19.226 E54.95577
G0 F7200 X18.898 Y18.976
G0 X17.648 Y18.123
;MESH:NONMESH
G0 F600 X17.648 Y18.123 Z3.9
G0 F7200 X17.898 Y18.226
;TIME_ELAPSED:67.171487
;LAYER:9
;TYPE:FILL
;MESH:cube1.stl
G1 F2400 X10.398 Y18.226 E55.1909
G1 X10.398 Y10.726 E55.42603
G1 X17.898 Y10.726 E55.66116
G1 X17.898 Y18.226 E55.89629
G0 F7200 X17.398 Y17.726
G1 F2400 X10.898 Y17.726 E56.10007
G1 X10.898 Y11.226 E56.30386
G1 X17.398 Y11.226 E56.50764
G1 X17.398 Y17.726 E56.71142
G0 F7200 X16.898 Y17.226
G1 F2400 X11.398 Y17.226 E56.88385
G1 X11.398 Y11.726 E57.05628
