;FLAVOR:Marlin
;TIME:176
;Filament used: 0.15521m
;Layer height: 0.4
;MINX:9.398
;MINY:9.726
;MINZ:0.3
;MAXX:18.898
;MAXY:19.226
;MAXZ:9.9
;TARGET_MACHINE.NAME:Unknown
;Generated with Cura_SteamEngine 5.7.1
M104 S200
M105
M109 S200
M82 ;absolute extrusion mode
G28 ;Home
G1 Z15.0 F6000 ;Move the platform down 15mm
;Prime the extruder
G92 E0
G1 F200 E3
G92 E0
G92 E0
G92 E0
;LAYER_COUNT:25
;LAYER:0
M107
;MESH:cube1.stl
G0 F3600 X18.398 Y18.726 Z0.3
;TYPE:WALL-INNER
G1 F1200 X18.398 Y10.226 E0.19986
G1 X9.898 Y10.226 E0.39972
G1 X9.898 Y18.726 E0.59959
G1 X18.398 Y18.726 E0.79945
G0 F3600 X18.898 Y19.226
;TYPE:WALL-OUTER
G1 F1200 X18.898 Y9.726 E1.02282
G1 X9.398 Y9.726 E1.2462
G1 X9.398 Y19.226 E1.46957
G1 X18.898 Y19.226 E1.69295
G0 F3600 X18.898 Y18.976
G0 X18.078 Y18.406
G0 X17.922 Y18.25
;TYPE:SKIN
G1 F1200 X10.37 Y18.25 E1.87052
G1 X10.37 Y10.698 E2.04809
G1 X17.922 Y10.698 E2.22567
G1 X17.922 Y18.25 E2.40324
G0 F3600 X17.672 Y11.308
G1 F1200 X17.312 Y10.948 E2.41521
G0 F3600 X16.605 Y10.948
G1 F1200 X17.672 Y12.015 E2.45069
G0 F3600 X17.672 Y12.722
G1 F1200 X15.898 Y10.948 E2.50968
G0 F3600 X15.191 Y10.948
G1 F1200 X17.672 Y13.429 E2.59218
G0 F3600 X17.672 Y14.136
G1 F1200 X14.484 Y10.948 E2.69819
G0 F3600 X13.777 Y10.948
G1 F1200 X17.672 Y14.844 E2.82772
G0 F3600 X17.672 Y15.551
G1 F1200 X13.069 Y10.948 E2.98079
G0 F3600 X12.362 Y10.948
G1 F1200 X17.672 Y16.258 E3.15736
G0 F3600 X17.672 Y16.965
G1 F1200 X11.655 Y10.948 E3.35744
G0 F3600 X10.948 Y10.948
G1 F1200 X17.672 Y17.672 E3.58103
G0 F3600 X17.292 Y17.999
G1 F1200 X10.62 Y11.327 E3.80289
G0 F3600 X10.62 Y12.034
G1 F1200 X16.585 Y17.999 E4.00124
G0 F3600 X15.878 Y17.999
G1 F1200 X10.62 Y12.741 E4.17609
G0 F3600 X10.62 Y13.448
G1 F1200 X15.171 Y17.999 E4.32742
G0 F3600 X14.464 Y17.999
G1 F1200 X10.62 Y14.156 E4.45523
G0 F3600 X10.62 Y14.863
G1 F1200 X13.757 Y17.999 E4.55952
G0 F3600 X13.05 Y17.999
G1 F1200 X10.62 Y15.57 E4.64031
G0 F3600 X10.62 Y16.277
G1 F1200 X12.343 Y17.999 E4.69759
G0 F3600 X11.635 Y17.999
G1 F1200 X10.62 Y16.984 E4.73134
G0 F3600 X10.62 Y17.691
G1 F1200 X10.928 Y17.999 E4.74158
G0 F3600 X10.928 Y17.976
;MESH:NONMESH
G0 F600 X10.928 Y17.976 Z0.7
G0 F3600 X18.078 Y18.406
G0 X18.398 Y18.726
;TIME_ELAPSED:11.400223
;LAYER:1
;TYPE:WALL-INNER
;MESH:cube1.stl
G1 F1800 X18.398 Y10.226 E5.00806
G1 X9.898 Y10.226 E5.27455
G1 X9.898 Y18.726 E5.54103
G1 X18.398 Y18.726 E5.80751
G0 F5400 X18.898 Y19.226
;TYPE:WALL-OUTER
G1 F1200 X18.898 Y9.726 E6.10535
G1 X9.398 Y9.726 E6.40318
G1 X9.398 Y19.226 E6.70101
G1 X18.898 Y19.226 E6.99885
G0 F5400 X18.898 Y18.976
G0 X18.078 Y18.406
G0 X17.922 Y18.25
;TYPE:SKIN
G1 F1200 X10.37 Y18.25 E7.23561
G1 X10.37 Y10.698 E7.47237
G1 X17.922 Y10.698 E7.70914
G1 X17.922 Y18.25 E7.9459
G0 F5400 X17.355 Y18
G1 F1200 X17.672 Y17.683 E7.95995
G0 F5400 X17.672 Y16.976
G1 F1200 X16.648 Y18 E8.00535
G0 F5400 X15.941 Y18
G1 F1200 X17.672 Y16.269 E8.0821
G0 F5400 X17.672 Y15.562
G1 F1200 X15.234 Y18 E8.19019
G0 F5400 X14.527 Y18
G1 F1200 X17.672 Y14.855 E8.32963
G0 F5400 X17.672 Y14.148
G1 F1200 X13.82 Y18 E8.50042
G0 F5400 X13.113 Y18
G1 F1200 X17.672 Y13.441 E8.70255
G0 F5400 X17.672 Y12.734
G1 F1200 X12.405 Y18 E8.93605
G0 F5400 X11.698 Y18
G1 F1200 X17.672 Y12.026 E9.20092
G0 F5400 X17.672 Y11.319
G1 F1200 X10.991 Y18 E9.49713
G0 F5400 X10.62 Y17.664
G1 F1200 X17.337 Y10.947 E9.79495
G0 F5400 X16.63 Y10.947
G1 F1200 X10.62 Y16.957 E10.06141
G0 F5400 X10.62 Y16.25
G1 F1200 X15.923 Y10.947 E10.29653
G0 F5400 X15.216 Y10.947
G1 F1200 X10.62 Y15.543 E10.5003
G0 F5400 X10.62 Y14.836
G1 F1200 X14.508 Y10.947 E10.67271
G0 F5400 X13.801 Y10.947
G1 F1200 X10.62 Y14.129 E10.81376
G0 F5400 X10.62 Y13.422
G1 F1200 X13.094 Y10.947 E10.92348
G0 F5400 X12.387 Y10.947
G1 F1200 X10.62 Y12.714 E11.00182
G0 F5400 X10.62 Y12.007
G1 F1200 X11.68 Y10.947 E11.04882
G0 F5400 X10.973 Y10.947
G1 F1200 X10.62 Y11.3 E11.06447
G0 F5400 X10.648 Y11.3
;MESH:NONMESH
G0 F600 X10.648 Y11.3 Z1.1
G0 F5400 X17.898 Y11.154
;TIME_ELAPSED:21.650791
;LAYER:2
;TYPE:FILL
;MESH:cube1.stl
G1 F2400 X17.47 Y10.726 E11.08344
G1 X16.763 Y10.726 E11.10561
G1 X17.898 Y11.861 E11.15593
G1 X17.898 Y12.568 E11.1781
G1 X16.056 Y10.726 E11.25976
G1 X15.349 Y10.726 E11.28193
G1 X17.898 Y13.275 E11.39494
G1 X17.898 Y13.982 E11.41711
G1 X14.642 Y10.726 E11.56147
G1 X13.935 Y10.726 E11.58364
G1 X17.898 Y14.689 E11.75934
G1 X17.898 Y15.397 E11.78154
G1 X13.228 Y10.726 E11.98861
G1 X12.521 Y10.726 E12.01078
G1 X17.898 Y16.104 E12.2492
G1 X17.898 Y16.811 E12.27137
G1 X11.814 Y10.726 E12.54113
G1 X11.107 Y10.726 E12.5633
G1 X17.898 Y17.518 E12.86441
G1 X17.898 Y18.225 E12.88658
G1 X10.398 Y10.726 E13.21908
G1 X10.398 Y11.432 E13.24122
G1 X17.192 Y18.226 E13.54244
G1 X16.485 Y18.226 E13.56461
G1 X10.398 Y12.139 E13.83449
G1 X10.398 Y12.846 E13.85665
G1 X15.778 Y18.226 E14.09518
G1 X15.071 Y18.226 E14.11735
G1 X10.398 Y13.553 E14.32453
G1 X10.398 Y14.26 E14.3467
G1 X14.363 Y18.226 E14.52252
G1 X13.656 Y18.226 E14.54468
G1 X10.398 Y14.967 E14.68915
G1 X10.398 Y15.674 E14.71132
G1 X12.949 Y18.226 E14.82445
G1 X12.242 Y18.226 E14.84661
G1 X10.398 Y16.382 E14.92837
G1 X10.398 Y17.089 E14.95053
G1 X11.535 Y18.226 E15.00094
G1 X10.398 Y18.226 E15.03659
G1 X10.398 Y17.796 E15.05007
G1 X10.828 Y18.226 E15.06914
G0 F7200 X18.078 Y18.406
G0 X18.398 Y18.726
;TYPE:WALL-INNER
G1 F2400 X18.398 Y10.226 E15.33562
G1 X9.898 Y10.226 E15.6021
G1 X9.898 Y18.726 E15.86858
G1 X18.398 Y18.726 E16.13507
G0 F7200 X18.898 Y19.226
;TYPE:WALL-OUTER
G1 F1200 X18.898 Y9.726 E16.4329
G1 X9.398 Y9.726 E16.73074
G1 X9.398 Y19.226 E17.02857
G1 X18.898 Y19.226 E17.3264
G0 F7200 X18.898 Y18.976
G0 X17.648 Y18.123
;MESH:NONMESH
G0 F600 X17.648 Y18.123 Z1.5
G0 F7200 X10.398 Y11.155
;TIME_ELAPSED:28.118772
;LAYER:3
;TYPE:FILL
;MESH:cube1.stl
G1 F2400 X10.827 Y10.726 E17.34542
G1 X10.398 Y10.726 E17.35887
G1 X10.398 Y11.862 E17.39449
G1 X11.534 Y10.726 E17.44485
G1 X12.241 Y10.726 E17.46702
G1 X10.398 Y12.569 E17.54873
G1 X10.398 Y13.276 E17.5709
G1 X12.948 Y10.726 E17.68396
G1 X13.655 Y10.726 E17.70612
G1 X10.398 Y13.983 E17.85053
G1 X10.398 Y14.69 E17.87269
G1 X14.362 Y10.726 E18.04844
G1 X15.069 Y10.726 E18.07061
G1 X10.398 Y15.397 E18.27771
G1 X10.398 Y16.104 E18.29987
G1 X15.776 Y10.726 E18.53832
G1 X16.483 Y10.726 E18.56048
G1 X10.398 Y16.811 E18.83027
G1 X10.398 Y17.519 E18.85247
G1 X17.19 Y10.726 E19.15363
G1 X17.898 Y10.726 E19.17582
G1 X10.398 Y18.226 E19.50835
G1 X11.104 Y18.226 E19.53048
G1 X17.898 Y11.433 E19.83169
G1 X17.898 Y12.14 E19.85385
G1 X11.812 Y18.226 E20.12368
G1 X12.519 Y18.226 E20.14585
G1 X17.898 Y12.847 E20.38434
G1 X17.898 Y13.555 E20.40653
G1 X13.226 Y18.226 E20.61365
G1 X13.933 Y18.226 E20.63582
G1 X17.898 Y14.262 E20.81159
G1 X17.898 Y14.969 E20.83376
G1 X14.64 Y18.226 E20.97819
G1 X15.347 Y18.226 E21.00035
G1 X17.898 Y15.676 E21.11343
G1 X17.898 Y16.383 E21.1356
G1 X16.054 Y18.226 E21.21733
G1 X16.761 Y18.226 E21.2395
G1 X17.898 Y17.09 E21.28989
G1 X17.898 Y17.797 E21.31205
G1 X17.468 Y18.226 E21.33109
G0 F7200 X18.398 Y18.726
;TYPE:WALL-INNER
G1 F2400 X18.398 Y10.226 E21.59758
G1 X9.898 Y10.226 E21.86406
G1 X9.898 Y18.726 E22.13054
G1 X18.398 Y18.726 E22.39703
G0 F7200 X18.898 Y19.226
;TYPE:WALL-OUTER
G1 F1200 X18.898 Y9.726 E22.69486
G1 X9.398 Y9.726 E22.99269
G1 X9.398 Y19.226 E23.29053
G1 X18.898 Y19.226 E23.58836
G0 F7200 X18.898 Y18.976
G0 X17.648 Y18.123
;MESH:NONMESH
G0 F600 X17.648 Y18.123 Z1.9
G0 F7200 X17.898 Y11.154
;TIME_ELAPSED:34.495161
;LAYER:4
;TYPE:FILL
;MESH:cube1.stl
G1 F2400 X17.47 Y10.726 E23.60734
G1 X16.763 Y10.726 E23.6295
G1 X17.898 Y11.861 E23.67982
G1 X17.898 Y12.568 E23.70199
G1 X16.056 Y10.726 E23.78366
G1 X15.349 Y10.726 E23.80582
G1 X17.898 Y13.275 E23.91884
G1 X17.898 Y13.982 E23.941
G1 X14.642 Y10.726 E24.08536
G1 X13.935 Y10.726 E24.10753
G1 X17.898 Y14.689 E24.28324
G1 X17.898 Y15.397 E24.30543
G1 X13.228 Y10.726 E24.51251
G1 X12.521 Y10.726 E24.53467
G1 X17.898 Y16.104 E24.7731
G1 X17.898 Y16.811 E24.79526
G1 X11.814 Y10.726 E25.06503
G1 X11.107 Y10.726 E25.08719
G1 X17.898 Y17.518 E25.38831
G1 X17.898 Y18.225 E25.41047
G1 X10.398 Y10.726 E25.74298
G1 X10.398 Y11.432 E25.76511
G1 X17.192 Y18.226 E26.06634
G1 X16.485 Y18.226 E26.0885
G1 X10.398 Y12.139 E26.35838
G1 X10.398 Y12.846 E26.38054
G1 X15.778 Y18.226 E26.61908
G1 X15.071 Y18.226 E26.64124
G1 X10.398 Y13.553 E26.84843
G1 X10.398 Y14.26 E26.87059
G1 X14.363 Y18.226 E27.04641
G1 X13.656 Y18.226 E27.06858
G1 X10.398 Y14.967 E27.21305
G1 X10.398 Y15.674 E27.23521
G1 X12.949 Y18.226 E27.34834
G1 X12.242 Y18.226 E27.3705
G1 X10.398 Y16.382 E27.45226
G1 X10.398 Y17.089 E27.47443
G1 X11.535 Y18.226 E27.52484
G1 X10.398 Y18.226 E27.56048
G1 X10.398 Y17.796 E27.57397
G1 X10.828 Y18.226 E27.59303
G0 F7200 X18.078 Y18.406
G0 X18.398 Y18.726
;TYPE:WALL-INNER
G1 F2400 X18.398 Y10.226 E27.85951
G1 X9.898 Y10.226 E28.126
G1 X9.898 Y18.726 E28.39248
G1 X18.398 Y18.726 E28.65896
G0 F7200 X18.898 Y19.226
;TYPE:WALL-OUTER
G1 F1200 X18.898 Y9.726 E28.9568
G1 X9.398 Y9.726 E29.25463
G1 X9.398 Y19.226 E29.55246
G1 X18.898 Y19.226 E29.8503
G0 F7200 X18.898 Y18.976
G0 X17.648 Y18.123
;MESH:NONMESH
G0 F600 X17.648 Y18.123 Z2.3
G0 F7200 X10.398 Y11.155
;TIME_ELAPSED:40.963143
;LAYER:5
;TYPE:FILL
;MESH:cube1.stl
G1 F2400 X10.827 Y10.726 E29.86932
G1 X10.398 Y10.726 E29.88277
G1 X10.398 Y11.862 E29.91838
G1 X11.534 Y10.726 E29.96875
G1 X12.241 Y10.726 E29.99091
G1 X10.398 Y12.569 E30.07263
G1 X10.398 Y13.276 E30.09479
G1 X12.948 Y10.726 E30.20785
G1 X13.655 Y10.726 E30.23002
G1 X10.398 Y13.983 E30.37442
G1 X10.398 Y14.69 E30.39659
G1 X14.362 Y10.726 E30.57234
G1 X15.069 Y10.726 E30.5945
G1 X10.398 Y15.397 E30.8016
G1 X10.398 Y16.104 E30.82377
G1 X15.776 Y10.726 E31.06221
G1 X16.483 Y10.726 E31.08437
G1 X10.398 Y16.811 E31.35416
G1 X10.398 Y17.519 E31.37636
G1 X17.19 Y10.726 E31.67752
G1 X17.898 Y10.726 E31.69972
G1 X10.398 Y18.226 E32.03224
G1 X11.104 Y18.226 E32.05438
G1 X17.898 Y11.433 E32.35558
G1 X17.898 Y12.14 E32.37774
G1 X11.812 Y18.226 E32.64758
G1 X12.519 Y18.226 E32.66974
G1 X17.898 Y12.847 E32.90823
G1 X17.898 Y13.555 E32.93043
G1 X13.226 Y18.226 E33.13755
G1 X13.933 Y18.226 E33.15971
G1 X17.898 Y14.262 E33.33549
G1 X17.898 Y14.969 E33.35765
G1 X14.64 Y18.226 E33.50208
G1 X15.347 Y18.226 E33.52424
G1 X17.898 Y15.676 E33.63733
G1 X17.898 Y16.383 E33.65949
G1 X16.054 Y18.226 E33.74123
G1 X16.761 Y18.226 E33.76339
G1 X17.898 Y17.09 E33.81378
G1 X17.898 Y17.797 E33.83595
G1 X17.468 Y18.226 E33.85499
G0 F7200 X18.398 Y18.726
;TYPE:WALL-INNER
G1 F2400 X18.398 Y10.226 E34.12147
G1 X9.898 Y10.226 E34.38795
G1 X9.898 Y18.726 E34.65444
G1 X18.398 Y18.726 E34.92092
G0 F7200 X18.898 Y19.226
;TYPE:WALL-OUTER
G1 F1200 X18.898 Y9.726 E35.21875
G1 X9.398 Y9.726 E35.51659
G1 X9.398 Y19.226 E35.81442
G1 X18.898 Y19.226 E36.11225
G0 F7200 X18.898 Y18.976
G0 X17.648 Y18.123
;MESH:NONMESH
G0 F600 X17.648 Y18.123 Z2.7
G0 F7200 X17.898 Y11.154
;TIME_ELAPSED:47.339531
;LAYER:6
;TYPE:FILL
;MESH:cube1.stl
G1 F2400 X17.47 Y10.726 E36.13123
G1 X16.763 Y10.726 E36.1534
G1 X17.898 Y11.861 E36.20372
G1 X17.898 Y12.568 E36.22588
G1 X16.056 Y10.726 E36.30755
G1 X15.349 Y10.726 E36.32972
G1 X17.898 Y13.275 E36.44273
G1 X17.898 Y13.982 E36.4649
G1 X14.642 Y10.726 E36.60926
G1 X13.935 Y10.726 E36.63142
G1 X17.898 Y14.689 E36.80713
G1 X17.898 Y15.397 E36.82933
G1 X13.228 Y10.726 E37.0364
G1 X12.521 Y10.726 E37.05857
G1 X17.898 Y16.104 E37.29699
G1 X17.898 Y16.811 E37.31915
G1 X11.814 Y10.726 E37.58892
G1 X11.107 Y10.726 E37.61109
G1 X17.898 Y17.518 E37.9122
G1 X17.898 Y18.225 E37.93437
G1 X10.398 Y10.726 E38.26687
G1 X10.398 Y11.432 E38.289
G1 X17.192 Y18.226 E38.59023
G1 X16.485 Y18.226 E38.61239
G1 X10.398 Y12.139 E38.88227
G1 X10.398 Y12.846 E38.90444
G1 X15.778 Y18.226 E39.14297
G1 X15.071 Y18.226 E39.16514
G1 X10.398 Y13.553 E39.37232
G1 X10.398 Y14.26 E39.39449
G1 X14.363 Y18.226 E39.57031
G1 X13.656 Y18.226 E39.59247
G1 X10.398 Y14.967 E39.73694
G1 X10.398 Y15.674 E39.75911
G1 X12.949 Y18.226 E39.87223
G1 X12.242 Y18.226 E39.8944
G1 X10.398 Y16.382 E39.97616
G1 X10.398 Y17.089 E39.99832
G1 X11.535 Y18.226 E40.04873
G1 X10.398 Y18.226 E40.08438
G1 X10.398 Y17.796 E40.09786
G1 X10.828 Y18.226 E40.11692
G0 F7200 X18.078 Y18.406
G0 X18.398 Y18.726
;TYPE:WALL-INNER
G1 F2400 X18.398 Y10.226 E40.38341
G1 X9.898 Y10.226 E40.64989
G1 X9.898 Y18.726 E40.91637
G1 X18.398 Y18.726 E41.18286
G0 F7200 X18.898 Y19.226
;TYPE:WALL-OUTER
G1 F1200 X18.898 Y9.726 E41.48069
G1 X9.398 Y9.726 E41.77852
G1 X9.398 Y19.226 E42.07636
G1 X18.898 Y19.226 E42.37419
G0 F7200 X18.898 Y18.976
G0 X17.648 Y18.123
;MESH:NONMESH
G0 F600 X17.648 Y18.123 Z3.1
G0 F7200 X10.398 Y11.155
;TIME_ELAPSED:53.807513
;LAYER:7
;TYPE:FILL
;MESH:cube1.stl
G1 F2400 X10.827 Y10.726 E42.39321
G1 X10.398 Y10.726 E42.40666
G1 X10.398 Y11.862 E42.44228
G1 X11.534 Y10.726 E42.49264
G1 X12.241 Y10.726 E42.51481
G1 X10.398 Y12.569 E42.59652
G1 X10.398 Y13.276 E42.61869
G1 X12.948 Y10.726 E42.73174
G1 X13.655 Y10.726 E42.75391
G1 X10.398 Y13.983 E42.89831
G1 X10.398 Y14.69 E42.92048
G1 X14.362 Y10.726 E43.09623
G1 X15.069 Y10.726 E43.1184
G1 X10.398 Y15.397 E43.32549
G1 X10.398 Y16.104 E43.34766
G1 X15.776 Y10.726 E43.5861
G1 X16.483 Y10.726 E43.60827
G1 X10.398 Y16.811 E43.87806
G1 X10.398 Y17.519 E43.90025
G1 X17.19 Y10.726 E44.20141
G1 X17.898 Y10.726 E44.22361
G1 X10.398 Y18.226 E44.55614
G1 X11.104 Y18.226 E44.57827
G1 X17.898 Y11.433 E44.87947
G1 X17.898 Y12.14 E44.90164
G1 X11.812 Y18.226 E45.17147
G1 X12.519 Y18.226 E45.19364
G1 X17.898 Y12.847 E45.43213
G1 X17.898 Y13.555 E45.45432
G1 X13.226 Y18.226 E45.66144
G1 X13.933 Y18.226 E45.68361
G1 X17.898 Y14.262 E45.85938
G1 X17.898 Y14.969 E45.88155
G1 X14.64 Y18.226 E46.02597
G1 X15.347 Y18.226 E46.04814
G1 X17.898 Y15.676 E46.16122
G1 X17.898 Y16.383 E46.18339
G1 X16.054 Y18.226 E46.26512
G1 X16.761 Y18.226 E46.28729
G1 X17.898 Y17.09 E46.33767
G1 X17.898 Y17.797 E46.35984
G1 X17.468 Y18.226 E46.37888
G0 F7200 X18.398 Y18.726
;TYPE:WALL-INNER
G1 F2400 X18.398 Y10.226 E46.64536
G1 X9.898 Y10.226 E46.91185
G1 X9.898 Y18.726 E47.17833
G1 X18.398 Y18.726 E47.44481
G0 F7200 X18.898 Y19.226
;TYPE:WALL-OUTER
G1 F1200 X18.898 Y9.726 E47.74265
G1 X9.398 Y9.726 E48.04048
G1 X9.398 Y19.226 E48.33832
G1 X18.898 Y19.226 E48.63615
G0 F7200 X18.898 Y18.976
G0 X17.648 Y18.123
;MESH:NONMESH
G0 F600 X17.648 Y18.123 Z3.5
G0 F7200 X17.898 Y11.154
;TIME_ELAPSED:60.183902
;LAYER:8
;TYPE:FILL
;MESH:cube1.stl
G1 F2400 X17.47 Y10.726 E48.65513
G1 X16.763 Y10.726 E48.67729
G1 X17.898 Y11.861 E48.72761
G1 X17.898 Y12.568 E48.74978
G1 X16.056 Y10.726 E48.83145
G1 X15.349 Y10.726 E48.85361
G1 X17.898 Y13.275 E48.96663
G1 X17.898 Y13.982 E48.98879
G1 X14.642 Y10.726 E49.13315
G1 X13.935 Y10.726 E49.15532
G1 X17.898 Y14.689 E49.33102
G1 X17.898 Y15.397 E49.35322
G1 X13.228 Y10.726 E49.5603
G1 X12.521 Y10.726 E49.58246
G1 X17.898 Y16.104 E49.82088
G1 X17.898 Y16.811 E49.84305
G1 X11.814 Y10.726 E50.11282
G1 X11.107 Y10.726 E50.13498
G1 X17.898 Y17.518 E50.4361
G1 X17.898 Y18.225 E50.45826
G1 X10.398 Y10.726 E50.79077
G1 X10.398 Y11.432 E50.8129
G1 X17.192 Y18.226 E51.11412
G1 X16.485 Y18.226 E51.13629
G1 X10.398 Y12.139 E51.40617
G1 X10.398 Y12.846 E51.42833
G1 X15.778 Y18.226 E51.66687
G1 X15.071 Y18.226 E51.68903
G1 X10.398 Y13.553 E51.89622
G1 X10.398 Y14.26 E51.91838
G1 X14.363 Y18.226 E52.0942
G1 X13.656 Y18.226 E52.11637
G1 X10.398 Y14.967 E52.26084
G1 X10.398 Y15.674 E52.283
G1 X12.949 Y18.226 E52.39613
G1 X12.242 Y18.226 E52.41829
G1 X10.398 Y16.382 E52.50005
G1 X10.398 Y17.089 E52.52222
G1 X11.535 Y18.226 E52.57263
G1 X10.398 Y18.226 E52.60827
G1 X10.398 Y17.796 E52.62175
G1 X10.828 Y18.226 E52.64082
G0 F7200 X18.078 Y18.406
G0 X18.398 Y18.726
;TYPE:WALL-INNER
G1 F2400 X18.398 Y10.226 E52.9073
G1 X9.898 Y10.226 E53.17378
G1 X9.898 Y18.726 E53.44027
G1 X18.398 Y18.726 E53.70675
G0 F7200 X18.898 Y19.226
;TYPE:WALL-OUTER
G1 F1200 X18.898 Y9.726 E54.00458
G1 X9.398 Y9.726 E54.30242
G1 X9.398 Y19.226 E54.60025
G1 X18.898 Y19.226 E54.89808
G0 F7200 X18.898 Y18.976
G0 X17.648 Y18.123
;MESH:NONMESH
G0 F600 X17.648 Y18.123 Z3.9
G0 F7200 X10.398 Y11.155
