;FLAVOR:Marlin
;TIME:176
;Filament used: 0.15521m
;LAYER_COUNT:25
;LAYER:0
;MESH:cube1.stl

G21 ;start of the code
G1 Z15 F300
G28 X0 Y0 ;Home
G92 X0 Y0 ;Consider this as current
G0 X50 Y50 F3000 ;Go-to Offset
G92 X0 Y0 ;Reset

G0 F3600 X9.000 Y9.000 Z0.3
M7
;TYPE:WALL-INNER
G1 F1200 X9.000 Y0.500 E0.19986
G1 X0.500 Y0.500 E0.39972
G1 X0.500 Y9.000 E0.59959
G1 X9.000 Y9.000 E0.79945
M9
G0 F3600 X9.500 Y9.500
M7
;TYPE:WALL-OUTER
G1 F1200 X9.500 Y0.000 E1.02282
G1 X0.000 Y0.000 E1.2462
G1 X0.000 Y9.500 E1.46957
G1 X9.500 Y9.500 E1.69295
M9
G0 F3600 X9.500 Y9.250
M7
M9
G0 X8.680 Y8.680
M7
M9
G0 X8.524 Y8.524
M7
;TYPE:SKIN
G1 F1200 X0.972 Y8.524 E1.87052
G1 X0.972 Y0.972 E2.04809
G1 X8.524 Y0.972 E2.22567
G1 X8.524 Y8.524 E2.40324
M9
G0 F3600 X8.274 Y1.582
M7
G1 F1200 X7.914 Y1.222 E2.41521
M9
G0 F3600 X7.207 Y1.222
M7
G1 F1200 X8.274 Y2.289 E2.45069
M9
G0 F3600 X8.274 Y2.996
M7
G1 F1200 X6.500 Y1.222 E2.50968
M9
G0 F3600 X5.793 Y1.222
M7
G1 F1200 X8.274 Y3.703 E2.59218
M9
G0 F3600 X8.274 Y4.410
M7
G1 F1200 X5.086 Y1.222 E2.69819
M9
G0 F3600 X4.379 Y1.222
M7
G1 F1200 X8.274 Y5.118 E2.82772
M9
G0 F3600 X8.274 Y5.825
M7
G1 F1200 X3.671 Y1.222 E2.98079
M9
G0 F3600 X2.964 Y1.222
M7
G1 F1200 X8.274 Y6.532 E3.15736
M9
G0 F3600 X8.274 Y7.239
M7
G1 F1200 X2.257 Y1.222 E3.35744
M9
G0 F3600 X1.550 Y1.222
M7
G1 F1200 X8.274 Y7.946 E3.58103
M9
G0 F3600 X7.894 Y8.273
M7
G1 F1200 X1.222 Y1.601 E3.80289
M9
G0 F3600 X1.222 Y2.308
M7
G1 F1200 X7.187 Y8.273 E4.00124
M9
G0 F3600 X6.480 Y8.273
M7
G1 F1200 X1.222 Y3.015 E4.17609
M9
G0 F3600 X1.222 Y3.722
M7
G1 F1200 X5.773 Y8.273 E4.32742
M9
G0 F3600 X5.066 Y8.273
M7
G1 F1200 X1.222 Y4.430 E4.45523
M9
G0 F3600 X1.222 Y5.137
M7
G1 F1200 X4.359 Y8.273 E4.55952
M9
G0 F3600 X3.652 Y8.273
M7
G1 F1200 X1.222 Y5.844 E4.64031
M9
G0 F3600 X1.222 Y6.551
M7
G1 F1200 X2.945 Y8.273 E4.69759
M9
G0 F3600 X2.237 Y8.273
M7
G1 F1200 X1.222 Y7.258 E4.73134
M9
G0 F3600 X1.222 Y7.965
M7
G1 F1200 X1.530 Y8.273 E4.74158
M9
G0 F3600 X1.530 Y8.250
M7
;MESH:NONMESH
M9
G0 F600 X1.530 Y8.250 Z0.7
M7
M9
G0 F3600 X8.680 Y8.680
M7
M9
G0 X9.000 Y9.000
M7
;TIME_ELAPSED:11.400223
;LAYER:1
;TYPE:WALL-INNER
;MESH:cube1.stl
G1 F1800 X9.000 Y0.500 E5.00806
G1 X0.500 Y0.500 E5.27455
G1 X0.500 Y9.000 E5.54103
G1 X9.000 Y9.000 E5.80751
M9
G0 F5400 X9.500 Y9.500
M7
;TYPE:WALL-OUTER
G1 F1200 X9.500 Y0.000 E6.10535
G1 X0.000 Y0.000 E6.40318
G1 X0.000 Y9.500 E6.70101
G1 X9.500 Y9.500 E6.99885
M9
G0 F5400 X9.500 Y9.250
M7
M9
G0 X8.680 Y8.680
M7
M9
G0 X8.524 Y8.524
M7
;TYPE:SKIN
G1 F1200 X0.972 Y8.524 E7.23561
G1 X0.972 Y0.972 E7.47237
G1 X8.524 Y0.972 E7.70914
G1 X8.524 Y8.524 E7.9459
M9
G0 F5400 X7.957 Y8.274
M7
G1 F1200 X8.274 Y7.957 E7.95995
M9
G0 F5400 X8.274 Y7.250
M7
G1 F1200 X7.250 Y8.274 E8.00535
M9
G0 F5400 X6.543 Y8.274
M7
G1 F1200 X8.274 Y6.543 E8.0821
M9
G0 F5400 X8.274 Y5.836
M7
G1 F1200 X5.836 Y8.274 E8.19019
M9
G0 F5400 X5.129 Y8.274
M7
G1 F1200 X8.274 Y5.129 E8.32963
M9
G0 F5400 X8.274 Y4.422
M7
G1 F1200 X4.422 Y8.274 E8.50042
M9
G0 F5400 X3.715 Y8.274
M7
G1 F1200 X8.274 Y3.715 E8.70255
M9
G0 F5400 X8.274 Y3.008
M7
G1 F1200 X3.007 Y8.274 E8.93605
M9
G0 F5400 X2.300 Y8.274
M7
G1 F1200 X8.274 Y2.300 E9.20092
M9
G0 F5400 X8.274 Y1.593
M7
G1 F1200 X1.593 Y8.274 E9.49713
M9
G0 F5400 X1.222 Y7.938
M7
G1 F1200 X7.939 Y1.221 E9.79495
M9
G0 F5400 X7.232 Y1.221
M7
G1 F1200 X1.222 Y7.231 E10.06141
M9
G0 F5400 X1.222 Y6.524
M7
G1 F1200 X6.525 Y1.221 E10.29653
M9
G0 F5400 X5.818 Y1.221
M7
G1 F1200 X1.222 Y5.817 E10.5003
M9
G0 F5400 X1.222 Y5.110
M7
G1 F1200 X5.110 Y1.221 E10.67271
M9
G0 F5400 X4.403 Y1.221
M7
G1 F1200 X1.222 Y4.403 E10.81376
M9
G0 F5400 X1.222 Y3.696
M7
G1 F1200 X3.696 Y1.221 E10.92348
M9
G0 F5400 X2.989 Y1.221
M7
G1 F1200 X1.222 Y2.988 E11.00182
M9
G0 F5400 X1.222 Y2.281
M7
G1 F1200 X2.282 Y1.221 E11.04882
M9
G0 F5400 X1.575 Y1.221
M7
G1 F1200 X1.222 Y1.574 E11.06447
M9
G0 F5400 X1.250 Y1.574
M7
;MESH:NONMESH
M9
G0 F600 X1.250 Y1.574 Z1.1
M7
M9
G0 F5400 X8.500 Y1.428
M7
;TIME_ELAPSED:21.650791
;LAYER:2
;TYPE:FILL
;MESH:cube1.stl
G1 F2400 X8.072 Y1.000 E11.08344
G1 X7.365 Y1.000 E11.10561
G1 X8.500 Y2.135 E11.15593
G1 X8.500 Y2.842 E11.1781
G1 X6.658 Y1.000 E11.25976
G1 X5.951 Y1.000 E11.28193
G1 X8.500 Y3.549 E11.39494
G1 X8.500 Y4.256 E11.41711
G1 X5.244 Y1.000 E11.56147
G1 X4.537 Y1.000 E11.58364
G1 X8.500 Y4.963 E11.75934
G1 X8.500 Y5.671 E11.78154
G1 X3.830 Y1.000 E11.98861
G1 X3.123 Y1.000 E12.01078
G1 X8.500 Y6.378 E12.2492
G1 X8.500 Y7.085 E12.27137
G1 X2.416 Y1.000 E12.54113
G1 X1.709 Y1.000 E12.5633
G1 X8.500 Y7.792 E12.86441
G1 X8.500 Y8.499 E12.88658
G1 X1.000 Y1.000 E13.21908
G1 X1.000 Y1.706 E13.24122
G1 X7.794 Y8.500 E13.54244
G1 X7.087 Y8.500 E13.56461
G1 X1.000 Y2.413 E13.83449
G1 X1.000 Y3.120 E13.85665
G1 X6.380 Y8.500 E14.09518
G1 X5.673 Y8.500 E14.11735
G1 X1.000 Y3.827 E14.32453
G1 X1.000 Y4.534 E14.3467
G1 X4.965 Y8.500 E14.52252
G1 X4.258 Y8.500 E14.54468
G1 X1.000 Y5.241 E14.68915
G1 X1.000 Y5.948 E14.71132
G1 X3.551 Y8.500 E14.82445
G1 X2.844 Y8.500 E14.84661
G1 X1.000 Y6.656 E14.92837
G1 X1.000 Y7.363 E14.95053
G1 X2.137 Y8.500 E15.00094
G1 X1.000 Y8.500 E15.03659
G1 X1.000 Y8.070 E15.05007
G1 X1.430 Y8.500 E15.06914
M9
G0 F7200 X8.680 Y8.680
M7
M9
G0 X9.000 Y9.000
M7
;TYPE:WALL-INNER
G1 F2400 X9.000 Y0.500 E15.33562
G1 X0.500 Y0.500 E15.6021
G1 X0.500 Y9.000 E15.86858
G1 X9.000 Y9.000 E16.13507
M9
G0 F7200 X9.500 Y9.500
M7
;TYPE:WALL-OUTER
G1 F1200 X9.500 Y0.000 E16.4329
G1 X0.000 Y0.000 E16.73074
G1 X0.000 Y9.500 E17.02857
G1 X9.500 Y9.500 E17.3264
M9
G0 F7200 X9.500 Y9.250
M7
M9
G0 X8.250 Y8.397
M7
;MESH:NONMESH
M9
G0 F600 X8.250 Y8.397 Z1.5
M7
M9
G0 F7200 X1.000 Y1.429
M7
;TIME_ELAPSED:28.118772
;LAYER:3
;TYPE:FILL
;MESH:cube1.stl
G1 F2400 X1.429 Y1.000 E17.34542
G1 X1.000 Y1.000 E17.35887
G1 X1.000 Y2.136 E17.39449
G1 X2.136 Y1.000 E17.44485
G1 X2.843 Y1.000 E17.46702
G1 X1.000 Y2.843 E17.54873
G1 X1.000 Y3.550 E17.5709
G1 X3.550 Y1.000 E17.68396
G1 X4.257 Y1.000 E17.70612
G1 X1.000 Y4.257 E17.85053
G1 X1.000 Y4.964 E17.87269
G1 X4.964 Y1.000 E18.04844
G1 X5.671 Y1.000 E18.07061
G1 X1.000 Y5.671 E18.27771
G1 X1.000 Y6.378 E18.29987
G1 X6.378 Y1.000 E18.53832
G1 X7.085 Y1.000 E18.56048
G1 X1.000 Y7.085 E18.83027
G1 X1.000 Y7.793 E18.85247
G1 X7.792 Y1.000 E19.15363
G1 X8.500 Y1.000 E19.17582
G1 X1.000 Y8.500 E19.50835
G1 X1.706 Y8.500 E19.53048
G1 X8.500 Y1.707 E19.83169
G1 X8.500 Y2.414 E19.85385
G1 X2.414 Y8.500 E20.12368
G1 X3.121 Y8.500 E20.14585
G1 X8.500 Y3.121 E20.38434
G1 X8.500 Y3.829 E20.40653
G1 X3.828 Y8.500 E20.61365
G1 X4.535 Y8.500 E20.63582
G1 X8.500 Y4.536 E20.81159
G1 X8.500 Y5.243 E20.83376
G1 X5.242 Y8.500 E20.97819
G1 X5.949 Y8.500 E21.00035
G1 X8.500 Y5.950 E21.11343
G1 X8.500 Y6.657 E21.1356
G1 X6.656 Y8.500 E21.21733
G1 X7.363 Y8.500 E21.2395
G1 X8.500 Y7.364 E21.28989
G1 X8.500 Y8.071 E21.31205
G1 X8.070 Y8.500 E21.33109
M9
G0 F7200 X9.000 Y9.000
M7
;TYPE:WALL-INNER
G1 F2400 X9.000 Y0.500 E21.59758
G1 X0.500 Y0.500 E21.86406
G1 X0.500 Y9.000 E22.13054
G1 X9.000 Y9.000 E22.39703
M9
G0 F7200 X9.500 Y9.500
M7
;TYPE:WALL-OUTER
G1 F1200 X9.500 Y0.000 E22.69486
G1 X0.000 Y0.000 E22.99269
G1 X0.000 Y9.500 E23.29053
G1 X9.500 Y9.500 E23.58836
M9
G0 F7200 X9.500 Y9.250
M7
M9
G0 X8.250 Y8.397
M7
;MESH:NONMESH
M9
G0 F600 X8.250 Y8.397 Z1.9
M7
M9
G0 F7200 X8.500 Y1.428
M7
;TIME_ELAPSED:34.495161
;LAYER:4
;TYPE:FILL
;MESH:cube1.stl
G1 F2400 X8.072 Y1.000 E23.60734
G1 X7.365 Y1.000 E23.6295
G1 X8.500 Y2.135 E23.67982
G1 X8.500 Y2.842 E23.70199
G1 X6.658 Y1.000 E23.78366
G1 X5.951 Y1.000 E23.80582
G1 X8.500 Y3.549 E23.91884
G1 X8.500 Y4.256 E23.941
G1 X5.244 Y1.000 E24.08536
G1 X4.537 Y1.000 E24.10753
G1 X8.500 Y4.963 E24.28324
G1 X8.500 Y5.671 E24.30543
G1 X3.830 Y1.000 E24.51251
G1 X3.123 Y1.000 E24.53467
G1 X8.500 Y6.378 E24.7731
G1 X8.500 Y7.085 E24.79526
G1 X2.416 Y1.000 E25.06503
G1 X1.709 Y1.000 E25.08719
G1 X8.500 Y7.792 E25.38831
G1 X8.500 Y8.499 E25.41047
G1 X1.000 Y1.000 E25.74298
G1 X1.000 Y1.706 E25.76511
G1 X7.794 Y8.500 E26.06634
G1 X7.087 Y8.500 E26.0885
G1 X1.000 Y2.413 E26.35838
G1 X1.000 Y3.120 E26.38054
G1 X6.380 Y8.500 E26.61908
G1 X5.673 Y8.500 E26.64124
G1 X1.000 Y3.827 E26.84843
G1 X1.000 Y4.534 E26.87059
G1 X4.965 Y8.500 E27.04641
G1 X4.258 Y8.500 E27.06858
G1 X1.000 Y5.241 E27.21305
G1 X1.000 Y5.948 E27.23521
G1 X3.551 Y8.500 E27.34834
G1 X2.844 Y8.500 E27.3705
G1 X1.000 Y6.656 E27.45226
G1 X1.000 Y7.363 E27.47443
G1 X2.137 Y8.500 E27.52484
G1 X1.000 Y8.500 E27.56048
G1 X1.000 Y8.070 E27.57397
G1 X1.430 Y8.500 E27.59303
M9
G0 F7200 X8.680 Y8.680
M7
M9
G0 X9.000 Y9.000
M7
;TYPE:WALL-INNER
G1 F2400 X9.000 Y0.500 E27.85951
G1 X0.500 Y0.500 E28.126
G1 X0.500 Y9.000 E28.39248
G1 X9.000 Y9.000 E28.65896
M9
G0 F7200 X9.500 Y9.500
M7
;TYPE:WALL-OUTER
G1 F1200 X9.500 Y0.000 E28.9568
G1 X0.000 Y0.000 E29.25463
G1 X0.000 Y9.500 E29.55246
G1 X9.500 Y9.500 E29.8503
M9
G0 F7200 X9.500 Y9.250
M7
M9
G0 X8.250 Y8.397
M7
;MESH:NONMESH
M9
G0 F600 X8.250 Y8.397 Z2.3
M7
M9
G0 F7200 X1.000 Y1.429
M7
;TIME_ELAPSED:40.963143
;LAYER:5
;TYPE:FILL
;MESH:cube1.stl
G1 F2400 X1.429 Y1.000 E29.86932
G1 X1.000 Y1.000 E29.88277
G1 X1.000 Y2.136 E29.91838
G1 X2.136 Y1.000 E29.96875
G1 X2.843 Y1.000 E29.99091
G1 X1.000 Y2.843 E30.07263
G1 X1.000 Y3.550 E30.09479
G1 X3.550 Y1.000 E30.20785
G1 X4.257 Y1.000 E30.23002
G1 X1.000 Y4.257 E30.37442
G1 X1.000 Y4.964 E30.39659
G1 X4.964 Y1.000 E30.57234
G1 X5.671 Y1.000 E30.5945
G1 X1.000 Y5.671 E30.8016
G1 X1.000 Y6.378 E30.82377
G1 X6.378 Y1.000 E31.06221
G1 X7.085 Y1.000 E31.08437
G1 X1.000 Y7.085 E31.35416
G1 X1.000 Y7.793 E31.37636
G1 X7.792 Y1.000 E31.67752
G1 X8.500 Y1.000 E31.69972
G1 X1.000 Y8.500 E32.03224
G1 X1.706 Y8.500 E32.05438
G1 X8.500 Y1.707 E32.35558
G1 X8.500 Y2.414 E32.37774
G1 X2.414 Y8.500 E32.64758
G1 X3.121 Y8.500 E32.66974
G1 X8.500 Y3.121 E32.90823
G1 X8.500 Y3.829 E32.93043
G1 X3.828 Y8.500 E33.13755
G1 X4.535 Y8.500 E33.15971
G1 X8.500 Y4.536 E33.33549
G1 X8.500 Y5.243 E33.35765
G1 X5.242 Y8.500 E33.50208
G1 X5.949 Y8.500 E33.52424
G1 X8.500 Y5.950 E33.63733
G1 X8.500 Y6.657 E33.65949
G1 X6.656 Y8.500 E33.74123
G1 X7.363 Y8.500 E33.76339
G1 X8.500 Y7.364 E33.81378
G1 X8.500 Y8.071 E33.83595
G1 X8.070 Y8.500 E33.85499
M9
G0 F7200 X9.000 Y9.000
M7
;TYPE:WALL-INNER
G1 F2400 X9.000 Y0.500 E34.12147
G1 X0.500 Y0.500 E34.38795
G1 X0.500 Y9.000 E34.65444
G1 X9.000 Y9.000 E34.92092
M9
G0 F7200 X9.500 Y9.500
M7
;TYPE:WALL-OUTER
G1 F1200 X9.500 Y0.000 E35.21875
G1 X0.000 Y0.000 E35.51659
G1 X0.000 Y9.500 E35.81442
G1 X9.500 Y9.500 E36.11225
M9
G0 F7200 X9.500 Y9.250
M7
M9
G0 X8.250 Y8.397
M7
;MESH:NONMESH
M9
G0 F600 X8.250 Y8.397 Z2.7
M7
M9
G0 F7200 X8.500 Y1.428
M7
;TIME_ELAPSED:47.339531
;LAYER:6
;TYPE:FILL
;MESH:cube1.stl
G1 F2400 X8.072 Y1.000 E36.13123
G1 X7.365 Y1.000 E36.1534
G1 X8.500 Y2.135 E36.20372
G1 X8.500 Y2.842 E36.22588
G1 X6.658 Y1.000 E36.30755
G1 X5.951 Y1.000 E36.32972
G1 X8.500 Y3.549 E36.44273
G1 X8.500 Y4.256 E36.4649
G1 X5.244 Y1.000 E36.60926
G1 X4.537 Y1.000 E36.63142
G1 X8.500 Y4.963 E36.80713
G1 X8.500 Y5.671 E36.82933
G1 X3.830 Y1.000 E37.0364
G1 X3.123 Y1.000 E37.05857
G1 X8.500 Y6.378 E37.29699
G1 X8.500 Y7.085 E37.31915
G1 X2.416 Y1.000 E37.58892
G1 X1.709 Y1.000 E37.61109
G1 X8.500 Y7.792 E37.9122
G1 X8.500 Y8.499 E37.93437
G1 X1.000 Y1.000 E38.26687
G1 X1.000 Y1.706 E38.289
G1 X7.794 Y8.500 E38.59023
G1 X7.087 Y8.500 E38.61239
G1 X1.000 Y2.413 E38.88227
G1 X1.000 Y3.120 E38.90444
G1 X6.380 Y8.500 E39.14297
G1 X5.673 Y8.500 E39.16514
G1 X1.000 Y3.827 E39.37232
G1 X1.000 Y4.534 E39.39449
G1 X4.965 Y8.500 E39.57031
G1 X4.258 Y8.500 E39.59247
G1 X1.000 Y5.241 E39.73694
G1 X1.000 Y5.948 E39.75911
G1 X3.551 Y8.500 E39.87223
G1 X2.844 Y8.500 E39.8944
G1 X1.000 Y6.656 E39.97616
G1 X1.000 Y7.363 E39.99832
G1 X2.137 Y8.500 E40.04873
G1 X1.000 Y8.500 E40.08438
G1 X1.000 Y8.070 E40.09786
G1 X1.430 Y8.500 E40.11692
M9
G0 F7200 X8.680 Y8.680
M7
M9
G0 X9.000 Y9.000
M7
;TYPE:WALL-INNER
G1 F2400 X9.000 Y0.500 E40.38341
G1 X0.500 Y0.500 E40.64989
G1 X0.500 Y9.000 E40.91637
G1 X9.000 Y9.000 E41.18286
M9
G0 F7200 X9.500 Y9.500
M7
;TYPE:WALL-OUTER
G1 F1200 X9.500 Y0.000 E41.48069
G1 X0.000 Y0.000 E41.77852
G1 X0.000 Y9.500 E42.07636
G1 X9.500 Y9.500 E42.37419
M9
G0 F7200 X9.500 Y9.250
M7
M9
G0 X8.250 Y8.397
M7
;MESH:NONMESH
M9
G0 F600 X8.250 Y8.397 Z3.1
M7
M9
G0 F7200 X1.000 Y1.429
M7
;TIME_ELAPSED:53.807513
;LAYER:7
;TYPE:FILL
;MESH:cube1.stl
G1 F2400 X1.429 Y1.000 E42.39321
G1 X1.000 Y1.000 E42.40666
G1 X1.000 Y2.136 E42.44228
G1 X2.136 Y1.000 E42.49264
G1 X2.843 Y1.000 E42.51481
G1 X1.000 Y2.843 E42.59652
G1 X1.000 Y3.550 E42.61869
G1 X3.550 Y1.000 E42.73174
G1 X4.257 Y1.000 E42.75391
G1 X1.000 Y4.257 E42.89831
G1 X1.000 Y4.964 E42.92048
G1 X4.964 Y1.000 E43.09623
G1 X5.671 Y1.000 E43.1184
G1 X1.000 Y5.671 E43.32549
G1 X1.000 Y6.378 E43.34766
G1 X6.378 Y1.000 E43.5861
G1 X7.085 Y1.000 E43.60827
G1 X1.000 Y7.085 E43.87806
G1 X1.000 Y7.793 E43.90025
G1 X7.792 Y1.000 E44.20141
G1 X8.500 Y1.000 E44.22361
G1 X1.000 Y8.500 E44.55614
G1 X1.706 Y8.500 E44.57827
G1 X8.500 Y1.707 E44.87947
G1 X8.500 Y2.414 E44.90164
G1 X2.414 Y8.500 E45.17147
G1 X3.121 Y8.500 E45.19364
G1 X8.500 Y3.121 E45.43213
G1 X8.500 Y3.829 E45.45432
G1 X3.828 Y8.500 E45.66144
G1 X4.535 Y8.500 E45.68361
G1 X8.500 Y4.536 E45.85938
G1 X8.500 Y5.243 E45.88155
G1 X5.242 Y8.500 E46.02597
G1 X5.949 Y8.500 E46.04814
G1 X8.500 Y5.950 E46.16122
G1 X8.500 Y6.657 E46.18339
G1 X6.656 Y8.500 E46.26512
G1 X7.363 Y8.500 E46.28729
G1 X8.500 Y7.364 E46.33767
G1 X8.500 Y8.071 E46.35984
G1 X8.070 Y8.500 E46.37888
M9
G0 F7200 X9.000 Y9.000
M7
;TYPE:WALL-INNER
G1 F2400 X9.000 Y0.500 E46.64536
G1 X0.500 Y0.500 E46.91185
G1 X0.500 Y9.000 E47.17833
G1 X9.000 Y9.000 E47.44481
M9
G0 F7200 X9.500 Y9.500
M7
;TYPE:WALL-OUTER
G1 F1200 X9.500 Y0.000 E47.74265
G1 X0.000 Y0.000 E48.04048
G1 X0.000 Y9.500 E48.33832
G1 X9.500 Y9.500 E48.63615
M9
G0 F7200 X9.500 Y9.250
M7
M9
G0 X8.250 Y8.397
M7
;MESH:NONMESH
M9
G0 F600 X8.250 Y8.397 Z3.5
M7
M9
G0 F7200 X8.500 Y1.428
M7
;TIME_ELAPSED:60.183902
;LAYER:8
;TYPE:FILL
;MESH:cube1.stl
G1 F2400 X8.072 Y1.000 E48.65513
G1 X7.365 Y1.000 E48.67729
G1 X8.500 Y2.135 E48.72761
G1 X8.500 Y2.842 E48.74978
G1 X6.658 Y1.000 E48.83145
G1 X5.951 Y1.000 E48.85361
G1 X8.500 Y3.549 E48.96663
G1 X8.500 Y4.256 E48.98879
G1 X5.244 Y1.000 E49.13315
G1 X4.537 Y1.000 E49.15532
G1 X8.500 Y4.963 E49.33102
G1 X8.500 Y5.671 E49.35322
G1 X3.830 Y1.000 E49.5603
G1 X3.123 Y1.000 E49.58246
G1 X8.500 Y6.378 E49.82088
G1 X8.500 Y7.085 E49.84305
G1 X2.416 Y1.000 E50.11282
G1 X1.709 Y1.000 E50.13498
G1 X8.500 Y7.792 E50.4361
G1 X8.500 Y8.499 E50.45826
G1 X1.000 Y1.000 E50.79077
G1 X1.000 Y1.706 E50.8129
G1 X7.794 Y8.500 E51.11412
G1 X7.087 Y8.500 E51.13629
G1 X1.000 Y2.413 E51.40617
G1 X1.000 Y3.120 E51.42833
G1 X6.380 Y8.500 E51.66687
G1 X5.673 Y8.500 E51.68903
G1 X1.000 Y3.827 E51.89622
G1 X1.000 Y4.534 E51.91838
G1 X4.965 Y8.500 E52.0942
G1 X4.258 Y8.500 E52.11637
G1 X1.000 Y5.241 E52.26084
G1 X1.000 Y5.948 E52.283
G1 X3.551 Y8.500 E52.39613
G1 X2.844 Y8.500 E52.41829
G1 X1.000 Y6.656 E52.50005
G1 X1.000 Y7.363 E52.52222
G1 X2.137 Y8.500 E52.57263
G1 X1.000 Y8.500 E52.60827
G1 X1.000 Y8.070 E52.62175
G1 X1.430 Y8.500 E52.64082
M9
G0 F7200 X8.680 Y8.680
M7
M9
G0 X9.000 Y9.000
M7
;TYPE:WALL-INNER
G1 F2400 X9.000 Y0.500 E52.9073
G1 X0.500 Y0.500 E53.17378
G1 X0.500 Y9.000 E53.44027
G1 X9.000 Y9.000 E53.70675
M9
G0 F7200 X9.500 Y9.500
M7
;TYPE:WALL-OUTER
G1 F1200 X9.500 Y0.000 E54.00458
G1 X0.000 Y0.000 E54.30242
G1 X0.000 Y9.500 E54.60025
G1 X9.500 Y9.500 E54.89808
M9
G0 F7200 X9.500 Y9.250
M7
M9
G0 X8.250 Y8.397
M7
;MESH:NONMESH
M9
G0 F600 X8.250 Y8.397 Z3.9
M7
M9
G0 F7200 X1.000 Y1.429
M7
;TIME_ELAPSED:66.651884
;LAYER:9
;TYPE:FILL
;MESH:cube1.stl
G1 F2400 X1.429 Y1.000 E54.91711
G1 X1.000 Y1.000 E54.93055
G1 X1.000 Y2.136 E54.96617
G1 X2.136 Y1.000 E55.01654
G1 X2.843 Y1.000 E55.0387
G1 X1.000 Y2.843 E55.12041
G1 X1.000 Y3.550 E55.14258
G1 X3.550 Y1.000 E55.25564
G1 X4.257 Y1.000 E55.2778
G1 X1.000 Y4.257 E55.42221
G1 X1.000 Y4.964 E55.44437
G1 X4.964 Y1.000 E55.62013
G1 X5.671 Y1.000 E55.64229
G1 X1.000 Y5.671 E55.84939
