;FLAVOR:Marlin
;TIME:227
;Filament used: 0.155165m
;Layer height: 0.3
;LAYER_COUNT:33
;LAYER:0
;MESH:cube1.stl

G21 ;start of the code
G1 Z15 F300
G28 X0 Y0 ;Home
G92 X0 Y0 ;Consider this as current
G0 X50 Y50 F3000 ;Go-to Offset
G92 X0 Y0 ;Reset

G0 F3600 X9.000 Y9.000 Z0.3
M7
;TYPE:WALL-INNER
G1 F1200 X9.000 Y0.500 E0.19986
G1 X0.500 Y0.500 E0.39972
G1 X0.500 Y9.000 E0.59959
G1 X9.000 Y9.000 E0.79945
M9
G0 F3600 X9.500 Y9.500
M7
;TYPE:WALL-OUTER
G1 F1200 X9.500 Y0.000 E1.02282
G1 X0.000 Y0.000 E1.2462
G1 X0.000 Y9.500 E1.46957
G1 X9.500 Y9.500 E1.69295
M9
G0 F3600 X9.500 Y9.250
M7
M9
G0 X8.680 Y8.680
M7
M9
G0 X8.524 Y8.524
M7
;TYPE:SKIN
G1 F1200 X0.972 Y8.524 E1.87052
G1 X0.972 Y0.972 E2.04809
G1 X8.524 Y0.972 E2.22567
G1 X8.524 Y8.524 E2.40324
M9
G0 F3600 X8.274 Y1.582
M7
G1 F1200 X7.914 Y1.222 E2.41521
M9
G0 F3600 X7.207 Y1.222
M7
G1 F1200 X8.274 Y2.289 E2.45069
M9
G0 F3600 X8.274 Y2.996
M7
G1 F1200 X6.500 Y1.222 E2.50968
M9
G0 F3600 X5.793 Y1.222
M7
G1 F1200 X8.274 Y3.703 E2.59218
M9
G0 F3600 X8.274 Y4.410
M7
G1 F1200 X5.086 Y1.222 E2.69819
M9
G0 F3600 X4.379 Y1.222
M7
G1 F1200 X8.274 Y5.118 E2.82772
M9
G0 F3600 X8.274 Y5.825
M7
G1 F1200 X3.671 Y1.222 E2.98079
M9
G0 F3600 X2.964 Y1.222
M7
G1 F1200 X8.274 Y6.532 E3.15736
M9
G0 F3600 X8.274 Y7.239
M7
G1 F1200 X2.257 Y1.222 E3.35744
M9
G0 F3600 X1.550 Y1.222
M7
G1 F1200 X8.274 Y7.946 E3.58103
M9
G0 F3600 X7.894 Y8.273
M7
G1 F1200 X1.222 Y1.601 E3.80289
M9
G0 F3600 X1.222 Y2.308
M7
G1 F1200 X7.187 Y8.273 E4.00124
M9
G0 F3600 X6.480 Y8.273
M7
G1 F1200 X1.222 Y3.015 E4.17609
M9
G0 F3600 X1.222 Y3.722
M7
G1 F1200 X5.773 Y8.273 E4.32742
M9
G0 F3600 X5.066 Y8.273
M7
G1 F1200 X1.222 Y4.430 E4.45523
M9
G0 F3600 X1.222 Y5.137
M7
G1 F1200 X4.359 Y8.273 E4.55952
M9
G0 F3600 X3.652 Y8.273
M7
G1 F1200 X1.222 Y5.844 E4.64031
M9
G0 F3600 X1.222 Y6.551
M7
G1 F1200 X2.945 Y8.273 E4.69759
M9
G0 F3600 X2.237 Y8.273
M7
G1 F1200 X1.222 Y7.258 E4.73134
M9
G0 F3600 X1.222 Y7.965
M7
G1 F1200 X1.530 Y8.273 E4.74158
M9
G0 F3600 X1.530 Y8.250
M7
;MESH:NONMESH
M9
G0 F600 X1.530 Y8.250 Z0.6
M7
M9
G0 F3600 X8.680 Y8.680
M7
M9
G0 X9.000 Y9.000
M7
;TIME_ELAPSED:11.383957
;LAYER:1
;TYPE:WALL-INNER
;MESH:cube1.stl
G1 F1800 X9.000 Y0.500 E4.94144
G1 X0.500 Y0.500 E5.14131
G1 X0.500 Y9.000 E5.34117
G1 X9.000 Y9.000 E5.54103
M9
G0 F5400 X9.500 Y9.500
M7
;TYPE:WALL-OUTER
G1 F1200 X9.500 Y0.000 E5.76441
G1 X0.000 Y0.000 E5.98778
G1 X0.000 Y9.500 E6.21116
G1 X9.500 Y9.500 E6.43453
M9
G0 F5400 X9.500 Y9.250
M7
M9
G0 X8.680 Y8.680
M7
M9
G0 X8.524 Y8.524
M7
;TYPE:SKIN
G1 F1200 X0.972 Y8.524 E6.6121
G1 X0.972 Y0.972 E6.78968
G1 X8.524 Y0.972 E6.96725
G1 X8.524 Y8.524 E7.14482
M9
G0 F5400 X7.957 Y8.274
M7
G1 F1200 X8.274 Y7.957 E7.15536
M9
G0 F5400 X8.274 Y7.250
M7
G1 F1200 X7.250 Y8.274 E7.18941
M9
G0 F5400 X6.543 Y8.274
M7
G1 F1200 X8.274 Y6.543 E7.24697
M9
G0 F5400 X8.274 Y5.836
M7
G1 F1200 X5.836 Y8.274 E7.32804
M9
G0 F5400 X5.129 Y8.274
M7
G1 F1200 X8.274 Y5.129 E7.43262
M9
G0 F5400 X8.274 Y4.422
M7
G1 F1200 X4.422 Y8.274 E7.56071
M9
G0 F5400 X3.715 Y8.274
M7
G1 F1200 X8.274 Y3.715 E7.71231
M9
G0 F5400 X8.274 Y3.008
M7
G1 F1200 X3.007 Y8.274 E7.88743
M9
G0 F5400 X2.300 Y8.274
M7
G1 F1200 X8.274 Y2.300 E8.08609
M9
G0 F5400 X8.274 Y1.593
M7
G1 F1200 X1.593 Y8.274 E8.30825
M9
G0 F5400 X1.222 Y7.938
M7
G1 F1200 X7.939 Y1.221 E8.5316
M9
G0 F5400 X7.232 Y1.221
M7
G1 F1200 X1.222 Y7.231 E8.73145
M9
G0 F5400 X1.222 Y6.524
M7
G1 F1200 X6.525 Y1.221 E8.90779
M9
G0 F5400 X5.818 Y1.221
M7
G1 F1200 X1.222 Y5.817 E9.06062
M9
G0 F5400 X1.222 Y5.110
M7
G1 F1200 X5.110 Y1.221 E9.18992
M9
G0 F5400 X4.403 Y1.221
M7
G1 F1200 X1.222 Y4.403 E9.29572
M9
G0 F5400 X1.222 Y3.696
M7
G1 F1200 X3.696 Y1.221 E9.378
M9
G0 F5400 X2.989 Y1.221
M7
G1 F1200 X1.222 Y2.988 E9.43676
M9
G0 F5400 X1.222 Y2.281
M7
G1 F1200 X2.282 Y1.221 E9.47201
M9
G0 F5400 X1.575 Y1.221
M7
G1 F1200 X1.222 Y1.574 E9.48375
M9
G0 F5400 X1.250 Y1.574
M7
;MESH:NONMESH
M9
G0 F600 X1.250 Y1.574 Z0.9
M7
M9
G0 F5400 X8.500 Y1.428
M7
;TIME_ELAPSED:21.618984
;LAYER:2
;TYPE:FILL
;MESH:cube1.stl
G1 F2400 X8.072 Y1.000 E9.49798
G1 X7.365 Y1.000 E9.5146
G1 X8.500 Y2.135 E9.55234
G1 X8.500 Y2.842 E9.56897
G1 X6.658 Y1.000 E9.63022
G1 X5.951 Y1.000 E9.64684
G1 X8.500 Y3.549 E9.7316
G1 X8.500 Y4.256 E9.74823
G1 X5.244 Y1.000 E9.8565
G1 X4.537 Y1.000 E9.87312
G1 X8.500 Y4.963 E10.0049
G1 X8.500 Y5.671 E10.02155
G1 X3.830 Y1.000 E10.17686
G1 X3.123 Y1.000 E10.19348
G1 X8.500 Y6.378 E10.3723
G1 X8.500 Y7.085 E10.38892
G1 X2.416 Y1.000 E10.59125
G1 X1.709 Y1.000 E10.60787
G1 X8.500 Y7.792 E10.83371
G1 X8.500 Y8.499 E10.85033
G1 X1.000 Y1.000 E11.09971
G1 X1.000 Y1.706 E11.11631
G1 X7.794 Y8.500 E11.34223
G1 X7.087 Y8.500 E11.35885
G1 X1.000 Y2.413 E11.56126
G1 X1.000 Y3.120 E11.57788
G1 X6.380 Y8.500 E11.75678
G1 X5.673 Y8.500 E11.77341
G1 X1.000 Y3.827 E11.9288
G1 X1.000 Y4.534 E11.94542
G1 X4.965 Y8.500 E12.07728
G1 X4.258 Y8.500 E12.09391
G1 X1.000 Y5.241 E12.20226
G1 X1.000 Y5.948 E12.21889
G1 X3.551 Y8.500 E12.30373
G1 X2.844 Y8.500 E12.32035
G1 X1.000 Y6.656 E12.38167
G1 X1.000 Y7.363 E12.3983
G1 X2.137 Y8.500 E12.4361
G1 X1.000 Y8.500 E12.46284
G1 X1.000 Y8.070 E12.47295
G1 X1.430 Y8.500 E12.48725
M9
G0 F7200 X8.680 Y8.680
M7
M9
G0 X9.000 Y9.000
M7
;TYPE:WALL-INNER
G1 F2400 X9.000 Y0.500 E12.68711
G1 X0.500 Y0.500 E12.88697
G1 X0.500 Y9.000 E13.08683
G1 X9.000 Y9.000 E13.2867
M9
G0 F7200 X9.500 Y9.500
M7
;TYPE:WALL-OUTER
G1 F1200 X9.500 Y0.000 E13.51007
G1 X0.000 Y0.000 E13.73345
G1 X0.000 Y9.500 E13.95682
G1 X9.500 Y9.500 E14.1802
M9
G0 F7200 X9.500 Y9.250
M7
M9
G0 X8.250 Y8.397
M7
;MESH:NONMESH
M9
G0 F600 X8.250 Y8.397 Z1.2
M7
M9
G0 F7200 X1.000 Y1.429
M7
;TIME_ELAPSED:28.072296
;LAYER:3
;TYPE:FILL
;MESH:cube1.stl
G1 F2400 X1.429 Y1.000 E14.19446
G1 X1.000 Y1.000 E14.20455
G1 X1.000 Y2.136 E14.23126
G1 X2.136 Y1.000 E14.26904
G1 X2.843 Y1.000 E14.28566
G1 X1.000 Y2.843 E14.34694
G1 X1.000 Y3.550 E14.36357
G1 X3.550 Y1.000 E14.44836
G1 X4.257 Y1.000 E14.46499
G1 X1.000 Y4.257 E14.57329
G1 X1.000 Y4.964 E14.58991
G1 X4.964 Y1.000 E14.72173
G1 X5.671 Y1.000 E14.73835
G1 X1.000 Y5.671 E14.89368
G1 X1.000 Y6.378 E14.9103
G1 X6.378 Y1.000 E15.08913
G1 X7.085 Y1.000 E15.10576
G1 X1.000 Y7.085 E15.3081
G1 X1.000 Y7.793 E15.32475
G1 X7.792 Y1.000 E15.55061
G1 X8.500 Y1.000 E15.56726
G1 X1.000 Y8.500 E15.81666
G1 X1.706 Y8.500 E15.83326
G1 X8.500 Y1.707 E16.05916
G1 X8.500 Y2.414 E16.07578
G1 X2.414 Y8.500 E16.27816
G1 X3.121 Y8.500 E16.29478
G1 X8.500 Y3.121 E16.47365
G1 X8.500 Y3.829 E16.4903
G1 X3.828 Y8.500 E16.64564
G1 X4.535 Y8.500 E16.66226
G1 X8.500 Y4.536 E16.79409
G1 X8.500 Y5.243 E16.81071
G1 X5.242 Y8.500 E16.91903
G1 X5.949 Y8.500 E16.93566
G1 X8.500 Y5.950 E17.02047
G1 X8.500 Y6.657 E17.03709
G1 X6.656 Y8.500 E17.09839
G1 X7.363 Y8.500 E17.11502
G1 X8.500 Y7.364 E17.15281
G1 X8.500 Y8.071 E17.16943
G1 X8.070 Y8.500 E17.18372
M9
G0 F7200 X9.000 Y9.000
M7
;TYPE:WALL-INNER
G1 F2400 X9.000 Y0.500 E17.38358
G1 X0.500 Y0.500 E17.58344
G1 X0.500 Y9.000 E17.7833
G1 X9.000 Y9.000 E17.98316
M9
G0 F7200 X9.500 Y9.500
M7
;TYPE:WALL-OUTER
G1 F1200 X9.500 Y0.000 E18.20654
G1 X0.000 Y0.000 E18.42992
G1 X0.000 Y9.500 E18.65329
G1 X9.500 Y9.500 E18.87667
M9
G0 F7200 X9.500 Y9.250
M7
M9
G0 X8.250 Y8.397
M7
;MESH:NONMESH
M9
G0 F600 X8.250 Y8.397 Z1.5
M7
M9
G0 F7200 X8.500 Y1.428
M7
;TIME_ELAPSED:34.434014
;LAYER:4
;TYPE:FILL
;MESH:cube1.stl
G1 F2400 X8.072 Y1.000 E18.8909
G1 X7.365 Y1.000 E18.90752
G1 X8.500 Y2.135 E18.94526
G1 X8.500 Y2.842 E18.96189
G1 X6.658 Y1.000 E19.02314
G1 X5.951 Y1.000 E19.03976
G1 X8.500 Y3.549 E19.12452
G1 X8.500 Y4.256 E19.14115
G1 X5.244 Y1.000 E19.24942
G1 X4.537 Y1.000 E19.26604
G1 X8.500 Y4.963 E19.39782
G1 X8.500 Y5.671 E19.41447
G1 X3.830 Y1.000 E19.56978
G1 X3.123 Y1.000 E19.5864
G1 X8.500 Y6.378 E19.76522
G1 X8.500 Y7.085 E19.78184
G1 X2.416 Y1.000 E19.98417
G1 X1.709 Y1.000 E20.00079
G1 X8.500 Y7.792 E20.22663
G1 X8.500 Y8.499 E20.24325
G1 X1.000 Y1.000 E20.49263
G1 X1.000 Y1.706 E20.50923
G1 X7.794 Y8.500 E20.73515
G1 X7.087 Y8.500 E20.75177
G1 X1.000 Y2.413 E20.95418
G1 X1.000 Y3.120 E20.9708
G1 X6.380 Y8.500 E21.1497
G1 X5.673 Y8.500 E21.16633
G1 X1.000 Y3.827 E21.32172
G1 X1.000 Y4.534 E21.33834
G1 X4.965 Y8.500 E21.4702
G1 X4.258 Y8.500 E21.48683
G1 X1.000 Y5.241 E21.59518
G1 X1.000 Y5.948 E21.61181
G1 X3.551 Y8.500 E21.69665
G1 X2.844 Y8.500 E21.71327
G1 X1.000 Y6.656 E21.77459
G1 X1.000 Y7.363 E21.79122
G1 X2.137 Y8.500 E21.82902
G1 X1.000 Y8.500 E21.85576
G1 X1.000 Y8.070 E21.86587
G1 X1.430 Y8.500 E21.88017
M9
G0 F7200 X8.680 Y8.680
M7
M9
G0 X9.000 Y9.000
M7
;TYPE:WALL-INNER
G1 F2400 X9.000 Y0.500 E22.08003
G1 X0.500 Y0.500 E22.27989
G1 X0.500 Y9.000 E22.47975
G1 X9.000 Y9.000 E22.67962
M9
G0 F7200 X9.500 Y9.500
M7
;TYPE:WALL-OUTER
G1 F1200 X9.500 Y0.000 E22.90299
G1 X0.000 Y0.000 E23.12637
G1 X0.000 Y9.500 E23.34974
G1 X9.500 Y9.500 E23.57312
M9
G0 F7200 X9.500 Y9.250
M7
M9
G0 X8.250 Y8.397
M7
;MESH:NONMESH
M9
G0 F600 X8.250 Y8.397 Z1.8
M7
M9
G0 F7200 X1.000 Y1.429
M7
;TIME_ELAPSED:40.887326
;LAYER:5
;TYPE:FILL
;MESH:cube1.stl
G1 F2400 X1.429 Y1.000 E23.58738
G1 X1.000 Y1.000 E23.59747
G1 X1.000 Y2.136 E23.62418
G1 X2.136 Y1.000 E23.66196
G1 X2.843 Y1.000 E23.67858
G1 X1.000 Y2.843 E23.73987
G1 X1.000 Y3.550 E23.75649
G1 X3.550 Y1.000 E23.84128
G1 X4.257 Y1.000 E23.85791
G1 X1.000 Y4.257 E23.96621
G1 X1.000 Y4.964 E23.98283
G1 X4.964 Y1.000 E24.11465
G1 X5.671 Y1.000 E24.13127
G1 X1.000 Y5.671 E24.2866
G1 X1.000 Y6.378 E24.30322
G1 X6.378 Y1.000 E24.48205
G1 X7.085 Y1.000 E24.49868
G1 X1.000 Y7.085 E24.70102
G1 X1.000 Y7.793 E24.71767
G1 X7.792 Y1.000 E24.94353
G1 X8.500 Y1.000 E24.96018
G1 X1.000 Y8.500 E25.20958
G1 X1.706 Y8.500 E25.22618
G1 X8.500 Y1.707 E25.45208
G1 X8.500 Y2.414 E25.4687
G1 X2.414 Y8.500 E25.67108
G1 X3.121 Y8.500 E25.6877
G1 X8.500 Y3.121 E25.86657
G1 X8.500 Y3.829 E25.88322
G1 X3.828 Y8.500 E26.03856
G1 X4.535 Y8.500 E26.05518
G1 X8.500 Y4.536 E26.18701
G1 X8.500 Y5.243 E26.20363
G1 X5.242 Y8.500 E26.31196
G1 X5.949 Y8.500 E26.32858
G1 X8.500 Y5.950 E26.41339
G1 X8.500 Y6.657 E26.43001
G1 X6.656 Y8.500 E26.49132
G1 X7.363 Y8.500 E26.50794
G1 X8.500 Y7.364 E26.54573
G1 X8.500 Y8.071 E26.56235
G1 X8.070 Y8.500 E26.57664
M9
G0 F7200 X9.000 Y9.000
M7
;TYPE:WALL-INNER
G1 F2400 X9.000 Y0.500 E26.7765
G1 X0.500 Y0.500 E26.97636
G1 X0.500 Y9.000 E27.17622
G1 X9.000 Y9.000 E27.37609
M9
G0 F7200 X9.500 Y9.500
M7
;TYPE:WALL-OUTER
G1 F1200 X9.500 Y0.000 E27.59946
G1 X0.000 Y0.000 E27.82284
G1 X0.000 Y9.500 E28.04621
G1 X9.500 Y9.500 E28.26959
M9
G0 F7200 X9.500 Y9.250
M7
M9
G0 X8.250 Y8.397
M7
;MESH:NONMESH
M9
G0 F600 X8.250 Y8.397 Z2.1
M7
M9
G0 F7200 X8.500 Y1.428
M7
;TIME_ELAPSED:47.249045
;LAYER:6
;TYPE:FILL
;MESH:cube1.stl
G1 F2400 X8.072 Y1.000 E28.28382
G1 X7.365 Y1.000 E28.30044
G1 X8.500 Y2.135 E28.33818
G1 X8.500 Y2.842 E28.35481
G1 X6.658 Y1.000 E28.41606
G1 X5.951 Y1.000 E28.43268
G1 X8.500 Y3.549 E28.51744
G1 X8.500 Y4.256 E28.53407
G1 X5.244 Y1.000 E28.64234
G1 X4.537 Y1.000 E28.65896
G1 X8.500 Y4.963 E28.79074
G1 X8.500 Y5.671 E28.80739
G1 X3.830 Y1.000 E28.9627
G1 X3.123 Y1.000 E28.97932
G1 X8.500 Y6.378 E29.15814
G1 X8.500 Y7.085 E29.17476
G1 X2.416 Y1.000 E29.37709
G1 X1.709 Y1.000 E29.39371
G1 X8.500 Y7.792 E29.61955
G1 X8.500 Y8.499 E29.63617
G1 X1.000 Y1.000 E29.88555
G1 X1.000 Y1.706 E29.90215
G1 X7.794 Y8.500 E30.12807
G1 X7.087 Y8.500 E30.14469
G1 X1.000 Y2.413 E30.3471
G1 X1.000 Y3.120 E30.36372
G1 X6.380 Y8.500 E30.54262
G1 X5.673 Y8.500 E30.55925
G1 X1.000 Y3.827 E30.71464
G1 X1.000 Y4.534 E30.73126
G1 X4.965 Y8.500 E30.86312
G1 X4.258 Y8.500 E30.87975
G1 X1.000 Y5.241 E30.9881
G1 X1.000 Y5.948 E31.00473
G1 X3.551 Y8.500 E31.08957
G1 X2.844 Y8.500 E31.10619
G1 X1.000 Y6.656 E31.16751
G1 X1.000 Y7.363 E31.18414
G1 X2.137 Y8.500 E31.22194
G1 X1.000 Y8.500 E31.24868
G1 X1.000 Y8.070 E31.25879
G1 X1.430 Y8.500 E31.27309
M9
G0 F7200 X8.680 Y8.680
M7
M9
G0 X9.000 Y9.000
M7
;TYPE:WALL-INNER
G1 F2400 X9.000 Y0.500 E31.47295
G1 X0.500 Y0.500 E31.67281
G1 X0.500 Y9.000 E31.87267
G1 X9.000 Y9.000 E32.07254
M9
G0 F7200 X9.500 Y9.500
M7
;TYPE:WALL-OUTER
G1 F1200 X9.500 Y0.000 E32.29591
G1 X0.000 Y0.000 E32.51929
G1 X0.000 Y9.500 E32.74266
G1 X9.500 Y9.500 E32.96604
M9
G0 F7200 X9.500 Y9.250
M7
M9
G0 X8.250 Y8.397
M7
;MESH:NONMESH
M9
G0 F600 X8.250 Y8.397 Z2.4
M7
M9
G0 F7200 X1.000 Y1.429
M7
;TIME_ELAPSED:53.702356
;LAYER:7
;TYPE:FILL
;MESH:cube1.stl
G1 F2400 X1.429 Y1.000 E32.9803
G1 X1.000 Y1.000 E32.99039
G1 X1.000 Y2.136 E33.0171
G1 X2.136 Y1.000 E33.05488
G1 X2.843 Y1.000 E33.0715
G1 X1.000 Y2.843 E33.13279
G1 X1.000 Y3.550 E33.14941
G1 X3.550 Y1.000 E33.2342
G1 X4.257 Y1.000 E33.25083
G1 X1.000 Y4.257 E33.35913
G1 X1.000 Y4.964 E33.37576
G1 X4.964 Y1.000 E33.50757
G1 X5.671 Y1.000 E33.52419
G1 X1.000 Y5.671 E33.67952
G1 X1.000 Y6.378 E33.69614
G1 X6.378 Y1.000 E33.87497
G1 X7.085 Y1.000 E33.8916
G1 X1.000 Y7.085 E34.09394
G1 X1.000 Y7.793 E34.11059
G1 X7.792 Y1.000 E34.33646
G1 X8.500 Y1.000 E34.3531
G1 X1.000 Y8.500 E34.6025
G1 X1.706 Y8.500 E34.6191
G1 X8.500 Y1.707 E34.845
G1 X8.500 Y2.414 E34.86162
G1 X2.414 Y8.500 E35.064
G1 X3.121 Y8.500 E35.08062
G1 X8.500 Y3.121 E35.25949
G1 X8.500 Y3.829 E35.27614
G1 X3.828 Y8.500 E35.43148
G1 X4.535 Y8.500 E35.4481
G1 X8.500 Y4.536 E35.57993
G1 X8.500 Y5.243 E35.59656
G1 X5.242 Y8.500 E35.70488
G1 X5.949 Y8.500 E35.7215
G1 X8.500 Y5.950 E35.80631
G1 X8.500 Y6.657 E35.82293
G1 X6.656 Y8.500 E35.88424
G1 X7.363 Y8.500 E35.90086
G1 X8.500 Y7.364 E35.93865
G1 X8.500 Y8.071 E35.95527
G1 X8.070 Y8.500 E35.96956
M9
G0 F7200 X9.000 Y9.000
M7
;TYPE:WALL-INNER
G1 F2400 X9.000 Y0.500 E36.16942
G1 X0.500 Y0.500 E36.36928
G1 X0.500 Y9.000 E36.56914
G1 X9.000 Y9.000 E36.76901
M9
G0 F7200 X9.500 Y9.500
M7
;TYPE:WALL-OUTER
G1 F1200 X9.500 Y0.000 E36.99238
G1 X0.000 Y0.000 E37.21576
G1 X0.000 Y9.500 E37.43913
G1 X9.500 Y9.500 E37.66251
M9
G0 F7200 X9.500 Y9.250
M7
M9
G0 X8.250 Y8.397
M7
;MESH:NONMESH
M9
G0 F600 X8.250 Y8.397 Z2.7
M7
M9
G0 F7200 X8.500 Y1.428
M7
;TIME_ELAPSED:60.064075
;LAYER:8
;TYPE:FILL
;MESH:cube1.stl
G1 F2400 X8.072 Y1.000 E37.67674
G1 X7.365 Y1.000 E37.69336
G1 X8.500 Y2.135 E37.7311
G1 X8.500 Y2.842 E37.74773
G1 X6.658 Y1.000 E37.80898
G1 X5.951 Y1.000 E37.8256
G1 X8.500 Y3.549 E37.91037
G1 X8.500 Y4.256 E37.92699
G1 X5.244 Y1.000 E38.03526
G1 X4.537 Y1.000 E38.05188
G1 X8.500 Y4.963 E38.18366
G1 X8.500 Y5.671 E38.20031
G1 X3.830 Y1.000 E38.35562
G1 X3.123 Y1.000 E38.37224
G1 X8.500 Y6.378 E38.55106
G1 X8.500 Y7.085 E38.56768
G1 X2.416 Y1.000 E38.77001
G1 X1.709 Y1.000 E38.78663
G1 X8.500 Y7.792 E39.01247
G1 X8.500 Y8.499 E39.02909
G1 X1.000 Y1.000 E39.27847
G1 X1.000 Y1.706 E39.29507
G1 X7.794 Y8.500 E39.52099
G1 X7.087 Y8.500 E39.53761
G1 X1.000 Y2.413 E39.74002
G1 X1.000 Y3.120 E39.75665
G1 X6.380 Y8.500 E39.93554
G1 X5.673 Y8.500 E39.95217
G1 X1.000 Y3.827 E40.10756
G1 X1.000 Y4.534 E40.12418
G1 X4.965 Y8.500 E40.25605
G1 X4.258 Y8.500 E40.27267
G1 X1.000 Y5.241 E40.38102
G1 X1.000 Y5.948 E40.39765
G1 X3.551 Y8.500 E40.48249
G1 X2.844 Y8.500 E40.49912
G1 X1.000 Y6.656 E40.56043
G1 X1.000 Y7.363 E40.57706
G1 X2.137 Y8.500 E40.61487
G1 X1.000 Y8.500 E40.6416
G1 X1.000 Y8.070 E40.65171
G1 X1.430 Y8.500 E40.66601
M9
G0 F7200 X8.680 Y8.680
M7
M9
G0 X9.000 Y9.000
M7
;TYPE:WALL-INNER
G1 F2400 X9.000 Y0.500 E40.86587
G1 X0.500 Y0.500 E41.06573
G1 X0.500 Y9.000 E41.2656
G1 X9.000 Y9.000 E41.46546
M9
G0 F7200 X9.500 Y9.500
M7
;TYPE:WALL-OUTER
G1 F1200 X9.500 Y0.000 E41.68883
G1 X0.000 Y0.000 E41.91221
G1 X0.000 Y9.500 E42.13558
G1 X9.500 Y9.500 E42.35896
M9
G0 F7200 X9.500 Y9.250
M7
M9
G0 X8.250 Y8.397
M7
;MESH:NONMESH
M9
G0 F600 X8.250 Y8.397 Z3
M7
M9
G0 F7200 X1.000 Y1.429
M7
;TIME_ELAPSED:66.517386
;LAYER:9
;TYPE:FILL
;MESH:cube1.stl
G1 F2400 X1.429 Y1.000 E42.37322
G1 X1.000 Y1.000 E42.38331
G1 X1.000 Y2.136 E42.41002
G1 X2.136 Y1.000 E42.4478
G1 X2.843 Y1.000 E42.46442
G1 X1.000 Y2.843 E42.52571
G1 X1.000 Y3.550 E42.54233
G1 X3.550 Y1.000 E42.62712
G1 X4.257 Y1.000 E42.64375
G1 X1.000 Y4.257 E42.75205
G1 X1.000 Y4.964 E42.76868
G1 X4.964 Y1.000 E42.90049
G1 X5.671 Y1.000 E42.91711
G1 X1.000 Y5.671 E43.07244
G1 X1.000 Y6.378 E43.08906
