;FLAVOR:Marlin
;TIME:860
;Filament used: 0.535751m
;Layer height: 0.4
;LAYER_COUNT:38
;LAYER:0
;MESH:cube1-5.STL

G21 ;start of the code
G1 Z15 F300
G28 X0 Y0 ;Home
G92 X0 Y0 ;Consider this as current
G0 X50 Y50 F3000 ;Go-to Offset
G92 X0 Y0 ;Reset

G0 F3600 X14.000 Y14.000 Z0.3
M7
;TYPE:WALL-INNER
G1 F1200 X14.000 Y0.500 E0.31743
G1 X0.500 Y0.500 E0.63486
G1 X0.500 Y14.000 E0.95228
G1 X14.000 Y14.000 E1.26971
G0 F3600 X14.500 Y14.500
;TYPE:WALL-OUTER
G1 F1200 X14.500 Y0.000 E1.61065
G1 X0.000 Y0.000 E1.9516
G1 X0.000 Y14.500 E2.29254
G1 X14.500 Y14.500 E2.63348
G0 F3600 X14.500 Y14.250
G0 X13.680 Y13.680
G0 X13.524 Y13.524
;TYPE:SKIN
G1 F1200 X0.972 Y13.524 E2.92862
G1 X0.972 Y0.972 E3.22375
G1 X13.524 Y0.972 E3.51889
G1 X13.524 Y13.524 E3.81403
G0 F3600 X13.274 Y1.960
G1 F1200 X12.536 Y1.222 E3.83857
G0 F3600 X11.829 Y1.222
G1 F1200 X13.274 Y2.667 E3.88662
G0 F3600 X13.274 Y3.375
G1 F1200 X11.122 Y1.222 E3.9582
G0 F3600 X10.415 Y1.222
G1 F1200 X13.274 Y4.082 E4.05328
G0 F3600 X13.274 Y4.789
G1 F1200 X9.707 Y1.222 E4.17189
G0 F3600 X9.000 Y1.222
G1 F1200 X13.274 Y5.496 E4.31402
G0 F3600 X13.274 Y6.203
G1 F1200 X8.293 Y1.222 E4.47965
G0 F3600 X7.586 Y1.222
G1 F1200 X13.274 Y6.910 E4.66879
G0 F3600 X13.274 Y7.617
G1 F1200 X6.879 Y1.222 E4.88144
G0 F3600 X6.172 Y1.222
G1 F1200 X13.274 Y8.324 E5.1176
G0 F3600 X13.274 Y9.031
G1 F1200 X5.465 Y1.222 E5.37727
G0 F3600 X4.758 Y1.222
G1 F1200 X13.274 Y9.739 E5.66047
G0 F3600 X13.274 Y10.446
G1 F1200 X4.051 Y1.222 E5.96717
G0 F3600 X3.343 Y1.222
G1 F1200 X13.274 Y11.153 E6.29741
G0 F3600 X13.274 Y11.860
G1 F1200 X2.636 Y1.222 E6.65115
G0 F3600 X1.929 Y1.222
G1 F1200 X13.274 Y12.567 E7.0284
G0 F3600 X13.274 Y13.274
G1 F1200 X1.222 Y1.222 E7.42916
G0 F3600 X1.222 Y1.929
G1 F1200 X12.567 Y13.274 E7.80641
G0 F3600 X11.860 Y13.274
G1 F1200 X1.222 Y2.636 E8.16015
G0 F3600 X1.222 Y3.343
G1 F1200 X11.153 Y13.274 E8.49039
G0 F3600 X10.446 Y13.274
G1 F1200 X1.222 Y4.051 E8.79709
G0 F3600 X1.222 Y4.758
G1 F1200 X9.739 Y13.274 E9.08029
G0 F3600 X9.031 Y13.274
G1 F1200 X1.222 Y5.465 E9.33996
G0 F3600 X1.222 Y6.172
G1 F1200 X8.324 Y13.274 E9.57612
G0 F3600 X7.617 Y13.274
G1 F1200 X1.222 Y6.879 E9.78877
G0 F3600 X1.222 Y7.586
G1 F1200 X6.910 Y13.274 E9.97791
G0 F3600 X6.203 Y13.274
G1 F1200 X1.222 Y8.293 E10.14354
G0 F3600 X1.222 Y9.000
G1 F1200 X5.496 Y13.274 E10.28567
G0 F3600 X4.789 Y13.274
G1 F1200 X1.222 Y9.707 E10.40428
G0 F3600 X1.222 Y10.415
G1 F1200 X4.082 Y13.274 E10.49936
G0 F3600 X3.375 Y13.274
G1 F1200 X1.222 Y11.122 E10.57094
G0 F3600 X1.222 Y11.829
G1 F1200 X2.667 Y13.274 E10.61899
G0 F3600 X1.960 Y13.274
G1 F1200 X1.222 Y12.536 E10.64353
G1 X1.134 Y12.448
G0 F3600 X1.250 Y12.448
;MESH:NONMESH
G0 F600 X1.250 Y12.448 Z0.7
G0 F3600 X13.680 Y13.680
G0 X14.000 Y14.000
;TIME_ELAPSED:28.855755
;LAYER:1
;TYPE:WALL-INNER
;MESH:cube1-5.STL
G1 F1200 X14.000 Y0.500 E11.06677
G1 X0.500 Y0.500 E11.49001
G1 X0.500 Y14.000 E11.91324
G1 X14.000 Y14.000 E12.33648
G0 F5400 X14.500 Y14.500
;TYPE:WALL-OUTER
G1 F1200 X14.500 Y0.000 E12.79107
G1 X0.000 Y0.000 E13.24566
G1 X0.000 Y14.500 E13.70025
G1 X14.500 Y14.500 E14.15483
G0 F5400 X14.500 Y14.250
G0 X13.680 Y13.680
G0 X13.524 Y13.524
;TYPE:SKIN
G1 F1200 X0.972 Y13.524 E14.54835
G1 X0.972 Y0.972 E14.94187
G1 X13.524 Y0.972 E15.33538
G1 X13.524 Y13.524 E15.7289
G0 F5400 X12.762 Y13.274
G1 F1200 X13.274 Y12.762 E15.7516
G0 F5400 X13.274 Y12.055
G1 F1200 X12.055 Y13.274 E15.80565
G0 F5400 X11.348 Y13.274
G1 F1200 X13.274 Y11.348 E15.89104
G0 F5400 X13.274 Y10.641
G1 F1200 X10.641 Y13.274 E16.00778
G0 F5400 X9.934 Y13.274
G1 F1200 X13.274 Y9.934 E16.15587
G0 F5400 X13.274 Y9.227
G1 F1200 X9.227 Y13.274 E16.3353
G0 F5400 X8.519 Y13.274
G1 F1200 X13.274 Y8.519 E16.54612
G0 F5400 X13.274 Y7.812
G1 F1200 X7.812 Y13.274 E16.78829
G0 F5400 X7.105 Y13.274
G1 F1200 X13.274 Y7.105 E17.0618
G0 F5400 X13.274 Y6.398
G1 F1200 X6.398 Y13.274 E17.36666
G0 F5400 X5.691 Y13.274
G1 F1200 X13.274 Y5.691 E17.70287
G0 F5400 X13.274 Y4.984
G1 F1200 X4.984 Y13.274 E18.07042
G0 F5400 X4.277 Y13.274
G1 F1200 X13.274 Y4.277 E18.46932
G0 F5400 X13.274 Y3.570
G1 F1200 X3.570 Y13.274 E18.89957
G0 F5400 X2.863 Y13.274
G1 F1200 X13.274 Y2.863 E19.36116
G0 F5400 X13.274 Y2.155
G1 F1200 X2.155 Y13.274 E19.85414
G0 F5400 X1.448 Y13.274
G1 F1200 X13.274 Y1.448 E20.37847
G0 F5400 X12.793 Y1.222
G1 F1200 X1.222 Y12.793 E20.89149
G0 F5400 X1.222 Y12.086
G1 F1200 X12.086 Y1.222 E21.37317
G0 F5400 X11.379 Y1.222
G1 F1200 X1.222 Y11.379 E21.8235
G0 F5400 X1.222 Y10.672
G1 F1200 X10.672 Y1.222 E22.24248
G0 F5400 X9.965 Y1.222
G1 F1200 X1.222 Y9.965 E22.63012
G0 F5400 X1.222 Y9.258
G1 F1200 X9.258 Y1.222 E22.98641
G0 F5400 X8.551 Y1.222
G1 F1200 X1.222 Y8.551 E23.31136
G0 F5400 X1.222 Y7.843
G1 F1200 X7.843 Y1.222 E23.60491
G0 F5400 X7.136 Y1.222
G1 F1200 X1.222 Y7.136 E23.86712
G0 F5400 X1.222 Y6.429
G1 F1200 X6.429 Y1.222 E24.09798
G0 F5400 X5.722 Y1.222
G1 F1200 X1.222 Y5.722 E24.2975
G0 F5400 X1.222 Y5.015
G1 F1200 X5.015 Y1.222 E24.46567
G0 F5400 X4.308 Y1.222
G1 F1200 X1.222 Y4.308 E24.60249
G0 F5400 X1.222 Y3.601
G1 F1200 X3.601 Y1.222 E24.70797
G0 F5400 X2.894 Y1.222
G1 F1200 X1.222 Y2.894 E24.7821
G0 F5400 X1.222 Y2.187
G1 F1200 X2.187 Y1.222 E24.82488
G0 F5400 X1.480 Y1.222
G1 F1200 X1.222 Y1.480 E24.83632
G0 F5400 X1.250 Y1.480
;MESH:NONMESH
G0 F600 X1.250 Y1.480 Z1.1
G0 F5400 X13.680 Y13.680
G0 X14.000 Y14.000
;TIME_ELAPSED:51.771238
;LAYER:2
;TYPE:WALL-INNER
;MESH:cube1-5.STL
G1 F1200 X14.000 Y0.500 E25.25956
G1 X0.500 Y0.500 E25.6828
G1 X0.500 Y14.000 E26.10604
G1 X14.000 Y14.000 E26.52927
G0 F7200 X14.500 Y14.500
;TYPE:WALL-OUTER
G1 F1200 X14.500 Y0.000 E26.98386
G1 X0.000 Y0.000 E27.43845
G1 X0.000 Y14.500 E27.89304
G1 X14.500 Y14.500 E28.34763
G0 F7200 X14.500 Y14.250
G0 X13.680 Y13.680
G0 X13.524 Y13.524
;TYPE:SKIN
G1 F1200 X0.972 Y13.524 E28.74114
G1 X0.972 Y0.972 E29.13466
G1 X13.524 Y0.972 E29.52818
G1 X13.524 Y13.524 E29.92169
G0 F7200 X13.274 Y1.960
G1 F1200 X12.536 Y1.222 E29.95441
G0 F7200 X11.829 Y1.222
G1 F1200 X13.274 Y2.667 E30.01848
G0 F7200 X13.274 Y3.375
G1 F1200 X11.122 Y1.222 E30.11392
G0 F7200 X10.415 Y1.222
G1 F1200 X13.274 Y4.082 E30.2407
G0 F7200 X13.274 Y4.789
G1 F1200 X9.707 Y1.222 E30.39885
G0 F7200 X9.000 Y1.222
G1 F1200 X13.274 Y5.496 E30.58834
G0 F7200 X13.274 Y6.203
G1 F1200 X8.293 Y1.222 E30.80919
G0 F7200 X7.586 Y1.222
G1 F1200 X13.274 Y6.910 E31.06137
G0 F7200 X13.274 Y7.617
G1 F1200 X6.879 Y1.222 E31.34491
G0 F7200 X6.172 Y1.222
G1 F1200 X13.274 Y8.324 E31.65979
G0 F7200 X13.274 Y9.031
G1 F1200 X5.465 Y1.222 E32.00602
G0 F7200 X4.758 Y1.222
G1 F1200 X13.274 Y9.739 E32.38361
G0 F7200 X13.274 Y10.446
G1 F1200 X4.051 Y1.222 E32.79255
G0 F7200 X3.343 Y1.222
G1 F1200 X13.274 Y11.153 E33.23286
G0 F7200 X13.274 Y11.860
G1 F1200 X2.636 Y1.222 E33.70452
G0 F7200 X1.929 Y1.222
G1 F1200 X13.274 Y12.567 E34.20752
G0 F7200 X13.274 Y13.274
G1 F1200 X1.222 Y1.222 E34.74187
G0 F7200 X1.222 Y1.929
G1 F1200 X12.567 Y13.274 E35.24487
G0 F7200 X11.860 Y13.274
G1 F1200 X1.222 Y2.636 E35.71653
G0 F7200 X1.222 Y3.343
G1 F1200 X11.153 Y13.274 E36.15684
G0 F7200 X10.446 Y13.274
G1 F1200 X1.222 Y4.051 E36.56578
G0 F7200 X1.222 Y4.758
G1 F1200 X9.739 Y13.274 E36.94337
G0 F7200 X9.031 Y13.274
G1 F1200 X1.222 Y5.465 E37.2896
G0 F7200 X1.222 Y6.172
G1 F1200 X8.324 Y13.274 E37.60448
G0 F7200 X7.617 Y13.274
G1 F1200 X1.222 Y6.879 E37.88802
G0 F7200 X1.222 Y7.586
G1 F1200 X6.910 Y13.274 E38.14021
G0 F7200 X6.203 Y13.274
G1 F1200 X1.222 Y8.293 E38.36105
G0 F7200 X1.222 Y9.000
G1 F1200 X5.496 Y13.274 E38.55054
G0 F7200 X4.789 Y13.274
G1 F1200 X1.222 Y9.707 E38.70869
G0 F7200 X1.222 Y10.415
G1 F1200 X4.082 Y13.274 E38.83547
G0 F7200 X3.375 Y13.274
G1 F1200 X1.222 Y11.122 E38.93091
G0 F7200 X1.222 Y11.829
G1 F1200 X2.667 Y13.274 E38.99498
G0 F7200 X1.960 Y13.274
G1 F1200 X1.222 Y12.536 E39.0277
G1 X1.134 Y12.448
G0 F7200 X1.250 Y12.448
;MESH:NONMESH
G0 F600 X1.250 Y12.448 Z1.5
G0 F7200 X13.680 Y13.680
G0 X14.000 Y14.000
;TIME_ELAPSED:74.263409
;LAYER:3
;TYPE:WALL-INNER
;MESH:cube1-5.STL
G1 F1200 X14.000 Y0.500 E39.45093
G1 X0.500 Y0.500 E39.87417
G1 X0.500 Y14.000 E40.29741
G1 X14.000 Y14.000 E40.72065
G0 F7200 X14.500 Y14.500
;TYPE:WALL-OUTER
G1 F1200 X14.500 Y0.000 E41.17524
G1 X0.000 Y0.000 E41.62982
G1 X0.000 Y14.500 E42.08441
G1 X14.500 Y14.500 E42.539
G0 F7200 X14.500 Y14.250
G0 X13.680 Y13.680
G0 X13.524 Y13.524
;TYPE:SKIN
G1 F1200 X0.972 Y13.524 E42.93252
G1 X0.972 Y0.972 E43.32603
G1 X13.524 Y0.972 E43.71955
G1 X13.524 Y13.524 E44.11307
G0 F7200 X12.762 Y13.274
G1 F1200 X13.274 Y12.762 E44.13577
G0 F7200 X13.274 Y12.055
G1 F1200 X12.055 Y13.274 E44.18982
G0 F7200 X11.348 Y13.274
G1 F1200 X13.274 Y11.348 E44.27521
G0 F7200 X13.274 Y10.641
G1 F1200 X10.641 Y13.274 E44.39195
G0 F7200 X9.934 Y13.274
G1 F1200 X13.274 Y9.934 E44.54003
G0 F7200 X13.274 Y9.227
G1 F1200 X9.227 Y13.274 E44.71946
G0 F7200 X8.519 Y13.274
G1 F1200 X13.274 Y8.519 E44.93029
G0 F7200 X13.274 Y7.812
G1 F1200 X7.812 Y13.274 E45.17245
G0 F7200 X7.105 Y13.274
G1 F1200 X13.274 Y7.105 E45.44597
G0 F7200 X13.274 Y6.398
G1 F1200 X6.398 Y13.274 E45.75083
G0 F7200 X5.691 Y13.274
G1 F1200 X13.274 Y5.691 E46.08704
G0 F7200 X13.274 Y4.984
G1 F1200 X4.984 Y13.274 E46.45459
G0 F7200 X4.277 Y13.274
G1 F1200 X13.274 Y4.277 E46.85349
G0 F7200 X13.274 Y3.570
G1 F1200 X3.570 Y13.274 E47.28373
G0 F7200 X2.863 Y13.274
G1 F1200 X13.274 Y2.863 E47.74532
G0 F7200 X13.274 Y2.155
G1 F1200 X2.155 Y13.274 E48.23831
G0 F7200 X1.448 Y13.274
G1 F1200 X13.274 Y1.448 E48.76264
G0 F7200 X12.793 Y1.222
G1 F1200 X1.222 Y12.793 E49.27566
G0 F7200 X1.222 Y12.086
G1 F1200 X12.086 Y1.222 E49.75733
G0 F7200 X11.379 Y1.222
G1 F1200 X1.222 Y11.379 E50.20766
G0 F7200 X1.222 Y10.672
G1 F1200 X10.672 Y1.222 E50.62665
G0 F7200 X9.965 Y1.222
G1 F1200 X1.222 Y9.965 E51.01429
G0 F7200 X1.222 Y9.258
G1 F1200 X9.258 Y1.222 E51.37058
G0 F7200 X8.551 Y1.222
G1 F1200 X1.222 Y8.551 E51.69552
G0 F7200 X1.222 Y7.843
G1 F1200 X7.843 Y1.222 E51.98908
G0 F7200 X7.136 Y1.222
G1 F1200 X1.222 Y7.136 E52.25128
G0 F7200 X1.222 Y6.429
G1 F1200 X6.429 Y1.222 E52.48215
G0 F7200 X5.722 Y1.222
G1 F1200 X1.222 Y5.722 E52.68166
G0 F7200 X1.222 Y5.015
G1 F1200 X5.015 Y1.222 E52.84983
G0 F7200 X4.308 Y1.222
G1 F1200 X1.222 Y4.308 E52.98666
G0 F7200 X1.222 Y3.601
G1 F1200 X3.601 Y1.222 E53.09213
G0 F7200 X2.894 Y1.222
G1 F1200 X1.222 Y2.894 E53.16627
G0 F7200 X1.222 Y2.187
G1 F1200 X2.187 Y1.222 E53.20905
G0 F7200 X1.480 Y1.222
G1 F1200 X1.222 Y1.480 E53.22049
G0 F7200 X1.250 Y1.480
;MESH:NONMESH
G0 F600 X1.250 Y1.480 Z1.9
G0 F7200 X13.680 Y13.680
G0 X14.000 Y14.000
;TIME_ELAPSED:96.704911
;LAYER:4
;TYPE:WALL-INNER
;MESH:cube1-5.STL
G1 F1200 X14.000 Y0.500 E53.64373
G1 X0.500 Y0.500 E54.06696
G1 X0.500 Y14.000 E54.4902
G1 X14.000 Y14.000 E54.91344
G0 F7200 X14.500 Y14.500
;TYPE:WALL-OUTER
G1 F1200 X14.500 Y0.000 E55.36803
G1 X0.000 Y0.000 E55.82262
G1 X0.000 Y14.500 E56.27721
G1 X14.500 Y14.500 E56.73179
G0 F7200 X14.500 Y14.250
G0 X13.680 Y13.680
G0 X13.524 Y13.524
;TYPE:SKIN
G1 F1200 X0.972 Y13.524 E57.12531
G1 X0.972 Y0.972 E57.51883
G1 X13.524 Y0.972 E57.91234
G1 X13.524 Y13.524 E58.30586
G0 F7200 X13.274 Y1.960
G1 F1200 X12.536 Y1.222 E58.33858
G0 F7200 X11.829 Y1.222
G1 F1200 X13.274 Y2.667 E58.40265
G0 F7200 X13.274 Y3.375
G1 F1200 X11.122 Y1.222 E58.49808
G0 F7200 X10.415 Y1.222
G1 F1200 X13.274 Y4.082 E58.62486
G0 F7200 X13.274 Y4.789
G1 F1200 X9.707 Y1.222 E58.78301
G0 F7200 X9.000 Y1.222
G1 F1200 X13.274 Y5.496 E58.97251
G0 F7200 X13.274 Y6.203
G1 F1200 X8.293 Y1.222 E59.19335
G0 F7200 X7.586 Y1.222
G1 F1200 X13.274 Y6.910 E59.44554
G0 F7200 X13.274 Y7.617
G1 F1200 X6.879 Y1.222 E59.72908
G0 F7200 X6.172 Y1.222
G1 F1200 X13.274 Y8.324 E60.04396
G0 F7200 X13.274 Y9.031
G1 F1200 X5.465 Y1.222 E60.39018
G0 F7200 X4.758 Y1.222
G1 F1200 X13.274 Y9.739 E60.76778
G0 F7200 X13.274 Y10.446
G1 F1200 X4.051 Y1.222 E61.17672
G0 F7200 X3.343 Y1.222
G1 F1200 X13.274 Y11.153 E61.61703
G0 F7200 X13.274 Y11.860
G1 F1200 X2.636 Y1.222 E62.08869
G0 F7200 X1.929 Y1.222
G1 F1200 X13.274 Y12.567 E62.59169
G0 F7200 X13.274 Y13.274
G1 F1200 X1.222 Y1.222 E63.12604
G0 F7200 X1.222 Y1.929
G1 F1200 X12.567 Y13.274 E63.62904
G0 F7200 X11.860 Y13.274
G1 F1200 X1.222 Y2.636 E64.10069
G0 F7200 X1.222 Y3.343
G1 F1200 X11.153 Y13.274 E64.541
G0 F7200 X10.446 Y13.274
G1 F1200 X1.222 Y4.051 E64.94995
G0 F7200 X1.222 Y4.758
G1 F1200 X9.739 Y13.274 E65.32754
G0 F7200 X9.031 Y13.274
G1 F1200 X1.222 Y5.465 E65.67377
G0 F7200 X1.222 Y6.172
G1 F1200 X8.324 Y13.274 E65.98865
G0 F7200 X7.617 Y13.274
G1 F1200 X1.222 Y6.879 E66.27218
G0 F7200 X1.222 Y7.586
G1 F1200 X6.910 Y13.274 E66.52437
G0 F7200 X6.203 Y13.274
G1 F1200 X1.222 Y8.293 E66.74521
G0 F7200 X1.222 Y9.000
G1 F1200 X5.496 Y13.274 E66.93471
G0 F7200 X4.789 Y13.274
G1 F1200 X1.222 Y9.707 E67.09286
G0 F7200 X1.222 Y10.415
G1 F1200 X4.082 Y13.274 E67.21964
G0 F7200 X3.375 Y13.274
G1 F1200 X1.222 Y11.122 E67.31508
G0 F7200 X1.222 Y11.829
G1 F1200 X2.667 Y13.274 E67.37914
G0 F7200 X1.960 Y13.274
G1 F1200 X1.222 Y12.536 E67.41186
G1 X1.134 Y12.448
G0 F7200 X1.250 Y12.448
;MESH:NONMESH
G0 F600 X1.250 Y12.448 Z2.3
G0 F7200 X13.680 Y13.680
G0 X14.000 Y14.000
;TIME_ELAPSED:119.197082
;LAYER:5
;TYPE:WALL-INNER
;MESH:cube1-5.STL
G1 F1200 X14.000 Y0.500 E67.8351
G1 X0.500 Y0.500 E68.25834
G1 X0.500 Y14.000 E68.68158
G1 X14.000 Y14.000 E69.10481
G0 F7200 X14.500 Y14.500
;TYPE:WALL-OUTER
G1 F1200 X14.500 Y0.000 E69.5594
G1 X0.000 Y0.000 E70.01399
G1 X0.000 Y14.500 E70.46858
G1 X14.500 Y14.500 E70.92317
G0 F7200 X14.500 Y14.250
G0 X13.680 Y13.680
G0 X13.524 Y13.524
;TYPE:SKIN
G1 F1200 X0.972 Y13.524 E71.31668
G1 X0.972 Y0.972 E71.7102
G1 X13.524 Y0.972 E72.10372
G1 X13.524 Y13.524 E72.49723
G0 F7200 X12.762 Y13.274
G1 F1200 X13.274 Y12.762 E72.51994
G0 F7200 X13.274 Y12.055
G1 F1200 X12.055 Y13.274 E72.57398
G0 F7200 X11.348 Y13.274
G1 F1200 X13.274 Y11.348 E72.65937
G0 F7200 X13.274 Y10.641
G1 F1200 X10.641 Y13.274 E72.77611
G0 F7200 X9.934 Y13.274
G1 F1200 X13.274 Y9.934 E72.9242
G0 F7200 X13.274 Y9.227
G1 F1200 X9.227 Y13.274 E73.10363
G0 F7200 X8.519 Y13.274
G1 F1200 X13.274 Y8.519 E73.31445
G0 F7200 X13.274 Y7.812
G1 F1200 X7.812 Y13.274 E73.55662
G0 F7200 X7.105 Y13.274
G1 F1200 X13.274 Y7.105 E73.83014
G0 F7200 X13.274 Y6.398
G1 F1200 X6.398 Y13.274 E74.135
G0 F7200 X5.691 Y13.274
G1 F1200 X13.274 Y5.691 E74.4712
G0 F7200 X13.274 Y4.984
G1 F1200 X4.984 Y13.274 E74.83876
G0 F7200 X4.277 Y13.274
G1 F1200 X13.274 Y4.277 E75.23765
G0 F7200 X13.274 Y3.570
G1 F1200 X3.570 Y13.274 E75.6679
G0 F7200 X2.863 Y13.274
G1 F1200 X13.274 Y2.863 E76.12949
G0 F7200 X13.274 Y2.155
G1 F1200 X2.155 Y13.274 E76.62247
G0 F7200 X1.448 Y13.274
G1 F1200 X13.274 Y1.448 E77.1468
G0 F7200 X12.793 Y1.222
G1 F1200 X1.222 Y12.793 E77.65982
G0 F7200 X1.222 Y12.086
G1 F1200 X12.086 Y1.222 E78.1415
G0 F7200 X11.379 Y1.222
G1 F1200 X1.222 Y11.379 E78.59183
G0 F7200 X1.222 Y10.672
G1 F1200 X10.672 Y1.222 E79.01081
G0 F7200 X9.965 Y1.222
G1 F1200 X1.222 Y9.965 E79.39845
G0 F7200 X1.222 Y9.258
G1 F1200 X9.258 Y1.222 E79.75474
G0 F7200 X8.551 Y1.222
G1 F1200 X1.222 Y8.551 E80.07969
G0 F7200 X1.222 Y7.843
G1 F1200 X7.843 Y1.222 E80.37324
G0 F7200 X7.136 Y1.222
G1 F1200 X1.222 Y7.136 E80.63545
G0 F7200 X1.222 Y6.429
G1 F1200 X6.429 Y1.222 E80.86631
G0 F7200 X5.722 Y1.222
G1 F1200 X1.222 Y5.722 E81.06583
G0 F7200 X1.222 Y5.015
G1 F1200 X5.015 Y1.222 E81.234
G0 F7200 X4.308 Y1.222
G1 F1200 X1.222 Y4.308 E81.37082
G0 F7200 X1.222 Y3.601
G1 F1200 X3.601 Y1.222 E81.4763
G0 F7200 X2.894 Y1.222
G1 F1200 X1.222 Y2.894 E81.55043
G0 F7200 X1.222 Y2.187
G1 F1200 X2.187 Y1.222 E81.59322
G0 F7200 X1.480 Y1.222
G1 F1200 X1.222 Y1.480 E81.60466
G0 F7200 X1.250 Y1.480
;MESH:NONMESH
G0 F600 X1.250 Y1.480 Z2.7
G0 F7200 X13.680 Y13.680
G0 X14.000 Y14.000
;TIME_ELAPSED:141.638585
;LAYER:6
;TYPE:WALL-INNER
;MESH:cube1-5.STL
G1 F1200 X14.000 Y0.500 E82.02789
G1 X0.500 Y0.500 E82.45113
G1 X0.500 Y14.000 E82.87437
G1 X14.000 Y14.000 E83.29761
G0 F7200 X14.500 Y14.500
;TYPE:WALL-OUTER
G1 F1200 X14.500 Y0.000 E83.75219
G1 X0.000 Y0.000 E84.20678
G1 X0.000 Y14.500 E84.66137
