;FLAVOR:Marlin
;TIME:549
;Filament used: 0.532594m
;Layer height: 0.4
;LAYER_COUNT:38
;LAYER:0
;MESH:cube1-5.STL

G21 ;start of the code
G1 Z15 F300
G28 X0 Y0 ;Home
G92 X0 Y0 ;Consider this as current
G0 X50 Y50 F3000 ;Go-to Offset
G92 X0 Y0 ;Reset

G0 F3600 X14.000 Y14.000 Z0.3
M7
;TYPE:WALL-INNER
G1 F1200 X14.000 Y0.500 E0.31743
G1 X0.500 Y0.500 E0.63486
G1 X0.500 Y14.000 E0.95228
G1 X14.000 Y14.000 E1.26971
G0 F3600 X14.500 Y14.500
;TYPE:WALL-OUTER
G1 F1200 X14.500 Y0.000 E1.61065
G1 X0.000 Y0.000 E1.9516
G1 X0.000 Y14.500 E2.29254
G1 X14.500 Y14.500 E2.63348
G0 F3600 X14.500 Y14.250
G0 X13.680 Y13.680
G0 X13.524 Y13.524
;TYPE:SKIN
G1 F1200 X0.972 Y13.524 E2.92862
G1 X0.972 Y0.972 E3.22375
G1 X13.524 Y0.972 E3.51889
G1 X13.524 Y13.524 E3.81403
G0 F3600 X13.274 Y1.960
G1 F1200 X12.536 Y1.222 E3.83857
G0 F3600 X11.829 Y1.222
G1 F1200 X13.274 Y2.667 E3.88662
G0 F3600 X13.274 Y3.375
G1 F1200 X11.122 Y1.222 E3.9582
G0 F3600 X10.415 Y1.222
G1 F1200 X13.274 Y4.082 E4.05328
G0 F3600 X13.274 Y4.789
G1 F1200 X9.707 Y1.222 E4.17189
G0 F3600 X9.000 Y1.222
G1 F1200 X13.274 Y5.496 E4.31402
G0 F3600 X13.274 Y6.203
G1 F1200 X8.293 Y1.222 E4.47965
G0 F3600 X7.586 Y1.222
G1 F1200 X13.274 Y6.910 E4.66879
G0 F3600 X13.274 Y7.617
G1 F1200 X6.879 Y1.222 E4.88144
G0 F3600 X6.172 Y1.222
G1 F1200 X13.274 Y8.324 E5.1176
G0 F3600 X13.274 Y9.031
G1 F1200 X5.465 Y1.222 E5.37727
G0 F3600 X4.758 Y1.222
G1 F1200 X13.274 Y9.739 E5.66047
G0 F3600 X13.274 Y10.446
G1 F1200 X4.051 Y1.222 E5.96717
G0 F3600 X3.343 Y1.222
G1 F1200 X13.274 Y11.153 E6.29741
G0 F3600 X13.274 Y11.860
G1 F1200 X2.636 Y1.222 E6.65115
G0 F3600 X1.929 Y1.222
G1 F1200 X13.274 Y12.567 E7.0284
G0 F3600 X13.274 Y13.274
G1 F1200 X1.222 Y1.222 E7.42916
G0 F3600 X1.222 Y1.929
G1 F1200 X12.567 Y13.274 E7.80641
G0 F3600 X11.860 Y13.274
G1 F1200 X1.222 Y2.636 E8.16015
G0 F3600 X1.222 Y3.343
G1 F1200 X11.153 Y13.274 E8.49039
G0 F3600 X10.446 Y13.274
G1 F1200 X1.222 Y4.051 E8.79709
G0 F3600 X1.222 Y4.758
G1 F1200 X9.739 Y13.274 E9.08029
G0 F3600 X9.031 Y13.274
G1 F1200 X1.222 Y5.465 E9.33996
G0 F3600 X1.222 Y6.172
G1 F1200 X8.324 Y13.274 E9.57612
G0 F3600 X7.617 Y13.274
G1 F1200 X1.222 Y6.879 E9.78877
G0 F3600 X1.222 Y7.586
G1 F1200 X6.910 Y13.274 E9.97791
G0 F3600 X6.203 Y13.274
G1 F1200 X1.222 Y8.293 E10.14354
G0 F3600 X1.222 Y9.000
G1 F1200 X5.496 Y13.274 E10.28567
G0 F3600 X4.789 Y13.274
G1 F1200 X1.222 Y9.707 E10.40428
G0 F3600 X1.222 Y10.415
G1 F1200 X4.082 Y13.274 E10.49936
G0 F3600 X3.375 Y13.274
G1 F1200 X1.222 Y11.122 E10.57094
G0 F3600 X1.222 Y11.829
G1 F1200 X2.667 Y13.274 E10.61899
G0 F3600 X1.960 Y13.274
G1 F1200 X1.222 Y12.536 E10.64353
G1 X1.134 Y12.448
G0 F3600 X1.250 Y12.448
;MESH:NONMESH
G0 F600 X1.250 Y12.448 Z0.7
G0 F3600 X13.680 Y13.680
G0 X14.000 Y14.000
;TIME_ELAPSED:28.855755
;LAYER:1
;TYPE:WALL-INNER
;MESH:cube1-5.STL
G1 F1200 X14.000 Y0.500 E11.06677
G1 X0.500 Y0.500 E11.49001
G1 X0.500 Y14.000 E11.91324
G1 X14.000 Y14.000 E12.33648
G0 F5400 X14.500 Y14.500
;TYPE:WALL-OUTER
G1 F1200 X14.500 Y0.000 E12.79107
G1 X0.000 Y0.000 E13.24566
G1 X0.000 Y14.500 E13.70025
G1 X14.500 Y14.500 E14.15483
G0 F5400 X14.500 Y14.250
G0 X13.680 Y13.680
G0 X13.524 Y13.524
;TYPE:SKIN
G1 F1200 X0.972 Y13.524 E14.54835
G1 X0.972 Y0.972 E14.94187
G1 X13.524 Y0.972 E15.33538
G1 X13.524 Y13.524 E15.7289
G0 F5400 X12.762 Y13.274
G1 F1200 X13.274 Y12.762 E15.7516
G0 F5400 X13.274 Y12.055
G1 F1200 X12.055 Y13.274 E15.80565
G0 F5400 X11.348 Y13.274
G1 F1200 X13.274 Y11.348 E15.89104
G0 F5400 X13.274 Y10.641
G1 F1200 X10.641 Y13.274 E16.00778
G0 F5400 X9.934 Y13.274
G1 F1200 X13.274 Y9.934 E16.15587
G0 F5400 X13.274 Y9.227
G1 F1200 X9.227 Y13.274 E16.3353
G0 F5400 X8.519 Y13.274
G1 F1200 X13.274 Y8.519 E16.54612
G0 F5400 X13.274 Y7.812
G1 F1200 X7.812 Y13.274 E16.78829
G0 F5400 X7.105 Y13.274
G1 F1200 X13.274 Y7.105 E17.0618
G0 F5400 X13.274 Y6.398
G1 F1200 X6.398 Y13.274 E17.36666
G0 F5400 X5.691 Y13.274
G1 F1200 X13.274 Y5.691 E17.70287
G0 F5400 X13.274 Y4.984
G1 F1200 X4.984 Y13.274 E18.07042
G0 F5400 X4.277 Y13.274
G1 F1200 X13.274 Y4.277 E18.46932
G0 F5400 X13.274 Y3.570
G1 F1200 X3.570 Y13.274 E18.89957
G0 F5400 X2.863 Y13.274
G1 F1200 X13.274 Y2.863 E19.36116
G0 F5400 X13.274 Y2.155
G1 F1200 X2.155 Y13.274 E19.85414
G0 F5400 X1.448 Y13.274
G1 F1200 X13.274 Y1.448 E20.37847
G0 F5400 X12.793 Y1.222
G1 F1200 X1.222 Y12.793 E20.89149
G0 F5400 X1.222 Y12.086
G1 F1200 X12.086 Y1.222 E21.37317
G0 F5400 X11.379 Y1.222
G1 F1200 X1.222 Y11.379 E21.8235
G0 F5400 X1.222 Y10.672
G1 F1200 X10.672 Y1.222 E22.24248
G0 F5400 X9.965 Y1.222
G1 F1200 X1.222 Y9.965 E22.63012
G0 F5400 X1.222 Y9.258
G1 F1200 X9.258 Y1.222 E22.98641
G0 F5400 X8.551 Y1.222
G1 F1200 X1.222 Y8.551 E23.31136
G0 F5400 X1.222 Y7.843
G1 F1200 X7.843 Y1.222 E23.60491
G0 F5400 X7.136 Y1.222
G1 F1200 X1.222 Y7.136 E23.86712
G0 F5400 X1.222 Y6.429
G1 F1200 X6.429 Y1.222 E24.09798
G0 F5400 X5.722 Y1.222
G1 F1200 X1.222 Y5.722 E24.2975
G0 F5400 X1.222 Y5.015
G1 F1200 X5.015 Y1.222 E24.46567
G0 F5400 X4.308 Y1.222
G1 F1200 X1.222 Y4.308 E24.60249
G0 F5400 X1.222 Y3.601
G1 F1200 X3.601 Y1.222 E24.70797
G0 F5400 X2.894 Y1.222
G1 F1200 X1.222 Y2.894 E24.7821
G0 F5400 X1.222 Y2.187
G1 F1200 X2.187 Y1.222 E24.82488
G0 F5400 X1.480 Y1.222
G1 F1200 X1.222 Y1.480 E24.83632
G0 F5400 X1.250 Y1.480
;MESH:NONMESH
G0 F600 X1.250 Y1.480 Z1.1
G0 F5400 X1.480 Y13.500
;TIME_ELAPSED:51.706270
;LAYER:2
;TYPE:FILL
;MESH:cube1-5.STL
G1 F1200 X1.000 Y13.021 E24.85758
G1 X1.000 Y13.500 E24.8726
G1 X2.187 Y13.500 E24.90981
G1 X1.000 Y12.314 E24.96242
G1 X1.000 Y11.607 E24.98458
G1 X2.894 Y13.500 E25.06854
G1 X3.601 Y13.500 E25.0907
G1 X1.000 Y10.900 E25.206
G1 X1.000 Y10.192 E25.2282
G1 X4.308 Y13.500 E25.37486
G1 X5.015 Y13.500 E25.39703
G1 X1.000 Y9.485 E25.57504
G1 X1.000 Y8.778 E25.59721
G1 X5.722 Y13.500 E25.80656
G1 X6.429 Y13.500 E25.82873
G1 X1.000 Y8.071 E26.06943
G1 X1.000 Y7.364 E26.0916
G1 X7.136 Y13.500 E26.36365
G1 X7.843 Y13.500 E26.38582
G1 X1.000 Y6.657 E26.68921
G1 X1.000 Y5.950 E26.71138
G1 X8.551 Y13.500 E27.04614
G1 X9.258 Y13.500 E27.06831
G1 X1.000 Y5.243 E27.43442
G1 X1.000 Y4.536 E27.45659
G1 X9.965 Y13.500 E27.85404
G1 X10.672 Y13.500 E27.87621
G1 X1.000 Y3.829 E28.30501
G1 X1.000 Y3.121 E28.32721
G1 X11.379 Y13.500 E28.78738
G1 X12.086 Y13.500 E28.80955
G1 X1.000 Y2.414 E29.30107
G1 X1.000 Y1.707 E29.32323
G1 X12.793 Y13.500 E29.8461
G1 X13.500 Y13.500 E29.86826
G1 X1.000 Y1.000 E30.42247
G1 X1.707 Y1.000 E30.44464
G1 X13.500 Y12.793 E30.9675
G1 X13.500 Y12.086 E30.98967
G1 X2.414 Y1.000 E31.48119
G1 X3.121 Y1.000 E31.50335
G1 X13.500 Y11.379 E31.96353
G1 X13.500 Y10.672 E31.98569
G1 X3.829 Y1.000 E32.4145
G1 X4.536 Y1.000 E32.43666
G1 X13.500 Y9.965 E32.83412
G1 X13.500 Y9.258 E32.85628
G1 X5.243 Y1.000 E33.2224
G1 X5.950 Y1.000 E33.24456
G1 X13.500 Y8.551 E33.57933
G1 X13.500 Y7.843 E33.60152
G1 X6.657 Y1.000 E33.90492
G1 X7.364 Y1.000 E33.92709
G1 X13.500 Y7.136 E34.19914
G1 X13.500 Y6.429 E34.2213
G1 X8.071 Y1.000 E34.46201
G1 X8.778 Y1.000 E34.48417
G1 X13.500 Y5.722 E34.69353
G1 X13.500 Y5.015 E34.7157
G1 X9.485 Y1.000 E34.89371
G1 X10.192 Y1.000 E34.91587
G1 X13.500 Y4.308 E35.06254
G1 X13.500 Y3.601 E35.08471
G1 X10.900 Y1.000 E35.2
G1 X11.607 Y1.000 E35.22217
G1 X13.500 Y2.894 E35.30612
G1 X13.500 Y2.187 E35.32829
G1 X12.314 Y1.000 E35.38089
G1 X13.021 Y1.000 E35.40306
G1 X13.500 Y1.480 E35.42432
G0 F7200 X13.680 Y13.680
G0 X14.000 Y14.000
;TYPE:WALL-INNER
G1 F1200 X14.000 Y0.500 E35.84755
G1 X0.500 Y0.500 E36.27079
G1 X0.500 Y14.000 E36.69403
G1 X14.000 Y14.000 E37.11727
G0 F7200 X14.500 Y14.500
;TYPE:WALL-OUTER
G1 F1200 X14.500 Y0.000 E37.57186
G1 X0.000 Y0.000 E38.02644
G1 X0.000 Y14.500 E38.48103
G1 X14.500 Y14.500 E38.93562
G0 F7200 X14.500 Y14.250
G0 X13.250 Y13.397
;MESH:NONMESH
G0 F600 X13.250 Y13.397 Z1.5
G0 F7200 X1.000 Y1.478
;TIME_ELAPSED:65.115277
;LAYER:3
;TYPE:FILL
;MESH:cube1-5.STL
G1 F1200 X1.478 Y1.000 E38.95681
G1 X1.000 Y1.000 E38.9718
G1 X1.000 Y2.185 E39.00895
G1 X2.185 Y1.000 E39.06149
G1 X2.892 Y1.000 E39.08365
G1 X1.000 Y2.892 E39.16754
G1 X1.000 Y3.599 E39.1897
G1 X3.599 Y1.000 E39.30494
G1 X4.307 Y1.000 E39.32713
G1 X1.000 Y4.307 E39.47376
G1 X1.000 Y5.014 E39.49592
G1 X5.014 Y1.000 E39.67389
G1 X5.721 Y1.000 E39.69605
G1 X1.000 Y5.721 E39.90537
G1 X1.000 Y6.428 E39.92753
G1 X6.428 Y1.000 E40.16819
G1 X7.135 Y1.000 E40.19036
G1 X1.000 Y7.135 E40.46237
G1 X1.000 Y7.842 E40.48453
G1 X7.842 Y1.000 E40.78788
G1 X8.549 Y1.000 E40.81005
G1 X1.000 Y8.549 E41.14475
G1 X1.000 Y9.256 E41.16691
G1 X9.256 Y1.000 E41.53296
G1 X9.963 Y1.000 E41.55512
G1 X1.000 Y9.963 E41.95252
G1 X1.000 Y10.670 E41.97468
G1 X10.670 Y1.000 E42.40342
G1 X11.378 Y1.000 E42.42562
G1 X1.000 Y11.378 E42.88574
G1 X1.000 Y12.085 E42.90791
G1 X12.085 Y1.000 E43.39938
G1 X12.792 Y1.000 E43.42155
G1 X1.000 Y12.792 E43.94437
G1 X1.000 Y13.499 E43.96653
G1 X13.500 Y1.000 E44.52072
G1 X13.500 Y1.706 E44.54286
G1 X1.706 Y13.500 E45.06577
G1 X2.413 Y13.500 E45.08793
G1 X13.500 Y2.413 E45.5795
G1 X13.500 Y3.120 E45.60166
G1 X3.120 Y13.500 E46.06188
G1 X3.827 Y13.500 E46.08404
G1 X13.500 Y3.827 E46.51291
G1 X13.500 Y4.534 E46.53508
G1 X4.534 Y13.500 E46.9326
G1 X5.241 Y13.500 E46.95477
G1 X13.500 Y5.241 E47.32095
G1 X13.500 Y5.948 E47.34311
G1 X5.948 Y13.500 E47.67794
G1 X6.656 Y13.500 E47.70014
G1 X13.500 Y6.656 E48.00358
G1 X13.500 Y7.363 E48.02575
G1 X7.363 Y13.500 E48.29784
G1 X8.070 Y13.500 E48.32001
G1 X13.500 Y8.070 E48.56076
G1 X13.500 Y8.777 E48.58292
G1 X8.777 Y13.500 E48.79233
G1 X9.484 Y13.500 E48.81449
G1 X13.500 Y9.484 E48.99255
G1 X13.500 Y10.191 E49.01471
G1 X10.191 Y13.500 E49.16142
G1 X10.898 Y13.500 E49.18359
G1 X13.500 Y10.898 E49.29895
G1 X13.500 Y11.605 E49.32112
G1 X11.605 Y13.500 E49.40514
G1 X12.312 Y13.500 E49.4273
G1 X13.500 Y12.312 E49.47998
G1 X13.500 Y13.019 E49.50214
G1 X13.019 Y13.500 E49.52347
G0 F7200 X14.000 Y14.000
;TYPE:WALL-INNER
G1 F1200 X14.000 Y0.500 E49.9467
G1 X0.500 Y0.500 E50.36994
G1 X0.500 Y14.000 E50.79318
G1 X14.000 Y14.000 E51.21642
G0 F7200 X14.500 Y14.500
;TYPE:WALL-OUTER
G1 F1200 X14.500 Y0.000 E51.671
G1 X0.000 Y0.000 E52.12559
G1 X0.000 Y14.500 E52.58018
G1 X14.500 Y14.500 E53.03477
G0 F7200 X14.500 Y14.250
G0 X13.250 Y13.397
;MESH:NONMESH
G0 F600 X13.250 Y13.397 Z1.9
G0 F7200 X1.480 Y13.500
;TIME_ELAPSED:78.373211
;LAYER:4
;TYPE:FILL
;MESH:cube1-5.STL
G1 F1200 X1.000 Y13.021 E53.05603
G1 X1.000 Y13.500 E53.07105
G1 X2.187 Y13.500 E53.10826
G1 X1.000 Y12.314 E53.16087
G1 X1.000 Y11.607 E53.18303
G1 X2.894 Y13.500 E53.26698
G1 X3.601 Y13.500 E53.28915
G1 X1.000 Y10.900 E53.40445
G1 X1.000 Y10.192 E53.42664
G1 X4.308 Y13.500 E53.57331
G1 X5.015 Y13.500 E53.59547
G1 X1.000 Y9.485 E53.77349
G1 X1.000 Y8.778 E53.79565
G1 X5.722 Y13.500 E54.00501
G1 X6.429 Y13.500 E54.02718
G1 X1.000 Y8.071 E54.26788
G1 X1.000 Y7.364 E54.29005
G1 X7.136 Y13.500 E54.5621
G1 X7.843 Y13.500 E54.58426
G1 X1.000 Y6.657 E54.88766
G1 X1.000 Y5.950 E54.90983
G1 X8.551 Y13.500 E55.24459
G1 X9.258 Y13.500 E55.26676
G1 X1.000 Y5.243 E55.63287
G1 X1.000 Y4.536 E55.65503
G1 X9.965 Y13.500 E56.05249
G1 X10.672 Y13.500 E56.07466
G1 X1.000 Y3.829 E56.50346
G1 X1.000 Y3.121 E56.52566
G1 X11.379 Y13.500 E56.98583
G1 X12.086 Y13.500 E57.008
G1 X1.000 Y2.414 E57.49951
G1 X1.000 Y1.707 E57.52168
G1 X12.793 Y13.500 E58.04454
G1 X13.500 Y13.500 E58.06671
G1 X1.000 Y1.000 E58.62092
G1 X1.707 Y1.000 E58.64309
G1 X13.500 Y12.793 E59.16595
G1 X13.500 Y12.086 E59.18812
G1 X2.414 Y1.000 E59.67964
G1 X3.121 Y1.000 E59.7018
G1 X13.500 Y11.379 E60.16197
G1 X13.500 Y10.672 E60.18414
G1 X3.829 Y1.000 E60.61294
G1 X4.536 Y1.000 E60.63511
G1 X13.500 Y9.965 E61.03257
G1 X13.500 Y9.258 E61.05473
G1 X5.243 Y1.000 E61.42084
G1 X5.950 Y1.000 E61.44301
G1 X13.500 Y8.551 E61.77777
G1 X13.500 Y7.843 E61.79997
G1 X6.657 Y1.000 E62.10337
G1 X7.364 Y1.000 E62.12553
G1 X13.500 Y7.136 E62.39758
G1 X13.500 Y6.429 E62.41975
G1 X8.071 Y1.000 E62.66045
G1 X8.778 Y1.000 E62.68262
G1 X13.500 Y5.722 E62.89198
G1 X13.500 Y5.015 E62.91414
G1 X9.485 Y1.000 E63.09216
G1 X10.192 Y1.000 E63.11432
G1 X13.500 Y4.308 E63.26099
G1 X13.500 Y3.601 E63.28315
G1 X10.900 Y1.000 E63.39845
G1 X11.607 Y1.000 E63.42062
G1 X13.500 Y2.894 E63.50457
G1 X13.500 Y2.187 E63.52673
G1 X12.314 Y1.000 E63.57934
G1 X13.021 Y1.000 E63.6015
G1 X13.500 Y1.480 E63.62276
G0 F7200 X13.680 Y13.680
G0 X14.000 Y14.000
;TYPE:WALL-INNER
G1 F1200 X14.000 Y0.500 E64.046
G1 X0.500 Y0.500 E64.46924
G1 X0.500 Y14.000 E64.89248
G1 X14.000 Y14.000 E65.31571
G0 F7200 X14.500 Y14.500
;TYPE:WALL-OUTER
G1 F1200 X14.500 Y0.000 E65.7703
G1 X0.000 Y0.000 E66.22489
G1 X0.000 Y14.500 E66.67948
G1 X14.500 Y14.500 E67.13407
G0 F7200 X14.500 Y14.250
G0 X13.250 Y13.397
;MESH:NONMESH
G0 F600 X13.250 Y13.397 Z2.3
G0 F7200 X1.000 Y1.478
;TIME_ELAPSED:91.782218
;LAYER:5
;TYPE:FILL
;MESH:cube1-5.STL
G1 F1200 X1.478 Y1.000 E67.15526
G1 X1.000 Y1.000 E67.17025
G1 X1.000 Y2.185 E67.2074
G1 X2.185 Y1.000 E67.25994
G1 X2.892 Y1.000 E67.2821
G1 X1.000 Y2.892 E67.36599
G1 X1.000 Y3.599 E67.38815
G1 X3.599 Y1.000 E67.50338
G1 X4.307 Y1.000 E67.52558
G1 X1.000 Y4.307 E67.6722
G1 X1.000 Y5.014 E67.69437
G1 X5.014 Y1.000 E67.87234
G1 X5.721 Y1.000 E67.8945
G1 X1.000 Y5.721 E68.10382
G1 X1.000 Y6.428 E68.12598
G1 X6.428 Y1.000 E68.36664
G1 X7.135 Y1.000 E68.38881
G1 X1.000 Y7.135 E68.66081
G1 X1.000 Y7.842 E68.68298
G1 X7.842 Y1.000 E68.98633
G1 X8.549 Y1.000 E69.0085
G1 X1.000 Y8.549 E69.3432
G1 X1.000 Y9.256 E69.36536
G1 X9.256 Y1.000 E69.73141
G1 X9.963 Y1.000 E69.75357
G1 X1.000 Y9.963 E70.15096
G1 X1.000 Y10.670 E70.17313
G1 X10.670 Y1.000 E70.60187
G1 X11.378 Y1.000 E70.62406
G1 X1.000 Y11.378 E71.08419
G1 X1.000 Y12.085 E71.10636
G1 X12.085 Y1.000 E71.59783
G1 X12.792 Y1.000 E71.62
G1 X1.000 Y12.792 E72.14282
G1 X1.000 Y13.499 E72.16498
G1 X13.500 Y1.000 E72.71917
G1 X13.500 Y1.706 E72.7413
G1 X1.706 Y13.500 E73.26421
G1 X2.413 Y13.500 E73.28638
G1 X13.500 Y2.413 E73.77794
G1 X13.500 Y3.120 E73.80011
G1 X3.120 Y13.500 E74.26032
G1 X3.827 Y13.500 E74.28249
G1 X13.500 Y3.827 E74.71136
G1 X13.500 Y4.534 E74.73353
G1 X4.534 Y13.500 E75.13105
G1 X5.241 Y13.500 E75.15322
G1 X13.500 Y5.241 E75.51939
G1 X13.500 Y5.948 E75.54156
G1 X5.948 Y13.500 E75.87639
G1 X6.656 Y13.500 E75.89859
G1 X13.500 Y6.656 E76.20203
G1 X13.500 Y7.363 E76.2242
G1 X7.363 Y13.500 E76.49629
G1 X8.070 Y13.500 E76.51846
G1 X13.500 Y8.070 E76.75921
G1 X13.500 Y8.777 E76.78137
G1 X8.777 Y13.500 E76.99077
G1 X9.484 Y13.500 E77.01294
G1 X13.500 Y9.484 E77.191
G1 X13.500 Y10.191 E77.21316
G1 X10.191 Y13.500 E77.35987
G1 X10.898 Y13.500 E77.38204
G1 X13.500 Y10.898 E77.4974
G1 X13.500 Y11.605 E77.51957
G1 X11.605 Y13.500 E77.60358
G1 X12.312 Y13.500 E77.62575
G1 X13.500 Y12.312 E77.67842
G1 X13.500 Y13.019 E77.70059
G1 X13.019 Y13.500 E77.72191
G0 F7200 X14.000 Y14.000
;TYPE:WALL-INNER
G1 F1200 X14.000 Y0.500 E78.14515
G1 X0.500 Y0.500 E78.56839
G1 X0.500 Y14.000 E78.99163
G1 X14.000 Y14.000 E79.41486
G0 F7200 X14.500 Y14.500
;TYPE:WALL-OUTER
G1 F1200 X14.500 Y0.000 E79.86945
G1 X0.000 Y0.000 E80.32404
G1 X0.000 Y14.500 E80.77863
G1 X14.500 Y14.500 E81.23322
G0 F7200 X14.500 Y14.250
G0 X13.250 Y13.397
;MESH:NONMESH
G0 F600 X13.250 Y13.397 Z2.7
G0 F7200 X1.480 Y13.500
;TIME_ELAPSED:105.040151
;LAYER:6
;TYPE:FILL
;MESH:cube1-5.STL
G1 F1200 X1.000 Y13.021 E81.25448
G1 X1.000 Y13.500 E81.26949
G1 X2.187 Y13.500 E81.30671
G1 X1.000 Y12.314 E81.35931
G1 X1.000 Y11.607 E81.38148
G1 X2.894 Y13.500 E81.46543
G1 X3.601 Y13.500 E81.4876
G1 X1.000 Y10.900 E81.60289
G1 X1.000 Y10.192 E81.62509
G1 X4.308 Y13.500 E81.77176
G1 X5.015 Y13.500 E81.79392
G1 X1.000 Y9.485 E81.97193
G1 X1.000 Y8.778 E81.9941
G1 X5.722 Y13.500 E82.20346
G1 X6.429 Y13.500 E82.22562
G1 X1.000 Y8.071 E82.46633
G1 X1.000 Y7.364 E82.48849
G1 X7.136 Y13.500 E82.76054
G1 X7.843 Y13.500 E82.78271
G1 X1.000 Y6.657 E83.08611
G1 X1.000 Y5.950 E83.10827
G1 X8.551 Y13.500 E83.44304
G1 X9.258 Y13.500 E83.4652
G1 X1.000 Y5.243 E83.83132
G1 X1.000 Y4.536 E83.85348
G1 X9.965 Y13.500 E84.25094
G1 X10.672 Y13.500 E84.2731
G1 X1.000 Y3.829 E84.70191
G1 X1.000 Y3.121 E84.7241
G1 X11.379 Y13.500 E85.18428
