;FLAVOR:Marlin
;TIME:497
;Filament used: 0.481508m
;Layer height: 0.4
;LAYER_COUNT:38
;LAYER:0
;MESH:platform-15-13.STL

G21 ;start of the code
G1 Z15 F300
G28 X0 Y0 ;Home
G92 X0 Y0 ;Consider this as current
G0 X50 Y50 F3000 ;Go-to Offset
G92 X0 Y0 ;Reset

G0 F3600 X13.012 Y13.012 Z0.3
M7
;TYPE:WALL-INNER
G1 F1200 X13.012 Y1.484 E0.27106
G1 X1.484 Y1.484 E0.54212
G1 X1.484 Y13.012 E0.81318
G1 X13.012 Y13.012 E1.08424
G0 F3600 X13.512 Y13.512
;TYPE:WALL-OUTER
G1 F1200 X13.512 Y0.984 E1.37881
G1 X0.984 Y0.984 E1.67339
G1 X0.984 Y13.512 E1.96796
G1 X13.512 Y13.512 E2.26253
G0 F3600 X13.512 Y13.262
G0 X12.695 Y12.695
G0 X12.536 Y12.536
;TYPE:SKIN
G1 F1200 X1.956 Y12.536 E2.5113
G1 X1.956 Y1.956 E2.76007
G1 X12.536 Y1.956 E3.00884
G1 X12.536 Y12.536 E3.25761
G0 F3600 X12.286 Y2.802
G1 F1200 X11.690 Y2.206 E3.27743
G0 F3600 X10.983 Y2.206
G1 F1200 X12.286 Y3.509 E3.32076
G0 F3600 X12.286 Y4.217
G1 F1200 X10.276 Y2.206 E3.38761
G0 F3600 X9.569 Y2.206
G1 F1200 X12.286 Y4.924 E3.47798
G0 F3600 X12.286 Y5.631
G1 F1200 X8.862 Y2.206 E3.59185
G0 F3600 X8.155 Y2.206
G1 F1200 X12.286 Y6.338 E3.72923
G0 F3600 X12.286 Y7.045
G1 F1200 X7.447 Y2.206 E3.89014
G0 F3600 X6.740 Y2.206
G1 F1200 X12.286 Y7.752 E4.07456
G0 F3600 X12.286 Y8.459
G1 F1200 X6.033 Y2.206 E4.28249
G0 F3600 X5.326 Y2.206
G1 F1200 X12.286 Y9.166 E4.51393
G0 F3600 X12.286 Y9.873
G1 F1200 X4.619 Y2.206 E4.76888
G0 F3600 X3.912 Y2.206
G1 F1200 X12.286 Y10.580 E5.04734
G0 F3600 X12.286 Y11.288
G1 F1200 X3.205 Y2.206 E5.34932
G0 F3600 X2.498 Y2.206
G1 F1200 X12.286 Y11.995 E5.67482
G0 F3600 X11.870 Y12.286
G1 F1200 X2.206 Y2.621 E5.99619
G0 F3600 X2.206 Y3.328
G1 F1200 X11.163 Y12.286 E6.29405
G0 F3600 X10.456 Y12.286
G1 F1200 X2.206 Y4.036 E6.56838
G0 F3600 X2.206 Y4.743
G1 F1200 X9.749 Y12.286 E6.81921
G0 F3600 X9.042 Y12.286
G1 F1200 X2.206 Y5.450 E7.04652
G0 F3600 X2.206 Y6.157
G1 F1200 X8.335 Y12.286 E7.25033
G0 F3600 X7.628 Y12.286
G1 F1200 X2.206 Y6.864 E7.43062
G0 F3600 X2.206 Y7.571
G1 F1200 X6.921 Y12.286 E7.58741
G0 F3600 X6.214 Y12.286
G1 F1200 X2.206 Y8.278 E7.72069
G0 F3600 X2.206 Y8.985
G1 F1200 X5.506 Y12.286 E7.83044
G0 F3600 X4.799 Y12.286
G1 F1200 X2.206 Y9.692 E7.91668
G0 F3600 X2.206 Y10.399
G1 F1200 X4.092 Y12.286 E7.97941
G0 F3600 X3.385 Y12.286
G1 F1200 X2.206 Y11.107 E8.01861
G0 F3600 X2.206 Y11.814
G1 F1200 X2.678 Y12.286 E8.03431
G0 F3600 X2.678 Y12.265
;MESH:NONMESH
G0 F600 X2.678 Y12.265 Z0.7
G0 F3600 X12.695 Y12.695
G0 X13.048 Y13.048
;TIME_ELAPSED:21.370889
;LAYER:1
;TYPE:WALL-INNER
;MESH:platform-15-13.STL
G1 F1200 X13.048 Y1.452 E8.39786
G1 X1.452 Y1.452 E8.7614
G1 X1.452 Y13.048 E9.12495
G1 X13.048 Y13.048 E9.48849
G0 F5400 X13.548 Y13.548
;TYPE:WALL-OUTER
G1 F1200 X13.548 Y0.952 E9.88339
G1 X0.952 Y0.952 E10.27828
G1 X0.952 Y13.548 E10.67318
G1 X13.548 Y13.548 E11.06808
G0 F5400 X13.548 Y13.298
G0 X12.730 Y12.730
G0 X12.572 Y12.572
;TYPE:SKIN
G1 F1200 X1.924 Y12.572 E11.4019
G1 X1.924 Y1.924 E11.73573
G1 X12.572 Y1.924 E12.06955
G1 X12.572 Y12.572 E12.40338
G0 F5400 X11.713 Y12.322
G1 F1200 X12.322 Y11.713 E12.43038
G0 F5400 X12.322 Y11.005
G1 F1200 X11.006 Y12.322 E12.48875
G0 F5400 X10.299 Y12.322
G1 F1200 X12.322 Y10.298 E12.57846
G0 F5400 X12.322 Y9.591
G1 F1200 X9.591 Y12.322 E12.69955
G0 F5400 X8.884 Y12.322
G1 F1200 X12.322 Y8.884 E12.85198
G0 F5400 X12.322 Y8.177
G1 F1200 X8.177 Y12.322 E13.03575
G0 F5400 X7.470 Y12.322
G1 F1200 X12.322 Y7.470 E13.25088
G0 F5400 X12.322 Y6.763
G1 F1200 X6.763 Y12.322 E13.49734
G0 F5400 X6.056 Y12.322
G1 F1200 X12.322 Y6.056 E13.77516
G0 F5400 X12.322 Y5.349
G1 F1200 X5.349 Y12.322 E14.08432
G0 F5400 X4.642 Y12.322
G1 F1200 X12.322 Y4.642 E14.42483
G0 F5400 X12.322 Y3.934
G1 F1200 X3.935 Y12.322 E14.7967
G0 F5400 X3.227 Y12.322
G1 F1200 X12.322 Y3.227 E15.19995
G0 F5400 X12.322 Y2.520
G1 F1200 X2.520 Y12.322 E15.63454
G0 F5400 X2.174 Y11.961
G1 F1200 X11.962 Y2.174 E16.06849
G0 F5400 X11.255 Y2.174
G1 F1200 X2.174 Y11.254 E16.47109
G0 F5400 X2.174 Y10.547
G1 F1200 X10.547 Y2.174 E16.84232
G0 F5400 X9.840 Y2.174
G1 F1200 X2.174 Y9.840 E17.18221
G0 F5400 X2.174 Y9.133
G1 F1200 X9.133 Y2.174 E17.49075
G0 F5400 X8.426 Y2.174
G1 F1200 X2.174 Y8.426 E17.76794
G0 F5400 X2.174 Y7.719
G1 F1200 X7.719 Y2.174 E18.01379
G0 F5400 X7.012 Y2.174
G1 F1200 X2.174 Y7.012 E18.22829
G0 F5400 X2.174 Y6.305
G1 F1200 X6.305 Y2.174 E18.41145
G0 F5400 X5.598 Y2.174
G1 F1200 X2.174 Y5.598 E18.56326
G0 F5400 X2.174 Y4.890
G1 F1200 X4.891 Y2.174 E18.6837
G0 F5400 X4.183 Y2.174
G1 F1200 X2.174 Y4.183 E18.77277
G0 F5400 X2.174 Y3.476
G1 F1200 X3.476 Y2.174 E18.8305
G0 F5400 X2.769 Y2.174
G1 F1200 X2.174 Y2.769 E18.85688
G0 F5400 X2.202 Y2.769
;MESH:NONMESH
G0 F600 X2.202 Y2.769 Z1.1
G0 F5400 X1.912 Y12.520
;TIME_ELAPSED:38.809776
;LAYER:2
;TYPE:FILL
;MESH:platform-15-13.STL
G1 F1200 X1.912 Y11.813 E18.87904
G1 X2.687 Y12.588 E18.9134
G1 X3.394 Y12.588 E18.93557
G1 X1.912 Y11.106 E19.00128
G1 X1.912 Y10.399 E19.02344
G1 X4.101 Y12.588 E19.1205
G1 X4.809 Y12.588 E19.14269
G1 X1.912 Y9.692 E19.27111
G1 X1.912 Y8.985 E19.29328
G1 X5.516 Y12.588 E19.45305
G1 X6.223 Y12.588 E19.47521
G1 X1.912 Y8.277 E19.66635
G1 X1.912 Y7.570 E19.68851
G1 X6.930 Y12.588 E19.911
G1 X7.637 Y12.588 E19.93316
G1 X1.912 Y6.863 E20.18699
G1 X1.912 Y6.156 E20.20915
G1 X8.344 Y12.588 E20.49433
G1 X9.051 Y12.588 E20.51649
G1 X1.912 Y5.449 E20.83302
G1 X1.912 Y4.742 E20.85518
G1 X9.758 Y12.588 E21.20305
G1 X10.465 Y12.588 E21.22521
G1 X1.912 Y4.035 E21.60443
G1 X1.912 Y3.328 E21.62659
G1 X11.173 Y12.588 E22.03717
G1 X11.880 Y12.588 E22.05934
G1 X1.912 Y2.621 E22.50127
G1 X1.912 Y1.913 E22.52346
G1 X12.588 Y12.588 E22.99678
G1 X12.588 Y11.882 E23.01892
G1 X2.618 Y1.912 E23.46096
G1 X3.325 Y1.912 E23.48312
G1 X12.588 Y11.175 E23.89381
G1 X12.588 Y10.468 E23.91598
G1 X4.032 Y1.912 E24.29532
G1 X4.739 Y1.912 E24.31749
G1 X12.588 Y9.761 E24.66549
G1 X12.588 Y9.054 E24.68766
G1 X5.446 Y1.912 E25.00431
G1 X6.153 Y1.912 E25.02647
G1 X12.588 Y8.347 E25.31178
G1 X12.588 Y7.640 E25.33395
G1 X6.861 Y1.912 E25.58789
G1 X7.568 Y1.912 E25.61005
G1 X12.588 Y6.933 E25.83265
G1 X12.588 Y6.225 E25.85484
G1 X8.275 Y1.912 E26.04607
G1 X8.982 Y1.912 E26.06823
G1 X12.588 Y5.518 E26.22811
G1 X12.588 Y4.811 E26.25028
G1 X9.689 Y1.912 E26.37881
G1 X10.396 Y1.912 E26.40097
G1 X12.588 Y4.104 E26.49816
G1 X12.588 Y3.397 E26.52033
G1 X11.103 Y1.912 E26.58617
G1 X11.810 Y1.912 E26.60833
G1 X12.588 Y2.690 E26.64283
G1 X12.588 Y1.983 E26.66499
G1 X12.517 Y1.912 E26.66814
G1 X12.588 Y1.912 E26.67036
G0 F7200 X12.769 Y12.769
G0 X13.088 Y13.088
;TYPE:WALL-INNER
G1 F1200 X13.088 Y1.412 E27.03642
G1 X1.412 Y1.412 E27.40247
G1 X1.412 Y13.088 E27.76852
G1 X13.088 Y13.088 E28.13458
G0 F7200 X13.588 Y13.588
;TYPE:WALL-OUTER
G1 F1200 X13.588 Y0.912 E28.53198
G1 X0.912 Y0.912 E28.92939
G1 X0.912 Y13.588 E29.32679
G1 X13.588 Y13.588 E29.7242
G0 F7200 X13.588 Y13.338
G0 X12.339 Y12.486
;MESH:NONMESH
G0 F600 X12.339 Y12.486 Z1.5
G0 F7200 X2.023 Y1.872
;TIME_ELAPSED:49.397746
;LAYER:3
;TYPE:FILL
;MESH:platform-15-13.STL
G1 F1200 X1.872 Y2.023 E29.73089
G1 X1.872 Y2.730 E29.75306
G1 X2.730 Y1.872 E29.7911
G1 X3.437 Y1.872 E29.81326
G1 X1.872 Y3.437 E29.88265
G1 X1.872 Y4.144 E29.90481
G1 X4.145 Y1.872 E30.00557
G1 X4.852 Y1.872 E30.02773
G1 X1.872 Y4.852 E30.15986
G1 X1.872 Y5.559 E30.18202
G1 X5.559 Y1.872 E30.34549
G1 X6.266 Y1.872 E30.36766
G1 X1.872 Y6.266 E30.56248
G1 X1.872 Y6.973 E30.58464
G1 X6.973 Y1.872 E30.8108
G1 X7.680 Y1.872 E30.83297
G1 X1.872 Y7.680 E31.09048
G1 X1.872 Y8.387 E31.11264
G1 X8.387 Y1.872 E31.4015
G1 X9.094 Y1.872 E31.42366
G1 X1.872 Y9.094 E31.74386
G1 X1.872 Y9.801 E31.76603
G1 X9.801 Y1.872 E32.11758
G1 X10.509 Y1.872 E32.13977
G1 X1.872 Y10.508 E32.52269
G1 X1.872 Y11.215 E32.54485
G1 X11.216 Y1.872 E32.95912
G1 X11.923 Y1.872 E32.98128
G1 X1.872 Y11.923 E33.42691
G1 X1.872 Y12.628 E33.44901
G1 X12.628 Y1.874 E33.92586
G1 X12.628 Y2.581 E33.94802
G1 X2.580 Y12.628 E34.3935
G1 X3.288 Y12.628 E34.41569
G1 X12.628 Y3.288 E34.8298
G1 X12.628 Y3.995 E34.85196
G1 X3.995 Y12.628 E35.23473
G1 X4.702 Y12.628 E35.25689
G1 X12.628 Y4.702 E35.6083
G1 X12.628 Y5.409 E35.63047
G1 X5.409 Y12.628 E35.95054
G1 X6.116 Y12.628 E35.9727
G1 X12.628 Y6.117 E36.2614
G1 X12.628 Y6.824 E36.28357
G1 X6.823 Y12.628 E36.54092
G1 X7.530 Y12.628 E36.56309
G1 X12.628 Y7.531 E36.78909
G1 X12.628 Y8.238 E36.81126
G1 X8.237 Y12.628 E37.00592
G1 X8.944 Y12.628 E37.02809
G1 X12.628 Y8.945 E37.1914
G1 X12.628 Y9.652 E37.21357
G1 X9.652 Y12.628 E37.34551
G1 X10.359 Y12.628 E37.36768
G1 X12.628 Y10.359 E37.46828
G1 X12.628 Y11.066 E37.49044
G1 X11.066 Y12.628 E37.5597
G1 X11.773 Y12.628 E37.58186
G1 X12.628 Y11.773 E37.61977
G1 X12.628 Y12.480 E37.64194
G1 X12.480 Y12.628 E37.6485
G0 F7200 X13.128 Y13.128
;TYPE:WALL-INNER
G1 F1200 X13.128 Y1.372 E38.01706
G1 X1.372 Y1.372 E38.38562
G1 X1.372 Y13.128 E38.75418
G1 X13.128 Y13.128 E39.12274
G0 F7200 X13.628 Y13.628
;TYPE:WALL-OUTER
G1 F1200 X13.628 Y0.872 E39.52266
G1 X0.872 Y0.872 E39.92257
G1 X0.872 Y13.628 E40.32248
G1 X13.628 Y13.628 E40.72239
G0 F7200 X13.628 Y13.378
G0 X12.378 Y12.525
;MESH:NONMESH
G0 F600 X12.378 Y12.525 Z1.9
G0 F7200 X1.832 Y12.664
;TIME_ELAPSED:59.959055
;LAYER:4
;TYPE:FILL
;MESH:platform-15-13.STL
G1 F1200 X2.056 Y12.664 E40.72942
G1 X1.832 Y12.440 E40.73935
G1 X1.832 Y11.733 E40.76151
G1 X2.763 Y12.664 E40.80279
G1 X3.470 Y12.664 E40.82495
G1 X1.832 Y11.026 E40.89758
G1 X1.832 Y10.319 E40.91974
G1 X4.177 Y12.664 E41.02371
G1 X4.884 Y12.664 E41.04588
G1 X1.832 Y9.612 E41.1812
G1 X1.832 Y8.905 E41.20336
G1 X5.591 Y12.664 E41.37002
G1 X6.298 Y12.664 E41.39219
G1 X1.832 Y8.198 E41.5902
G1 X1.832 Y7.490 E41.61239
G1 X7.006 Y12.664 E41.84179
G1 X7.713 Y12.664 E41.86396
G1 X1.832 Y6.783 E42.1247
G1 X1.832 Y6.076 E42.14687
G1 X8.420 Y12.664 E42.43896
G1 X9.127 Y12.664 E42.46112
G1 X1.832 Y5.369 E42.78456
G1 X1.832 Y4.662 E42.80673
G1 X9.834 Y12.664 E43.16151
G1 X10.541 Y12.664 E43.18368
G1 X1.832 Y3.955 E43.56981
G1 X1.832 Y3.248 E43.59197
G1 X11.248 Y12.664 E44.00945
G1 X11.955 Y12.664 E44.03161
G1 X1.832 Y2.541 E44.48044
G1 X1.832 Y1.834 E44.5026
G1 X12.664 Y12.664 E44.98281
G1 X12.664 Y11.958 E45.00495
G1 X2.538 Y1.832 E45.4539
G1 X3.245 Y1.832 E45.47607
G1 X12.664 Y11.251 E45.89368
G1 X12.664 Y10.544 E45.91584
G1 X3.952 Y1.832 E46.30211
G1 X4.659 Y1.832 E46.32427
G1 X12.664 Y9.837 E46.67919
G1 X12.664 Y9.130 E46.70135
G1 X5.366 Y1.832 E47.02492
G1 X6.074 Y1.832 E47.04712
G1 X12.664 Y8.422 E47.3393
G1 X12.664 Y7.715 E47.36147
G1 X6.781 Y1.832 E47.6223
G1 X7.488 Y1.832 E47.64446
G1 X12.664 Y7.008 E47.87395
G1 X12.664 Y6.301 E47.89612
G1 X8.195 Y1.832 E48.09426
G1 X8.902 Y1.832 E48.11642
G1 X12.664 Y5.594 E48.28322
G1 X12.664 Y4.887 E48.30538
G1 X9.609 Y1.832 E48.44083
G1 X10.316 Y1.832 E48.463
G1 X12.664 Y4.180 E48.5671
G1 X12.664 Y3.473 E48.58927
G1 X11.023 Y1.832 E48.66202
G1 X11.730 Y1.832 E48.68419
G1 X12.664 Y2.766 E48.7256
G1 X12.664 Y2.058 E48.7478
G1 X12.438 Y1.832 E48.75782
G1 X12.664 Y1.832 E48.7649
G0 F7200 X12.847 Y12.847
G0 X13.164 Y13.164
;TYPE:WALL-INNER
G1 F1200 X13.164 Y1.332 E49.13585
G1 X1.332 Y1.332 E49.50679
G1 X1.332 Y13.164 E49.87773
G1 X13.164 Y13.164 E50.24868
G0 F7200 X13.664 Y13.664
;TYPE:WALL-OUTER
G1 F1200 X13.664 Y0.832 E50.65097
G1 X0.832 Y0.832 E51.05327
G1 X0.832 Y13.664 E51.45556
G1 X13.664 Y13.664 E51.85786
G0 F7200 X13.664 Y13.414
G0 X12.417 Y12.564
;MESH:NONMESH
G0 F600 X12.417 Y12.564 Z2.3
G0 F7200 X1.792 Y2.103
;TIME_ELAPSED:70.787121
;LAYER:5
;TYPE:FILL
;MESH:platform-15-13.STL
G1 F1200 X2.103 Y1.792 E51.87165
G1 X1.792 Y1.792 E51.8814
G1 X1.792 Y2.810 E51.91331
G1 X2.810 Y1.792 E51.95845
G1 X3.517 Y1.792 E51.98061
G1 X1.792 Y3.517 E52.05709
G1 X1.792 Y4.224 E52.07926
G1 X4.224 Y1.792 E52.18709
G1 X4.932 Y1.792 E52.20928
G1 X1.792 Y4.931 E52.34848
G1 X1.792 Y5.639 E52.37068
G1 X5.639 Y1.792 E52.54124
G1 X6.346 Y1.792 E52.5634
G1 X1.792 Y6.346 E52.76531
G1 X1.792 Y7.053 E52.78748
G1 X7.053 Y1.792 E53.02074
G1 X7.760 Y1.792 E53.0429
G1 X1.792 Y7.760 E53.3075
G1 X1.792 Y8.467 E53.32967
G1 X8.467 Y1.792 E53.62562
G1 X9.174 Y1.792 E53.64778
G1 X1.792 Y9.174 E53.97508
G1 X1.792 Y9.881 E53.99724
G1 X9.881 Y1.792 E54.35588
G1 X10.588 Y1.792 E54.37805
G1 X1.792 Y10.588 E54.76804
G1 X1.792 Y11.295 E54.7902
G1 X11.296 Y1.792 E55.21156
G1 X12.003 Y1.792 E55.23372
G1 X1.792 Y12.002 E55.68642
G1 X1.792 Y12.704 E55.70843
G1 X12.704 Y1.798 E56.1921
G1 X12.704 Y2.505 E56.21427
G1 X2.505 Y12.704 E56.66646
G1 X3.212 Y12.704 E56.68863
G1 X12.704 Y3.212 E57.10947
G1 X12.704 Y3.919 E57.13164
G1 X3.919 Y12.704 E57.52114
G1 X4.626 Y12.704 E57.5433
G1 X12.704 Y4.626 E57.90146
G1 X12.704 Y5.333 E57.92362
G1 X5.333 Y12.704 E58.25043
G1 X6.040 Y12.704 E58.27259
G1 X12.704 Y6.040 E58.56806
G1 X12.704 Y6.747 E58.59022
G1 X6.747 Y12.704 E58.85434
G1 X7.455 Y12.704 E58.87653
G1 X12.704 Y7.454 E59.10928
G1 X12.704 Y8.161 E59.13144
G1 X8.162 Y12.704 E59.33284
G1 X8.869 Y12.704 E59.35501
G1 X12.704 Y8.869 E59.52504
G1 X12.704 Y9.576 E59.54721
G1 X9.576 Y12.704 E59.68589
G1 X10.283 Y12.704 E59.70806
G1 X12.704 Y10.283 E59.8154
G1 X12.704 Y10.990 E59.83756
G1 X10.990 Y12.704 E59.91356
G1 X11.697 Y12.704 E59.93572
G1 X12.704 Y11.697 E59.98037
G1 X12.704 Y12.404 E60.00253
G1 X12.404 Y12.704 E60.01583
G0 F7200 X13.204 Y13.204
;TYPE:WALL-INNER
G1 F1200 X13.204 Y1.292 E60.38929
G1 X1.292 Y1.292 E60.76274
G1 X1.292 Y13.204 E61.13619
G1 X13.204 Y13.204 E61.50964
G0 F7200 X13.704 Y13.704
;TYPE:WALL-OUTER
G1 F1200 X13.704 Y0.792 E61.91445
G1 X0.792 Y0.792 E62.31925
G1 X0.792 Y13.704 E62.72405
G1 X13.704 Y13.704 E63.12886
G0 F7200 X13.704 Y13.454
G0 X12.457 Y12.604
;MESH:NONMESH
G0 F600 X12.457 Y12.604 Z2.7
G0 F7200 X1.756 Y12.744
;TIME_ELAPSED:81.593435
;LAYER:6
;TYPE:FILL
;MESH:platform-15-13.STL
G1 F1200 X2.136 Y12.744 E63.14077
G1 X1.756 Y12.364 E63.15762
G1 X1.756 Y11.657 E63.17978
G1 X2.843 Y12.744 E63.22798
G1 X3.551 Y12.744 E63.25017
G1 X1.756 Y10.950 E63.32974
G1 X1.756 Y10.242 E63.35193
G1 X4.258 Y12.744 E63.46286
G1 X4.965 Y12.744 E63.48503
G1 X1.756 Y9.535 E63.6273
G1 X1.756 Y8.828 E63.64947
G1 X5.672 Y12.744 E63.82309
G1 X6.379 Y12.744 E63.84526
G1 X1.756 Y8.121 E64.05023
G1 X1.756 Y7.414 E64.07239
G1 X7.086 Y12.744 E64.30871
G1 X7.793 Y12.744 E64.33087
G1 X1.756 Y6.707 E64.59854
G1 X1.756 Y6.000 E64.6207
G1 X8.500 Y12.744 E64.91971
G1 X9.207 Y12.744 E64.94187
G1 X1.756 Y5.293 E65.27223
G1 X1.756 Y4.586 E65.29439
G1 X9.915 Y12.744 E65.65612
G1 X10.622 Y12.744 E65.67828
G1 X1.756 Y3.879 E66.07135
G1 X1.756 Y3.171 E66.09355
G1 X11.329 Y12.744 E66.51798
G1 X12.036 Y12.744 E66.54015
G1 X1.756 Y2.464 E66.99593
G1 X1.756 Y1.757 E67.0181
G1 X12.744 Y12.744 E67.50525
G1 X12.744 Y12.039 E67.52735
G1 X2.462 Y1.756 E67.98325
G1 X3.169 Y1.756 E68.00541
G1 X12.744 Y11.331 E68.42994
G1 X12.744 Y10.624 E68.4521
G1 X3.876 Y1.756 E68.84528
G1 X4.583 Y1.756 E68.86745
G1 X12.744 Y9.917 E69.22928
G1 X12.744 Y9.210 E69.25145
G1 X5.290 Y1.756 E69.58193
G1 X5.997 Y1.756 E69.6041
G1 X12.744 Y8.503 E69.90324
G1 X12.744 Y7.796 E69.9254
G1 X6.704 Y1.756 E70.1932
G1 X7.411 Y1.756 E70.21536
G1 X12.744 Y7.089 E70.45181
G1 X12.744 Y6.382 E70.47398
G1 X8.119 Y1.756 E70.67906
G1 X8.826 Y1.756 E70.70122
G1 X12.744 Y5.675 E70.87496
G1 X12.744 Y4.967 E70.89715
G1 X9.533 Y1.756 E71.03952
G1 X10.240 Y1.756 E71.06168
G1 X12.744 Y4.260 E71.1727
G1 X12.744 Y3.553 E71.19487
G1 X10.947 Y1.756 E71.27454
G1 X11.654 Y1.756 E71.29671
G1 X12.744 Y2.846 E71.34504
G1 X12.744 Y2.139 E71.3672
G1 X12.361 Y1.756 E71.38418
G1 X12.744 Y1.756 E71.39619
G0 F7200 X12.926 Y12.926
G0 X13.244 Y13.244
;TYPE:WALL-INNER
G1 F1200 X13.244 Y1.256 E71.77202
G1 X1.256 Y1.256 E72.14786
G1 X1.256 Y13.244 E72.52369
G1 X13.244 Y13.244 E72.89953
G0 F7200 X13.744 Y13.744
;TYPE:WALL-OUTER
G1 F1200 X13.744 Y0.756 E73.30671
G1 X0.756 Y0.756 E73.7139
G1 X0.756 Y13.744 E74.12109
G1 X13.744 Y13.744 E74.52827
G0 F7200 X13.744 Y13.494
G0 X12.496 Y12.643
;MESH:NONMESH
G0 F600 X12.496 Y12.643 Z3.1
G0 F7200 X1.716 Y2.179
;TIME_ELAPSED:92.650536
;LAYER:7
;TYPE:FILL
;MESH:platform-15-13.STL
G1 F1200 X2.179 Y1.716 E74.5488
G1 X1.716 Y1.716 E74.56332
G1 X1.716 Y2.886 E74.6
