;FLAVOR:Marlin
;TIME:775
;Filament used: 0.484556m
;Layer height: 0.4
;LAYER_COUNT:38
;LAYER:0
;MESH:platform-15-13.STL

G21 ;start of the code
G1 Z15 F300
G28 X0 Y0 ;Home
G92 X0 Y0 ;Consider this as current
G0 X50 Y50 F3000 ;Go-to Offset
G92 X0 Y0 ;Reset

G0 F3600 X13.012 Y13.012 Z0.3
M7
;TYPE:WALL-INNER
G1 F1200 X13.012 Y1.484 E0.27106
G1 X1.484 Y1.484 E0.54212
G1 X1.484 Y13.012 E0.81318
G1 X13.012 Y13.012 E1.08424
G0 F3600 X13.512 Y13.512
;TYPE:WALL-OUTER
G1 F1200 X13.512 Y0.984 E1.37881
G1 X0.984 Y0.984 E1.67339
G1 X0.984 Y13.512 E1.96796
G1 X13.512 Y13.512 E2.26253
G0 F3600 X13.512 Y13.262
G0 X12.695 Y12.695
G0 X12.536 Y12.536
;TYPE:SKIN
G1 F1200 X1.956 Y12.536 E2.5113
G1 X1.956 Y1.956 E2.76007
G1 X12.536 Y1.956 E3.00884
G1 X12.536 Y12.536 E3.25761
G0 F3600 X12.286 Y2.802
G1 F1200 X11.690 Y2.206 E3.27743
G0 F3600 X10.983 Y2.206
G1 F1200 X12.286 Y3.509 E3.32076
G0 F3600 X12.286 Y4.217
G1 F1200 X10.276 Y2.206 E3.38761
G0 F3600 X9.569 Y2.206
G1 F1200 X12.286 Y4.924 E3.47798
G0 F3600 X12.286 Y5.631
G1 F1200 X8.862 Y2.206 E3.59185
G0 F3600 X8.155 Y2.206
G1 F1200 X12.286 Y6.338 E3.72923
G0 F3600 X12.286 Y7.045
G1 F1200 X7.447 Y2.206 E3.89014
G0 F3600 X6.740 Y2.206
G1 F1200 X12.286 Y7.752 E4.07456
G0 F3600 X12.286 Y8.459
G1 F1200 X6.033 Y2.206 E4.28249
G0 F3600 X5.326 Y2.206
G1 F1200 X12.286 Y9.166 E4.51393
G0 F3600 X12.286 Y9.873
G1 F1200 X4.619 Y2.206 E4.76888
G0 F3600 X3.912 Y2.206
G1 F1200 X12.286 Y10.580 E5.04734
G0 F3600 X12.286 Y11.288
G1 F1200 X3.205 Y2.206 E5.34932
G0 F3600 X2.498 Y2.206
G1 F1200 X12.286 Y11.995 E5.67482
G0 F3600 X11.870 Y12.286
G1 F1200 X2.206 Y2.621 E5.99619
G0 F3600 X2.206 Y3.328
G1 F1200 X11.163 Y12.286 E6.29405
G0 F3600 X10.456 Y12.286
G1 F1200 X2.206 Y4.036 E6.56838
G0 F3600 X2.206 Y4.743
G1 F1200 X9.749 Y12.286 E6.81921
G0 F3600 X9.042 Y12.286
G1 F1200 X2.206 Y5.450 E7.04652
G0 F3600 X2.206 Y6.157
G1 F1200 X8.335 Y12.286 E7.25033
G0 F3600 X7.628 Y12.286
G1 F1200 X2.206 Y6.864 E7.43062
G0 F3600 X2.206 Y7.571
G1 F1200 X6.921 Y12.286 E7.58741
G0 F3600 X6.214 Y12.286
G1 F1200 X2.206 Y8.278 E7.72069
G0 F3600 X2.206 Y8.985
G1 F1200 X5.506 Y12.286 E7.83044
G0 F3600 X4.799 Y12.286
G1 F1200 X2.206 Y9.692 E7.91668
G0 F3600 X2.206 Y10.399
G1 F1200 X4.092 Y12.286 E7.97941
G0 F3600 X3.385 Y12.286
G1 F1200 X2.206 Y11.107 E8.01861
G0 F3600 X2.206 Y11.814
G1 F1200 X2.678 Y12.286 E8.03431
G0 F3600 X2.678 Y12.265
;MESH:NONMESH
G0 F600 X2.678 Y12.265 Z0.7
G0 F3600 X12.695 Y12.695
G0 X13.048 Y13.048
;TIME_ELAPSED:21.370889
;LAYER:1
;TYPE:WALL-INNER
;MESH:platform-15-13.STL
G1 F1200 X13.048 Y1.452 E8.39786
G1 X1.452 Y1.452 E8.7614
G1 X1.452 Y13.048 E9.12495
G1 X13.048 Y13.048 E9.48849
G0 F5400 X13.548 Y13.548
;TYPE:WALL-OUTER
G1 F1200 X13.548 Y0.952 E9.88339
G1 X0.952 Y0.952 E10.27828
G1 X0.952 Y13.548 E10.67318
G1 X13.548 Y13.548 E11.06808
G0 F5400 X13.548 Y13.298
G0 X12.730 Y12.730
G0 X12.572 Y12.572
;TYPE:SKIN
G1 F1200 X1.924 Y12.572 E11.4019
G1 X1.924 Y1.924 E11.73573
G1 X12.572 Y1.924 E12.06955
G1 X12.572 Y12.572 E12.40338
G0 F5400 X11.713 Y12.322
G1 F1200 X12.322 Y11.713 E12.43038
G0 F5400 X12.322 Y11.005
G1 F1200 X11.006 Y12.322 E12.48875
G0 F5400 X10.299 Y12.322
G1 F1200 X12.322 Y10.298 E12.57846
G0 F5400 X12.322 Y9.591
G1 F1200 X9.591 Y12.322 E12.69955
G0 F5400 X8.884 Y12.322
G1 F1200 X12.322 Y8.884 E12.85198
G0 F5400 X12.322 Y8.177
G1 F1200 X8.177 Y12.322 E13.03575
G0 F5400 X7.470 Y12.322
G1 F1200 X12.322 Y7.470 E13.25088
G0 F5400 X12.322 Y6.763
G1 F1200 X6.763 Y12.322 E13.49734
G0 F5400 X6.056 Y12.322
G1 F1200 X12.322 Y6.056 E13.77516
G0 F5400 X12.322 Y5.349
G1 F1200 X5.349 Y12.322 E14.08432
G0 F5400 X4.642 Y12.322
G1 F1200 X12.322 Y4.642 E14.42483
G0 F5400 X12.322 Y3.934
G1 F1200 X3.935 Y12.322 E14.7967
G0 F5400 X3.227 Y12.322
G1 F1200 X12.322 Y3.227 E15.19995
G0 F5400 X12.322 Y2.520
G1 F1200 X2.520 Y12.322 E15.63454
G0 F5400 X2.174 Y11.961
G1 F1200 X11.962 Y2.174 E16.06849
G0 F5400 X11.255 Y2.174
G1 F1200 X2.174 Y11.254 E16.47109
G0 F5400 X2.174 Y10.547
G1 F1200 X10.547 Y2.174 E16.84232
G0 F5400 X9.840 Y2.174
G1 F1200 X2.174 Y9.840 E17.18221
G0 F5400 X2.174 Y9.133
G1 F1200 X9.133 Y2.174 E17.49075
G0 F5400 X8.426 Y2.174
G1 F1200 X2.174 Y8.426 E17.76794
G0 F5400 X2.174 Y7.719
G1 F1200 X7.719 Y2.174 E18.01379
G0 F5400 X7.012 Y2.174
G1 F1200 X2.174 Y7.012 E18.22829
G0 F5400 X2.174 Y6.305
G1 F1200 X6.305 Y2.174 E18.41145
G0 F5400 X5.598 Y2.174
G1 F1200 X2.174 Y5.598 E18.56326
G0 F5400 X2.174 Y4.890
G1 F1200 X4.891 Y2.174 E18.6837
G0 F5400 X4.183 Y2.174
G1 F1200 X2.174 Y4.183 E18.77277
G0 F5400 X2.174 Y3.476
G1 F1200 X3.476 Y2.174 E18.8305
G0 F5400 X2.769 Y2.174
G1 F1200 X2.174 Y2.769 E18.85688
G0 F5400 X2.202 Y2.769
;MESH:NONMESH
G0 F600 X2.202 Y2.769 Z1.1
G0 F5400 X12.730 Y12.730
G0 X13.088 Y13.088
;TIME_ELAPSED:38.868047
;LAYER:2
;TYPE:WALL-INNER
;MESH:platform-15-13.STL
G1 F1200 X13.088 Y1.412 E19.22293
G1 X1.412 Y1.412 E19.58898
G1 X1.412 Y13.088 E19.95504
G1 X13.088 Y13.088 E20.32109
G0 F7200 X13.588 Y13.588
;TYPE:WALL-OUTER
G1 F1200 X13.588 Y0.912 E20.7185
G1 X0.912 Y0.912 E21.1159
G1 X0.912 Y13.588 E21.5133
G1 X13.588 Y13.588 E21.91071
G0 F7200 X13.588 Y13.338
G0 X12.769 Y12.769
G0 X12.612 Y12.612
;TYPE:SKIN
G1 F1200 X1.884 Y12.612 E22.24704
G1 X1.884 Y1.884 E22.58337
G1 X12.612 Y1.884 E22.91971
G1 X12.612 Y12.612 E23.25604
G0 F7200 X12.362 Y2.878
G1 F1200 X11.618 Y2.134 E23.28903
G0 F7200 X10.911 Y2.134
G1 F1200 X12.362 Y3.585 E23.35336
G0 F7200 X12.362 Y4.292
G1 F1200 X10.204 Y2.134 E23.44904
G0 F7200 X9.497 Y2.134
G1 F1200 X12.362 Y4.999 E23.57606
G0 F7200 X12.362 Y5.706
G1 F1200 X8.790 Y2.134 E23.73444
G0 F7200 X8.082 Y2.134
G1 F1200 X12.362 Y6.414 E23.9242
G0 F7200 X12.362 Y7.121
G1 F1200 X7.375 Y2.134 E24.14531
G0 F7200 X6.668 Y2.134
G1 F1200 X12.362 Y7.828 E24.39776
G0 F7200 X12.362 Y8.535
G1 F1200 X5.961 Y2.134 E24.68156
G0 F7200 X5.254 Y2.134
G1 F1200 X12.362 Y9.242 E24.99671
G0 F7200 X12.362 Y9.949
G1 F1200 X4.547 Y2.134 E25.3432
G0 F7200 X3.840 Y2.134
G1 F1200 X12.362 Y10.656 E25.72104
G0 F7200 X12.362 Y11.363
G1 F1200 X3.133 Y2.134 E26.13022
G0 F7200 X2.426 Y2.134
G1 F1200 X12.362 Y12.070 E26.57076
G0 F7200 X11.946 Y12.362
G1 F1200 X2.134 Y2.550 E27.00579
G0 F7200 X2.134 Y3.257
G1 F1200 X11.239 Y12.362 E27.40948
G0 F7200 X10.532 Y12.362
G1 F1200 X2.134 Y3.964 E27.78182
G0 F7200 X2.134 Y4.671
G1 F1200 X9.825 Y12.362 E28.12281
G0 F7200 X9.118 Y12.362
G1 F1200 X2.134 Y5.378 E28.43246
G0 F7200 X2.134 Y6.085
G1 F1200 X8.411 Y12.362 E28.71077
G0 F7200 X7.703 Y12.362
G1 F1200 X2.134 Y6.793 E28.95768
G0 F7200 X2.134 Y7.500
G1 F1200 X6.996 Y12.362 E29.17324
G0 F7200 X6.289 Y12.362
G1 F1200 X2.134 Y8.207 E29.35746
G0 F7200 X2.134 Y8.914
G1 F1200 X5.582 Y12.362 E29.51034
G0 F7200 X4.875 Y12.362
G1 F1200 X2.134 Y9.621 E29.63186
G0 F7200 X2.134 Y10.328
G1 F1200 X4.168 Y12.362 E29.72205
G0 F7200 X3.461 Y12.362
G1 F1200 X2.134 Y11.035 E29.78088
G0 F7200 X2.134 Y11.742
G1 F1200 X2.754 Y12.362 E29.80837
G0 F7200 X2.754 Y12.339
;MESH:NONMESH
G0 F600 X2.754 Y12.339 Z1.5
G0 F7200 X12.769 Y12.769
G0 X13.128 Y13.128
;TIME_ELAPSED:56.208681
;LAYER:3
;TYPE:WALL-INNER
;MESH:platform-15-13.STL
G1 F1200 X13.128 Y1.372 E30.17693
G1 X1.372 Y1.372 E30.54549
G1 X1.372 Y13.128 E30.91405
G1 X13.128 Y13.128 E31.28262
G0 F7200 X13.628 Y13.628
;TYPE:WALL-OUTER
G1 F1200 X13.628 Y0.872 E31.68253
G1 X0.872 Y0.872 E32.08244
G1 X0.872 Y13.628 E32.48235
G1 X13.628 Y13.628 E32.88227
G0 F7200 X13.628 Y13.378
G0 X12.808 Y12.808
G0 X12.652 Y12.652
;TYPE:SKIN
G1 F1200 X1.844 Y12.652 E33.22111
G1 X1.844 Y1.844 E33.55995
G1 X12.652 Y1.844 E33.89879
G1 X12.652 Y12.652 E34.23763
G0 F7200 X11.633 Y12.402
G1 F1200 X12.402 Y11.633 E34.27172
G0 F7200 X12.402 Y10.926
G1 F1200 X10.926 Y12.402 E34.33717
G0 F7200 X10.219 Y12.402
G1 F1200 X12.402 Y10.218 E34.43397
G0 F7200 X12.402 Y9.511
G1 F1200 X9.512 Y12.402 E34.56213
G0 F7200 X8.804 Y12.402
G1 F1200 X12.402 Y8.804 E34.72165
G0 F7200 X12.402 Y8.097
G1 F1200 X8.097 Y12.402 E34.91253
G0 F7200 X7.390 Y12.402
G1 F1200 X12.402 Y7.390 E35.13474
G0 F7200 X12.402 Y6.683
G1 F1200 X6.683 Y12.402 E35.3883
G0 F7200 X5.976 Y12.402
G1 F1200 X12.402 Y5.976 E35.67321
G0 F7200 X12.402 Y5.269
G1 F1200 X5.269 Y12.402 E35.98947
G0 F7200 X4.562 Y12.402
G1 F1200 X12.402 Y4.562 E36.33707
G0 F7200 X12.402 Y3.854
G1 F1200 X3.855 Y12.402 E36.71604
G0 F7200 X3.148 Y12.402
G1 F1200 X12.402 Y3.147 E37.12636
G0 F7200 X12.402 Y2.440
G1 F1200 X2.440 Y12.402 E37.56804
G0 F7200 X2.094 Y12.041
G1 F1200 X12.042 Y2.094 E38.00908
G0 F7200 X11.334 Y2.094
G1 F1200 X2.094 Y11.334 E38.41875
G0 F7200 X2.094 Y10.627
G1 F1200 X10.627 Y2.094 E38.79708
G0 F7200 X9.920 Y2.094
G1 F1200 X2.094 Y9.920 E39.14406
G0 F7200 X2.094 Y9.213
G1 F1200 X9.213 Y2.094 E39.4597
G0 F7200 X8.506 Y2.094
G1 F1200 X2.094 Y8.506 E39.74398
G0 F7200 X2.094 Y7.799
G1 F1200 X7.799 Y2.094 E39.99693
G0 F7200 X7.092 Y2.094
G1 F1200 X2.094 Y7.092 E40.21852
G0 F7200 X2.094 Y6.385
G1 F1200 X6.385 Y2.094 E40.40877
G0 F7200 X5.678 Y2.094
G1 F1200 X2.094 Y5.677 E40.56765
G0 F7200 X2.094 Y4.970
G1 F1200 X4.970 Y2.094 E40.69517
G0 F7200 X4.263 Y2.094
G1 F1200 X2.094 Y4.263 E40.79133
G0 F7200 X2.094 Y3.556
G1 F1200 X3.556 Y2.094 E40.85615
G0 F7200 X2.849 Y2.094
G1 F1200 X2.094 Y2.849 E40.88963
G1 X2.006 Y2.937
G0 F7200 X2.124 Y2.937
;MESH:NONMESH
G0 F600 X2.124 Y2.937 Z1.9
G0 F7200 X12.808 Y12.808
G0 X13.164 Y13.164
;TIME_ELAPSED:73.710558
;LAYER:4
;TYPE:WALL-INNER
;MESH:platform-15-13.STL
G1 F1200 X13.164 Y1.332 E41.26057
G1 X1.332 Y1.332 E41.63152
G1 X1.332 Y13.164 E42.00246
G1 X13.164 Y13.164 E42.3734
G0 F7200 X13.664 Y13.664
;TYPE:WALL-OUTER
G1 F1200 X13.664 Y0.832 E42.7757
G1 X0.832 Y0.832 E43.17799
G1 X0.832 Y13.664 E43.58029
G1 X13.664 Y13.664 E43.98259
G0 F7200 X13.664 Y13.414
G0 X12.847 Y12.847
G0 X12.688 Y12.688
;TYPE:SKIN
G1 F1200 X1.804 Y12.688 E44.32381
G1 X1.804 Y1.804 E44.66503
G1 X12.688 Y1.804 E45.00626
G1 X12.688 Y12.688 E45.34748
G0 F7200 X12.438 Y2.247
G1 F1200 X12.245 Y2.054 E45.35604
G0 F7200 X11.538 Y2.054
G1 F1200 X12.438 Y2.954 E45.39594
G0 F7200 X12.438 Y3.661
G1 F1200 X10.831 Y2.054 E45.46719
G0 F7200 X10.124 Y2.054
G1 F1200 X12.438 Y4.369 E45.56981
G0 F7200 X12.438 Y5.076
G1 F1200 X9.417 Y2.054 E45.70377
G0 F7200 X8.710 Y2.054
G1 F1200 X12.438 Y5.783 E45.86908
G0 F7200 X12.438 Y6.490
G1 F1200 X8.003 Y2.054 E46.06574
G0 F7200 X7.295 Y2.054
G1 F1200 X12.438 Y7.197 E46.29376
G0 F7200 X12.438 Y7.904
G1 F1200 X6.588 Y2.054 E46.55313
G0 F7200 X5.881 Y2.054
G1 F1200 X12.438 Y8.611 E46.84385
G0 F7200 X12.438 Y9.318
G1 F1200 X5.174 Y2.054 E47.16591
G0 F7200 X4.467 Y2.054
G1 F1200 X12.438 Y10.025 E47.51932
G0 F7200 X12.438 Y10.733
G1 F1200 X3.760 Y2.054 E47.9041
G0 F7200 X3.053 Y2.054
G1 F1200 X12.438 Y11.440 E48.32022
G0 F7200 X12.438 Y12.147
G1 F1200 X2.346 Y2.054 E48.76769
G0 F7200 X2.054 Y2.469
G1 F1200 X12.022 Y12.438 E49.20967
G0 F7200 X11.315 Y12.438
G1 F1200 X2.054 Y3.176 E49.62029
G0 F7200 X2.054 Y3.883
G1 F1200 X10.608 Y12.438 E49.99957
G0 F7200 X9.901 Y12.438
G1 F1200 X2.054 Y4.591 E50.34749
G0 F7200 X2.054 Y5.298
G1 F1200 X9.194 Y12.438 E50.66405
G0 F7200 X8.487 Y12.438
G1 F1200 X2.054 Y6.005 E50.94927
G0 F7200 X2.054 Y6.712
G1 F1200 X7.780 Y12.438 E51.20314
G0 F7200 X7.073 Y12.438
G1 F1200 X2.054 Y7.419 E51.42567
G0 F7200 X2.054 Y8.126
G1 F1200 X6.366 Y12.438 E51.61685
G0 F7200 X5.658 Y12.438
G1 F1200 X2.054 Y8.833 E51.77666
G0 F7200 X2.054 Y9.540
G1 F1200 X4.951 Y12.438 E51.90513
G0 F7200 X4.244 Y12.438
G1 F1200 X2.054 Y10.247 E52.00225
G0 F7200 X2.054 Y10.955
G1 F1200 X3.537 Y12.438 E52.068
G0 F7200 X2.830 Y12.438
G1 F1200 X2.054 Y11.662 E52.10241
G1 X1.966 Y11.574
G0 F7200 X2.085 Y11.574
;MESH:NONMESH
G0 F600 X2.085 Y11.574 Z2.3
G0 F7200 X12.847 Y12.847
G0 X13.204 Y13.204
;TIME_ELAPSED:91.498421
;LAYER:5
;TYPE:WALL-INNER
;MESH:platform-15-13.STL
G1 F1200 X13.204 Y1.292 E52.47586
G1 X1.292 Y1.292 E52.84931
G1 X1.292 Y13.204 E53.22276
G1 X13.204 Y13.204 E53.59622
G0 F7200 X13.704 Y13.704
;TYPE:WALL-OUTER
G1 F1200 X13.704 Y0.792 E54.00102
G1 X0.792 Y0.792 E54.40582
G1 X0.792 Y13.704 E54.81062
G1 X13.704 Y13.704 E55.21543
G0 F7200 X13.704 Y13.454
G0 X12.887 Y12.887
G0 X12.728 Y12.728
;TYPE:SKIN
G1 F1200 X1.764 Y12.728 E55.55916
G1 X1.764 Y1.764 E55.90289
G1 X12.728 Y1.764 E56.24662
G1 X12.728 Y12.728 E56.59035
G0 F7200 X12.264 Y12.478
G1 F1200 X12.478 Y12.264 E56.59984
G0 F7200 X12.478 Y11.557
G1 F1200 X11.557 Y12.478 E56.64068
G0 F7200 X10.850 Y12.478
G1 F1200 X12.478 Y10.850 E56.71286
G0 F7200 X12.478 Y10.143
G1 F1200 X10.143 Y12.478 E56.81638
G0 F7200 X9.436 Y12.478
G1 F1200 X12.478 Y9.436 E56.95126
G0 F7200 X12.478 Y8.729
G1 F1200 X8.729 Y12.478 E57.11748
G0 F7200 X8.022 Y12.478
G1 F1200 X12.478 Y8.021 E57.31506
G0 F7200 X12.478 Y7.314
G1 F1200 X7.315 Y12.478 E57.544
G0 F7200 X6.607 Y12.478
G1 F1200 X12.478 Y6.607 E57.8043
G0 F7200 X12.478 Y5.900
G1 F1200 X5.900 Y12.478 E58.09595
G0 F7200 X5.193 Y12.478
G1 F1200 X12.478 Y5.193 E58.41894
G0 F7200 X12.478 Y4.486
G1 F1200 X4.486 Y12.478 E58.77328
G0 F7200 X3.779 Y12.478
G1 F1200 X12.478 Y3.779 E59.15897
G0 F7200 X12.478 Y3.072
G1 F1200 X3.072 Y12.478 E59.576
G0 F7200 X2.365 Y12.478
G1 F1200 X12.478 Y2.365 E60.02438
G0 F7200 X12.121 Y2.014
G1 F1200 X2.014 Y12.121 E60.47249
G0 F7200 X2.014 Y11.414
G1 F1200 X11.414 Y2.014 E60.88926
G0 F7200 X10.707 Y2.014
G1 F1200 X2.014 Y10.707 E61.27468
G0 F7200 X2.014 Y10.000
G1 F1200 X10.000 Y2.014 E61.62876
G0 F7200 X9.293 Y2.014
G1 F1200 X2.014 Y9.293 E61.95148
G0 F7200 X2.014 Y8.586
G1 F1200 X8.586 Y2.014 E62.24287
G0 F7200 X7.879 Y2.014
G1 F1200 X2.014 Y7.879 E62.5029
G0 F7200 X2.014 Y7.172
G1 F1200 X7.172 Y2.014 E62.73159
G0 F7200 X6.465 Y2.014
G1 F1200 X2.014 Y6.464 E62.92891
G0 F7200 X2.014 Y5.757
G1 F1200 X5.757 Y2.014 E63.09487
G0 F7200 X5.050 Y2.014
G1 F1200 X2.014 Y5.050 E63.22947
G0 F7200 X2.014 Y4.343
G1 F1200 X4.343 Y2.014 E63.33273
G0 F7200 X3.636 Y2.014
G1 F1200 X2.014 Y3.636 E63.40465
G0 F7200 X2.014 Y2.929
G1 F1200 X2.929 Y2.014 E63.44522
G0 F7200 X2.222 Y2.014
G1 F1200 X2.014 Y2.222 E63.45444
G0 F7200 X2.045 Y2.222
;MESH:NONMESH
G0 F600 X2.045 Y2.222 Z2.7
G0 F7200 X12.887 Y12.887
G0 X13.244 Y13.244
;TIME_ELAPSED:109.449913
;LAYER:6
;TYPE:WALL-INNER
;MESH:platform-15-13.STL
G1 F1200 X13.244 Y1.256 E63.83027
G1 X1.256 Y1.256 E64.20611
G1 X1.256 Y13.244 E64.58194
G1 X13.244 Y13.244 E64.95778
G0 F7200 X13.744 Y13.744
;TYPE:WALL-OUTER
G1 F1200 X13.744 Y0.756 E65.36496
G1 X0.756 Y0.756 E65.77215
G1 X0.756 Y13.744 E66.17934
G1 X13.744 Y13.744 E66.58652
G0 F7200 X13.744 Y13.494
G0 X12.926 Y12.926
G0 X12.768 Y12.768
;TYPE:SKIN
G1 F1200 X1.728 Y12.768 E66.93264
G1 X1.728 Y1.728 E67.27875
G1 X12.768 Y1.728 E67.62486
G1 X12.768 Y12.768 E67.97098
G0 F7200 X12.518 Y2.327
G1 F1200 X12.169 Y1.978 E67.98645
G0 F7200 X11.462 Y1.978
G1 F1200 X12.518 Y3.034 E68.03327
G0 F7200 X12.518 Y3.741
G1 F1200 X10.755 Y1.978 E68.11144
G0 F7200 X10.047 Y1.978
G1 F1200 X12.518 Y4.448 E68.22097
G0 F7200 X12.518 Y5.156
G1 F1200 X9.340 Y1.978 E68.36188
G0 F7200 X8.633 Y1.978
G1 F1200 X12.518 Y5.863 E68.53412
G0 F7200 X12.518 Y6.570
G1 F1200 X7.926 Y1.978 E68.73772
G0 F7200 X7.219 Y1.978
G1 F1200 X12.518 Y7.277 E68.97266
G0 F7200 X12.518 Y7.984
G1 F1200 X6.512 Y1.978 E69.23895
G0 F7200 X5.805 Y1.978
G1 F1200 X12.518 Y8.691 E69.53658
G0 F7200 X12.518 Y9.398
G1 F1200 X5.098 Y1.978 E69.86556
G0 F7200 X4.391 Y1.978
G1 F1200 X12.518 Y10.105 E70.22589
G0 F7200 X12.518 Y10.812
G1 F1200 X3.684 Y1.978 E70.61756
G0 F7200 X2.976 Y1.978
G1 F1200 X12.518 Y11.520 E71.04062
G0 F7200 X12.518 Y12.227
G1 F1200 X2.269 Y1.978 E71.49503
G0 F7200 X1.978 Y2.394
G1 F1200 X12.102 Y12.518 E71.9439
G0 F7200 X11.395 Y12.518
G1 F1200 X1.978 Y3.101 E72.36142
G0 F7200 X1.978 Y3.808
G1 F1200 X10.688 Y12.518 E72.74759
G0 F7200 X9.981 Y12.518
G1 F1200 X1.978 Y4.515 E73.10242
G0 F7200 X1.978 Y5.222
G1 F1200 X9.274 Y12.518 E73.4259
G0 F7200 X8.567 Y12.518
G1 F1200 X1.978 Y5.929 E73.71804
G0 F7200 X1.978 Y6.636
G1 F1200 X7.860 Y12.518 E73.97883
G0 F7200 X7.153 Y12.518
G1 F1200 X1.978 Y7.343 E74.20827
G0 F7200 X1.978 Y8.050
G1 F1200 X6.445 Y12.518 E74.40635
G0 F7200 X5.738 Y12.518
G1 F1200 X1.978 Y8.758 E74.57306
G0 F7200 X1.978 Y9.465
G1 F1200 X5.031 Y12.518 E74.70842
